<?xml version="1.0"?>
<VTKFile type="StructuredGrid" version="0.1" byte_order="LittleEndian">
  <StructuredGrid WholeExtent="0 3 0 199 0 199">
    <Piece Extent="0 3 132 199 99 199">
      <Points>
        <DataArray type="Float32" NumberOfComponents="3" format="ascii">
0 132 99
1 132 99
2 132 99
3 132 99
0 133 99
1 133 99
2 133 99
3 133 99
0 134 99
1 134 99
2 134 99
3 134 99
0 135 99
1 135 99
2 135 99
3 135 99
0 136 99
1 136 99
2 136 99
3 136 99
0 137 99
1 137 99
2 137 99
3 137 99
0 138 99
1 138 99
2 138 99
3 138 99
0 139 99
1 139 99
2 139 99
3 139 99
0 140 99
1 140 99
2 140 99
3 140 99
0 141 99
1 141 99
2 141 99
3 141 99
0 142 99
1 142 99
2 142 99
3 142 99
0 143 99
1 143 99
2 143 99
3 143 99
0 144 99
1 144 99
2 144 99
3 144 99
0 145 99
1 145 99
2 145 99
3 145 99
0 146 99
1 146 99
2 146 99
3 146 99
0 147 99
1 147 99
2 147 99
3 147 99
0 148 99
1 148 99
2 148 99
3 148 99
0 149 99
1 149 99
2 149 99
3 149 99
0 150 99
1 150 99
2 150 99
3 150 99
0 151 99
1 151 99
2 151 99
3 151 99
0 152 99
1 152 99
2 152 99
3 152 99
0 153 99
1 153 99
2 153 99
3 153 99
0 154 99
1 154 99
2 154 99
3 154 99
0 155 99
1 155 99
2 155 99
3 155 99
0 156 99
1 156 99
2 156 99
3 156 99
0 157 99
1 157 99
2 157 99
3 157 99
0 158 99
1 158 99
2 158 99
3 158 99
0 159 99
1 159 99
2 159 99
3 159 99
0 160 99
1 160 99
2 160 99
3 160 99
0 161 99
1 161 99
2 161 99
3 161 99
0 162 99
1 162 99
2 162 99
3 162 99
0 163 99
1 163 99
2 163 99
3 163 99
0 164 99
1 164 99
2 164 99
3 164 99
0 165 99
1 165 99
2 165 99
3 165 99
0 166 99
1 166 99
2 166 99
3 166 99
0 167 99
1 167 99
2 167 99
3 167 99
0 168 99
1 168 99
2 168 99
3 168 99
0 169 99
1 169 99
2 169 99
3 169 99
0 170 99
1 170 99
2 170 99
3 170 99
0 171 99
1 171 99
2 171 99
3 171 99
0 172 99
1 172 99
2 172 99
3 172 99
0 173 99
1 173 99
2 173 99
3 173 99
0 174 99
1 174 99
2 174 99
3 174 99
0 175 99
1 175 99
2 175 99
3 175 99
0 176 99
1 176 99
2 176 99
3 176 99
0 177 99
1 177 99
2 177 99
3 177 99
0 178 99
1 178 99
2 178 99
3 178 99
0 179 99
1 179 99
2 179 99
3 179 99
0 180 99
1 180 99
2 180 99
3 180 99
0 181 99
1 181 99
2 181 99
3 181 99
0 182 99
1 182 99
2 182 99
3 182 99
0 183 99
1 183 99
2 183 99
3 183 99
0 184 99
1 184 99
2 184 99
3 184 99
0 185 99
1 185 99
2 185 99
3 185 99
0 186 99
1 186 99
2 186 99
3 186 99
0 187 99
1 187 99
2 187 99
3 187 99
0 188 99
1 188 99
2 188 99
3 188 99
0 189 99
1 189 99
2 189 99
3 189 99
0 190 99
1 190 99
2 190 99
3 190 99
0 191 99
1 191 99
2 191 99
3 191 99
0 192 99
1 192 99
2 192 99
3 192 99
0 193 99
1 193 99
2 193 99
3 193 99
0 194 99
1 194 99
2 194 99
3 194 99
0 195 99
1 195 99
2 195 99
3 195 99
0 196 99
1 196 99
2 196 99
3 196 99
0 197 99
1 197 99
2 197 99
3 197 99
0 198 99
1 198 99
2 198 99
3 198 99
0 199 99
1 199 99
2 199 99
3 199 99
0 132 100
1 132 100
2 132 100
3 132 100
0 133 100
1 133 100
2 133 100
3 133 100
0 134 100
1 134 100
2 134 100
3 134 100
0 135 100
1 135 100
2 135 100
3 135 100
0 136 100
1 136 100
2 136 100
3 136 100
0 137 100
1 137 100
2 137 100
3 137 100
0 138 100
1 138 100
2 138 100
3 138 100
0 139 100
1 139 100
2 139 100
3 139 100
0 140 100
1 140 100
2 140 100
3 140 100
0 141 100
1 141 100
2 141 100
3 141 100
0 142 100
1 142 100
2 142 100
3 142 100
0 143 100
1 143 100
2 143 100
3 143 100
0 144 100
1 144 100
2 144 100
3 144 100
0 145 100
1 145 100
2 145 100
3 145 100
0 146 100
1 146 100
2 146 100
3 146 100
0 147 100
1 147 100
2 147 100
3 147 100
0 148 100
1 148 100
2 148 100
3 148 100
0 149 100
1 149 100
2 149 100
3 149 100
0 150 100
1 150 100
2 150 100
3 150 100
0 151 100
1 151 100
2 151 100
3 151 100
0 152 100
1 152 100
2 152 100
3 152 100
0 153 100
1 153 100
2 153 100
3 153 100
0 154 100
1 154 100
2 154 100
3 154 100
0 155 100
1 155 100
2 155 100
3 155 100
0 156 100
1 156 100
2 156 100
3 156 100
0 157 100
1 157 100
2 157 100
3 157 100
0 158 100
1 158 100
2 158 100
3 158 100
0 159 100
1 159 100
2 159 100
3 159 100
0 160 100
1 160 100
2 160 100
3 160 100
0 161 100
1 161 100
2 161 100
3 161 100
0 162 100
1 162 100
2 162 100
3 162 100
0 163 100
1 163 100
2 163 100
3 163 100
0 164 100
1 164 100
2 164 100
3 164 100
0 165 100
1 165 100
2 165 100
3 165 100
0 166 100
1 166 100
2 166 100
3 166 100
0 167 100
1 167 100
2 167 100
3 167 100
0 168 100
1 168 100
2 168 100
3 168 100
0 169 100
1 169 100
2 169 100
3 169 100
0 170 100
1 170 100
2 170 100
3 170 100
0 171 100
1 171 100
2 171 100
3 171 100
0 172 100
1 172 100
2 172 100
3 172 100
0 173 100
1 173 100
2 173 100
3 173 100
0 174 100
1 174 100
2 174 100
3 174 100
0 175 100
1 175 100
2 175 100
3 175 100
0 176 100
1 176 100
2 176 100
3 176 100
0 177 100
1 177 100
2 177 100
3 177 100
0 178 100
1 178 100
2 178 100
3 178 100
0 179 100
1 179 100
2 179 100
3 179 100
0 180 100
1 180 100
2 180 100
3 180 100
0 181 100
1 181 100
2 181 100
3 181 100
0 182 100
1 182 100
2 182 100
3 182 100
0 183 100
1 183 100
2 183 100
3 183 100
0 184 100
1 184 100
2 184 100
3 184 100
0 185 100
1 185 100
2 185 100
3 185 100
0 186 100
1 186 100
2 186 100
3 186 100
0 187 100
1 187 100
2 187 100
3 187 100
0 188 100
1 188 100
2 188 100
3 188 100
0 189 100
1 189 100
2 189 100
3 189 100
0 190 100
1 190 100
2 190 100
3 190 100
0 191 100
1 191 100
2 191 100
3 191 100
0 192 100
1 192 100
2 192 100
3 192 100
0 193 100
1 193 100
2 193 100
3 193 100
0 194 100
1 194 100
2 194 100
3 194 100
0 195 100
1 195 100
2 195 100
3 195 100
0 196 100
1 196 100
2 196 100
3 196 100
0 197 100
1 197 100
2 197 100
3 197 100
0 198 100
1 198 100
2 198 100
3 198 100
0 199 100
1 199 100
2 199 100
3 199 100
0 132 101
1 132 101
2 132 101
3 132 101
0 133 101
1 133 101
2 133 101
3 133 101
0 134 101
1 134 101
2 134 101
3 134 101
0 135 101
1 135 101
2 135 101
3 135 101
0 136 101
1 136 101
2 136 101
3 136 101
0 137 101
1 137 101
2 137 101
3 137 101
0 138 101
1 138 101
2 138 101
3 138 101
0 139 101
1 139 101
2 139 101
3 139 101
0 140 101
1 140 101
2 140 101
3 140 101
0 141 101
1 141 101
2 141 101
3 141 101
0 142 101
1 142 101
2 142 101
3 142 101
0 143 101
1 143 101
2 143 101
3 143 101
0 144 101
1 144 101
2 144 101
3 144 101
0 145 101
1 145 101
2 145 101
3 145 101
0 146 101
1 146 101
2 146 101
3 146 101
0 147 101
1 147 101
2 147 101
3 147 101
0 148 101
1 148 101
2 148 101
3 148 101
0 149 101
1 149 101
2 149 101
3 149 101
0 150 101
1 150 101
2 150 101
3 150 101
0 151 101
1 151 101
2 151 101
3 151 101
0 152 101
1 152 101
2 152 101
3 152 101
0 153 101
1 153 101
2 153 101
3 153 101
0 154 101
1 154 101
2 154 101
3 154 101
0 155 101
1 155 101
2 155 101
3 155 101
0 156 101
1 156 101
2 156 101
3 156 101
0 157 101
1 157 101
2 157 101
3 157 101
0 158 101
1 158 101
2 158 101
3 158 101
0 159 101
1 159 101
2 159 101
3 159 101
0 160 101
1 160 101
2 160 101
3 160 101
0 161 101
1 161 101
2 161 101
3 161 101
0 162 101
1 162 101
2 162 101
3 162 101
0 163 101
1 163 101
2 163 101
3 163 101
0 164 101
1 164 101
2 164 101
3 164 101
0 165 101
1 165 101
2 165 101
3 165 101
0 166 101
1 166 101
2 166 101
3 166 101
0 167 101
1 167 101
2 167 101
3 167 101
0 168 101
1 168 101
2 168 101
3 168 101
0 169 101
1 169 101
2 169 101
3 169 101
0 170 101
1 170 101
2 170 101
3 170 101
0 171 101
1 171 101
2 171 101
3 171 101
0 172 101
1 172 101
2 172 101
3 172 101
0 173 101
1 173 101
2 173 101
3 173 101
0 174 101
1 174 101
2 174 101
3 174 101
0 175 101
1 175 101
2 175 101
3 175 101
0 176 101
1 176 101
2 176 101
3 176 101
0 177 101
1 177 101
2 177 101
3 177 101
0 178 101
1 178 101
2 178 101
3 178 101
0 179 101
1 179 101
2 179 101
3 179 101
0 180 101
1 180 101
2 180 101
3 180 101
0 181 101
1 181 101
2 181 101
3 181 101
0 182 101
1 182 101
2 182 101
3 182 101
0 183 101
1 183 101
2 183 101
3 183 101
0 184 101
1 184 101
2 184 101
3 184 101
0 185 101
1 185 101
2 185 101
3 185 101
0 186 101
1 186 101
2 186 101
3 186 101
0 187 101
1 187 101
2 187 101
3 187 101
0 188 101
1 188 101
2 188 101
3 188 101
0 189 101
1 189 101
2 189 101
3 189 101
0 190 101
1 190 101
2 190 101
3 190 101
0 191 101
1 191 101
2 191 101
3 191 101
0 192 101
1 192 101
2 192 101
3 192 101
0 193 101
1 193 101
2 193 101
3 193 101
0 194 101
1 194 101
2 194 101
3 194 101
0 195 101
1 195 101
2 195 101
3 195 101
0 196 101
1 196 101
2 196 101
3 196 101
0 197 101
1 197 101
2 197 101
3 197 101
0 198 101
1 198 101
2 198 101
3 198 101
0 199 101
1 199 101
2 199 101
3 199 101
0 132 102
1 132 102
2 132 102
3 132 102
0 133 102
1 133 102
2 133 102
3 133 102
0 134 102
1 134 102
2 134 102
3 134 102
0 135 102
1 135 102
2 135 102
3 135 102
0 136 102
1 136 102
2 136 102
3 136 102
0 137 102
1 137 102
2 137 102
3 137 102
0 138 102
1 138 102
2 138 102
3 138 102
0 139 102
1 139 102
2 139 102
3 139 102
0 140 102
1 140 102
2 140 102
3 140 102
0 141 102
1 141 102
2 141 102
3 141 102
0 142 102
1 142 102
2 142 102
3 142 102
0 143 102
1 143 102
2 143 102
3 143 102
0 144 102
1 144 102
2 144 102
3 144 102
0 145 102
1 145 102
2 145 102
3 145 102
0 146 102
1 146 102
2 146 102
3 146 102
0 147 102
1 147 102
2 147 102
3 147 102
0 148 102
1 148 102
2 148 102
3 148 102
0 149 102
1 149 102
2 149 102
3 149 102
0 150 102
1 150 102
2 150 102
3 150 102
0 151 102
1 151 102
2 151 102
3 151 102
0 152 102
1 152 102
2 152 102
3 152 102
0 153 102
1 153 102
2 153 102
3 153 102
0 154 102
1 154 102
2 154 102
3 154 102
0 155 102
1 155 102
2 155 102
3 155 102
0 156 102
1 156 102
2 156 102
3 156 102
0 157 102
1 157 102
2 157 102
3 157 102
0 158 102
1 158 102
2 158 102
3 158 102
0 159 102
1 159 102
2 159 102
3 159 102
0 160 102
1 160 102
2 160 102
3 160 102
0 161 102
1 161 102
2 161 102
3 161 102
0 162 102
1 162 102
2 162 102
3 162 102
0 163 102
1 163 102
2 163 102
3 163 102
0 164 102
1 164 102
2 164 102
3 164 102
0 165 102
1 165 102
2 165 102
3 165 102
0 166 102
1 166 102
2 166 102
3 166 102
0 167 102
1 167 102
2 167 102
3 167 102
0 168 102
1 168 102
2 168 102
3 168 102
0 169 102
1 169 102
2 169 102
3 169 102
0 170 102
1 170 102
2 170 102
3 170 102
0 171 102
1 171 102
2 171 102
3 171 102
0 172 102
1 172 102
2 172 102
3 172 102
0 173 102
1 173 102
2 173 102
3 173 102
0 174 102
1 174 102
2 174 102
3 174 102
0 175 102
1 175 102
2 175 102
3 175 102
0 176 102
1 176 102
2 176 102
3 176 102
0 177 102
1 177 102
2 177 102
3 177 102
0 178 102
1 178 102
2 178 102
3 178 102
0 179 102
1 179 102
2 179 102
3 179 102
0 180 102
1 180 102
2 180 102
3 180 102
0 181 102
1 181 102
2 181 102
3 181 102
0 182 102
1 182 102
2 182 102
3 182 102
0 183 102
1 183 102
2 183 102
3 183 102
0 184 102
1 184 102
2 184 102
3 184 102
0 185 102
1 185 102
2 185 102
3 185 102
0 186 102
1 186 102
2 186 102
3 186 102
0 187 102
1 187 102
2 187 102
3 187 102
0 188 102
1 188 102
2 188 102
3 188 102
0 189 102
1 189 102
2 189 102
3 189 102
0 190 102
1 190 102
2 190 102
3 190 102
0 191 102
1 191 102
2 191 102
3 191 102
0 192 102
1 192 102
2 192 102
3 192 102
0 193 102
1 193 102
2 193 102
3 193 102
0 194 102
1 194 102
2 194 102
3 194 102
0 195 102
1 195 102
2 195 102
3 195 102
0 196 102
1 196 102
2 196 102
3 196 102
0 197 102
1 197 102
2 197 102
3 197 102
0 198 102
1 198 102
2 198 102
3 198 102
0 199 102
1 199 102
2 199 102
3 199 102
0 132 103
1 132 103
2 132 103
3 132 103
0 133 103
1 133 103
2 133 103
3 133 103
0 134 103
1 134 103
2 134 103
3 134 103
0 135 103
1 135 103
2 135 103
3 135 103
0 136 103
1 136 103
2 136 103
3 136 103
0 137 103
1 137 103
2 137 103
3 137 103
0 138 103
1 138 103
2 138 103
3 138 103
0 139 103
1 139 103
2 139 103
3 139 103
0 140 103
1 140 103
2 140 103
3 140 103
0 141 103
1 141 103
2 141 103
3 141 103
0 142 103
1 142 103
2 142 103
3 142 103
0 143 103
1 143 103
2 143 103
3 143 103
0 144 103
1 144 103
2 144 103
3 144 103
0 145 103
1 145 103
2 145 103
3 145 103
0 146 103
1 146 103
2 146 103
3 146 103
0 147 103
1 147 103
2 147 103
3 147 103
0 148 103
1 148 103
2 148 103
3 148 103
0 149 103
1 149 103
2 149 103
3 149 103
0 150 103
1 150 103
2 150 103
3 150 103
0 151 103
1 151 103
2 151 103
3 151 103
0 152 103
1 152 103
2 152 103
3 152 103
0 153 103
1 153 103
2 153 103
3 153 103
0 154 103
1 154 103
2 154 103
3 154 103
0 155 103
1 155 103
2 155 103
3 155 103
0 156 103
1 156 103
2 156 103
3 156 103
0 157 103
1 157 103
2 157 103
3 157 103
0 158 103
1 158 103
2 158 103
3 158 103
0 159 103
1 159 103
2 159 103
3 159 103
0 160 103
1 160 103
2 160 103
3 160 103
0 161 103
1 161 103
2 161 103
3 161 103
0 162 103
1 162 103
2 162 103
3 162 103
0 163 103
1 163 103
2 163 103
3 163 103
0 164 103
1 164 103
2 164 103
3 164 103
0 165 103
1 165 103
2 165 103
3 165 103
0 166 103
1 166 103
2 166 103
3 166 103
0 167 103
1 167 103
2 167 103
3 167 103
0 168 103
1 168 103
2 168 103
3 168 103
0 169 103
1 169 103
2 169 103
3 169 103
0 170 103
1 170 103
2 170 103
3 170 103
0 171 103
1 171 103
2 171 103
3 171 103
0 172 103
1 172 103
2 172 103
3 172 103
0 173 103
1 173 103
2 173 103
3 173 103
0 174 103
1 174 103
2 174 103
3 174 103
0 175 103
1 175 103
2 175 103
3 175 103
0 176 103
1 176 103
2 176 103
3 176 103
0 177 103
1 177 103
2 177 103
3 177 103
0 178 103
1 178 103
2 178 103
3 178 103
0 179 103
1 179 103
2 179 103
3 179 103
0 180 103
1 180 103
2 180 103
3 180 103
0 181 103
1 181 103
2 181 103
3 181 103
0 182 103
1 182 103
2 182 103
3 182 103
0 183 103
1 183 103
2 183 103
3 183 103
0 184 103
1 184 103
2 184 103
3 184 103
0 185 103
1 185 103
2 185 103
3 185 103
0 186 103
1 186 103
2 186 103
3 186 103
0 187 103
1 187 103
2 187 103
3 187 103
0 188 103
1 188 103
2 188 103
3 188 103
0 189 103
1 189 103
2 189 103
3 189 103
0 190 103
1 190 103
2 190 103
3 190 103
0 191 103
1 191 103
2 191 103
3 191 103
0 192 103
1 192 103
2 192 103
3 192 103
0 193 103
1 193 103
2 193 103
3 193 103
0 194 103
1 194 103
2 194 103
3 194 103
0 195 103
1 195 103
2 195 103
3 195 103
0 196 103
1 196 103
2 196 103
3 196 103
0 197 103
1 197 103
2 197 103
3 197 103
0 198 103
1 198 103
2 198 103
3 198 103
0 199 103
1 199 103
2 199 103
3 199 103
0 132 104
1 132 104
2 132 104
3 132 104
0 133 104
1 133 104
2 133 104
3 133 104
0 134 104
1 134 104
2 134 104
3 134 104
0 135 104
1 135 104
2 135 104
3 135 104
0 136 104
1 136 104
2 136 104
3 136 104
0 137 104
1 137 104
2 137 104
3 137 104
0 138 104
1 138 104
2 138 104
3 138 104
0 139 104
1 139 104
2 139 104
3 139 104
0 140 104
1 140 104
2 140 104
3 140 104
0 141 104
1 141 104
2 141 104
3 141 104
0 142 104
1 142 104
2 142 104
3 142 104
0 143 104
1 143 104
2 143 104
3 143 104
0 144 104
1 144 104
2 144 104
3 144 104
0 145 104
1 145 104
2 145 104
3 145 104
0 146 104
1 146 104
2 146 104
3 146 104
0 147 104
1 147 104
2 147 104
3 147 104
0 148 104
1 148 104
2 148 104
3 148 104
0 149 104
1 149 104
2 149 104
3 149 104
0 150 104
1 150 104
2 150 104
3 150 104
0 151 104
1 151 104
2 151 104
3 151 104
0 152 104
1 152 104
2 152 104
3 152 104
0 153 104
1 153 104
2 153 104
3 153 104
0 154 104
1 154 104
2 154 104
3 154 104
0 155 104
1 155 104
2 155 104
3 155 104
0 156 104
1 156 104
2 156 104
3 156 104
0 157 104
1 157 104
2 157 104
3 157 104
0 158 104
1 158 104
2 158 104
3 158 104
0 159 104
1 159 104
2 159 104
3 159 104
0 160 104
1 160 104
2 160 104
3 160 104
0 161 104
1 161 104
2 161 104
3 161 104
0 162 104
1 162 104
2 162 104
3 162 104
0 163 104
1 163 104
2 163 104
3 163 104
0 164 104
1 164 104
2 164 104
3 164 104
0 165 104
1 165 104
2 165 104
3 165 104
0 166 104
1 166 104
2 166 104
3 166 104
0 167 104
1 167 104
2 167 104
3 167 104
0 168 104
1 168 104
2 168 104
3 168 104
0 169 104
1 169 104
2 169 104
3 169 104
0 170 104
1 170 104
2 170 104
3 170 104
0 171 104
1 171 104
2 171 104
3 171 104
0 172 104
1 172 104
2 172 104
3 172 104
0 173 104
1 173 104
2 173 104
3 173 104
0 174 104
1 174 104
2 174 104
3 174 104
0 175 104
1 175 104
2 175 104
3 175 104
0 176 104
1 176 104
2 176 104
3 176 104
0 177 104
1 177 104
2 177 104
3 177 104
0 178 104
1 178 104
2 178 104
3 178 104
0 179 104
1 179 104
2 179 104
3 179 104
0 180 104
1 180 104
2 180 104
3 180 104
0 181 104
1 181 104
2 181 104
3 181 104
0 182 104
1 182 104
2 182 104
3 182 104
0 183 104
1 183 104
2 183 104
3 183 104
0 184 104
1 184 104
2 184 104
3 184 104
0 185 104
1 185 104
2 185 104
3 185 104
0 186 104
1 186 104
2 186 104
3 186 104
0 187 104
1 187 104
2 187 104
3 187 104
0 188 104
1 188 104
2 188 104
3 188 104
0 189 104
1 189 104
2 189 104
3 189 104
0 190 104
1 190 104
2 190 104
3 190 104
0 191 104
1 191 104
2 191 104
3 191 104
0 192 104
1 192 104
2 192 104
3 192 104
0 193 104
1 193 104
2 193 104
3 193 104
0 194 104
1 194 104
2 194 104
3 194 104
0 195 104
1 195 104
2 195 104
3 195 104
0 196 104
1 196 104
2 196 104
3 196 104
0 197 104
1 197 104
2 197 104
3 197 104
0 198 104
1 198 104
2 198 104
3 198 104
0 199 104
1 199 104
2 199 104
3 199 104
0 132 105
1 132 105
2 132 105
3 132 105
0 133 105
1 133 105
2 133 105
3 133 105
0 134 105
1 134 105
2 134 105
3 134 105
0 135 105
1 135 105
2 135 105
3 135 105
0 136 105
1 136 105
2 136 105
3 136 105
0 137 105
1 137 105
2 137 105
3 137 105
0 138 105
1 138 105
2 138 105
3 138 105
0 139 105
1 139 105
2 139 105
3 139 105
0 140 105
1 140 105
2 140 105
3 140 105
0 141 105
1 141 105
2 141 105
3 141 105
0 142 105
1 142 105
2 142 105
3 142 105
0 143 105
1 143 105
2 143 105
3 143 105
0 144 105
1 144 105
2 144 105
3 144 105
0 145 105
1 145 105
2 145 105
3 145 105
0 146 105
1 146 105
2 146 105
3 146 105
0 147 105
1 147 105
2 147 105
3 147 105
0 148 105
1 148 105
2 148 105
3 148 105
0 149 105
1 149 105
2 149 105
3 149 105
0 150 105
1 150 105
2 150 105
3 150 105
0 151 105
1 151 105
2 151 105
3 151 105
0 152 105
1 152 105
2 152 105
3 152 105
0 153 105
1 153 105
2 153 105
3 153 105
0 154 105
1 154 105
2 154 105
3 154 105
0 155 105
1 155 105
2 155 105
3 155 105
0 156 105
1 156 105
2 156 105
3 156 105
0 157 105
1 157 105
2 157 105
3 157 105
0 158 105
1 158 105
2 158 105
3 158 105
0 159 105
1 159 105
2 159 105
3 159 105
0 160 105
1 160 105
2 160 105
3 160 105
0 161 105
1 161 105
2 161 105
3 161 105
0 162 105
1 162 105
2 162 105
3 162 105
0 163 105
1 163 105
2 163 105
3 163 105
0 164 105
1 164 105
2 164 105
3 164 105
0 165 105
1 165 105
2 165 105
3 165 105
0 166 105
1 166 105
2 166 105
3 166 105
0 167 105
1 167 105
2 167 105
3 167 105
0 168 105
1 168 105
2 168 105
3 168 105
0 169 105
1 169 105
2 169 105
3 169 105
0 170 105
1 170 105
2 170 105
3 170 105
0 171 105
1 171 105
2 171 105
3 171 105
0 172 105
1 172 105
2 172 105
3 172 105
0 173 105
1 173 105
2 173 105
3 173 105
0 174 105
1 174 105
2 174 105
3 174 105
0 175 105
1 175 105
2 175 105
3 175 105
0 176 105
1 176 105
2 176 105
3 176 105
0 177 105
1 177 105
2 177 105
3 177 105
0 178 105
1 178 105
2 178 105
3 178 105
0 179 105
1 179 105
2 179 105
3 179 105
0 180 105
1 180 105
2 180 105
3 180 105
0 181 105
1 181 105
2 181 105
3 181 105
0 182 105
1 182 105
2 182 105
3 182 105
0 183 105
1 183 105
2 183 105
3 183 105
0 184 105
1 184 105
2 184 105
3 184 105
0 185 105
1 185 105
2 185 105
3 185 105
0 186 105
1 186 105
2 186 105
3 186 105
0 187 105
1 187 105
2 187 105
3 187 105
0 188 105
1 188 105
2 188 105
3 188 105
0 189 105
1 189 105
2 189 105
3 189 105
0 190 105
1 190 105
2 190 105
3 190 105
0 191 105
1 191 105
2 191 105
3 191 105
0 192 105
1 192 105
2 192 105
3 192 105
0 193 105
1 193 105
2 193 105
3 193 105
0 194 105
1 194 105
2 194 105
3 194 105
0 195 105
1 195 105
2 195 105
3 195 105
0 196 105
1 196 105
2 196 105
3 196 105
0 197 105
1 197 105
2 197 105
3 197 105
0 198 105
1 198 105
2 198 105
3 198 105
0 199 105
1 199 105
2 199 105
3 199 105
0 132 106
1 132 106
2 132 106
3 132 106
0 133 106
1 133 106
2 133 106
3 133 106
0 134 106
1 134 106
2 134 106
3 134 106
0 135 106
1 135 106
2 135 106
3 135 106
0 136 106
1 136 106
2 136 106
3 136 106
0 137 106
1 137 106
2 137 106
3 137 106
0 138 106
1 138 106
2 138 106
3 138 106
0 139 106
1 139 106
2 139 106
3 139 106
0 140 106
1 140 106
2 140 106
3 140 106
0 141 106
1 141 106
2 141 106
3 141 106
0 142 106
1 142 106
2 142 106
3 142 106
0 143 106
1 143 106
2 143 106
3 143 106
0 144 106
1 144 106
2 144 106
3 144 106
0 145 106
1 145 106
2 145 106
3 145 106
0 146 106
1 146 106
2 146 106
3 146 106
0 147 106
1 147 106
2 147 106
3 147 106
0 148 106
1 148 106
2 148 106
3 148 106
0 149 106
1 149 106
2 149 106
3 149 106
0 150 106
1 150 106
2 150 106
3 150 106
0 151 106
1 151 106
2 151 106
3 151 106
0 152 106
1 152 106
2 152 106
3 152 106
0 153 106
1 153 106
2 153 106
3 153 106
0 154 106
1 154 106
2 154 106
3 154 106
0 155 106
1 155 106
2 155 106
3 155 106
0 156 106
1 156 106
2 156 106
3 156 106
0 157 106
1 157 106
2 157 106
3 157 106
0 158 106
1 158 106
2 158 106
3 158 106
0 159 106
1 159 106
2 159 106
3 159 106
0 160 106
1 160 106
2 160 106
3 160 106
0 161 106
1 161 106
2 161 106
3 161 106
0 162 106
1 162 106
2 162 106
3 162 106
0 163 106
1 163 106
2 163 106
3 163 106
0 164 106
1 164 106
2 164 106
3 164 106
0 165 106
1 165 106
2 165 106
3 165 106
0 166 106
1 166 106
2 166 106
3 166 106
0 167 106
1 167 106
2 167 106
3 167 106
0 168 106
1 168 106
2 168 106
3 168 106
0 169 106
1 169 106
2 169 106
3 169 106
0 170 106
1 170 106
2 170 106
3 170 106
0 171 106
1 171 106
2 171 106
3 171 106
0 172 106
1 172 106
2 172 106
3 172 106
0 173 106
1 173 106
2 173 106
3 173 106
0 174 106
1 174 106
2 174 106
3 174 106
0 175 106
1 175 106
2 175 106
3 175 106
0 176 106
1 176 106
2 176 106
3 176 106
0 177 106
1 177 106
2 177 106
3 177 106
0 178 106
1 178 106
2 178 106
3 178 106
0 179 106
1 179 106
2 179 106
3 179 106
0 180 106
1 180 106
2 180 106
3 180 106
0 181 106
1 181 106
2 181 106
3 181 106
0 182 106
1 182 106
2 182 106
3 182 106
0 183 106
1 183 106
2 183 106
3 183 106
0 184 106
1 184 106
2 184 106
3 184 106
0 185 106
1 185 106
2 185 106
3 185 106
0 186 106
1 186 106
2 186 106
3 186 106
0 187 106
1 187 106
2 187 106
3 187 106
0 188 106
1 188 106
2 188 106
3 188 106
0 189 106
1 189 106
2 189 106
3 189 106
0 190 106
1 190 106
2 190 106
3 190 106
0 191 106
1 191 106
2 191 106
3 191 106
0 192 106
1 192 106
2 192 106
3 192 106
0 193 106
1 193 106
2 193 106
3 193 106
0 194 106
1 194 106
2 194 106
3 194 106
0 195 106
1 195 106
2 195 106
3 195 106
0 196 106
1 196 106
2 196 106
3 196 106
0 197 106
1 197 106
2 197 106
3 197 106
0 198 106
1 198 106
2 198 106
3 198 106
0 199 106
1 199 106
2 199 106
3 199 106
0 132 107
1 132 107
2 132 107
3 132 107
0 133 107
1 133 107
2 133 107
3 133 107
0 134 107
1 134 107
2 134 107
3 134 107
0 135 107
1 135 107
2 135 107
3 135 107
0 136 107
1 136 107
2 136 107
3 136 107
0 137 107
1 137 107
2 137 107
3 137 107
0 138 107
1 138 107
2 138 107
3 138 107
0 139 107
1 139 107
2 139 107
3 139 107
0 140 107
1 140 107
2 140 107
3 140 107
0 141 107
1 141 107
2 141 107
3 141 107
0 142 107
1 142 107
2 142 107
3 142 107
0 143 107
1 143 107
2 143 107
3 143 107
0 144 107
1 144 107
2 144 107
3 144 107
0 145 107
1 145 107
2 145 107
3 145 107
0 146 107
1 146 107
2 146 107
3 146 107
0 147 107
1 147 107
2 147 107
3 147 107
0 148 107
1 148 107
2 148 107
3 148 107
0 149 107
1 149 107
2 149 107
3 149 107
0 150 107
1 150 107
2 150 107
3 150 107
0 151 107
1 151 107
2 151 107
3 151 107
0 152 107
1 152 107
2 152 107
3 152 107
0 153 107
1 153 107
2 153 107
3 153 107
0 154 107
1 154 107
2 154 107
3 154 107
0 155 107
1 155 107
2 155 107
3 155 107
0 156 107
1 156 107
2 156 107
3 156 107
0 157 107
1 157 107
2 157 107
3 157 107
0 158 107
1 158 107
2 158 107
3 158 107
0 159 107
1 159 107
2 159 107
3 159 107
0 160 107
1 160 107
2 160 107
3 160 107
0 161 107
1 161 107
2 161 107
3 161 107
0 162 107
1 162 107
2 162 107
3 162 107
0 163 107
1 163 107
2 163 107
3 163 107
0 164 107
1 164 107
2 164 107
3 164 107
0 165 107
1 165 107
2 165 107
3 165 107
0 166 107
1 166 107
2 166 107
3 166 107
0 167 107
1 167 107
2 167 107
3 167 107
0 168 107
1 168 107
2 168 107
3 168 107
0 169 107
1 169 107
2 169 107
3 169 107
0 170 107
1 170 107
2 170 107
3 170 107
0 171 107
1 171 107
2 171 107
3 171 107
0 172 107
1 172 107
2 172 107
3 172 107
0 173 107
1 173 107
2 173 107
3 173 107
0 174 107
1 174 107
2 174 107
3 174 107
0 175 107
1 175 107
2 175 107
3 175 107
0 176 107
1 176 107
2 176 107
3 176 107
0 177 107
1 177 107
2 177 107
3 177 107
0 178 107
1 178 107
2 178 107
3 178 107
0 179 107
1 179 107
2 179 107
3 179 107
0 180 107
1 180 107
2 180 107
3 180 107
0 181 107
1 181 107
2 181 107
3 181 107
0 182 107
1 182 107
2 182 107
3 182 107
0 183 107
1 183 107
2 183 107
3 183 107
0 184 107
1 184 107
2 184 107
3 184 107
0 185 107
1 185 107
2 185 107
3 185 107
0 186 107
1 186 107
2 186 107
3 186 107
0 187 107
1 187 107
2 187 107
3 187 107
0 188 107
1 188 107
2 188 107
3 188 107
0 189 107
1 189 107
2 189 107
3 189 107
0 190 107
1 190 107
2 190 107
3 190 107
0 191 107
1 191 107
2 191 107
3 191 107
0 192 107
1 192 107
2 192 107
3 192 107
0 193 107
1 193 107
2 193 107
3 193 107
0 194 107
1 194 107
2 194 107
3 194 107
0 195 107
1 195 107
2 195 107
3 195 107
0 196 107
1 196 107
2 196 107
3 196 107
0 197 107
1 197 107
2 197 107
3 197 107
0 198 107
1 198 107
2 198 107
3 198 107
0 199 107
1 199 107
2 199 107
3 199 107
0 132 108
1 132 108
2 132 108
3 132 108
0 133 108
1 133 108
2 133 108
3 133 108
0 134 108
1 134 108
2 134 108
3 134 108
0 135 108
1 135 108
2 135 108
3 135 108
0 136 108
1 136 108
2 136 108
3 136 108
0 137 108
1 137 108
2 137 108
3 137 108
0 138 108
1 138 108
2 138 108
3 138 108
0 139 108
1 139 108
2 139 108
3 139 108
0 140 108
1 140 108
2 140 108
3 140 108
0 141 108
1 141 108
2 141 108
3 141 108
0 142 108
1 142 108
2 142 108
3 142 108
0 143 108
1 143 108
2 143 108
3 143 108
0 144 108
1 144 108
2 144 108
3 144 108
0 145 108
1 145 108
2 145 108
3 145 108
0 146 108
1 146 108
2 146 108
3 146 108
0 147 108
1 147 108
2 147 108
3 147 108
0 148 108
1 148 108
2 148 108
3 148 108
0 149 108
1 149 108
2 149 108
3 149 108
0 150 108
1 150 108
2 150 108
3 150 108
0 151 108
1 151 108
2 151 108
3 151 108
0 152 108
1 152 108
2 152 108
3 152 108
0 153 108
1 153 108
2 153 108
3 153 108
0 154 108
1 154 108
2 154 108
3 154 108
0 155 108
1 155 108
2 155 108
3 155 108
0 156 108
1 156 108
2 156 108
3 156 108
0 157 108
1 157 108
2 157 108
3 157 108
0 158 108
1 158 108
2 158 108
3 158 108
0 159 108
1 159 108
2 159 108
3 159 108
0 160 108
1 160 108
2 160 108
3 160 108
0 161 108
1 161 108
2 161 108
3 161 108
0 162 108
1 162 108
2 162 108
3 162 108
0 163 108
1 163 108
2 163 108
3 163 108
0 164 108
1 164 108
2 164 108
3 164 108
0 165 108
1 165 108
2 165 108
3 165 108
0 166 108
1 166 108
2 166 108
3 166 108
0 167 108
1 167 108
2 167 108
3 167 108
0 168 108
1 168 108
2 168 108
3 168 108
0 169 108
1 169 108
2 169 108
3 169 108
0 170 108
1 170 108
2 170 108
3 170 108
0 171 108
1 171 108
2 171 108
3 171 108
0 172 108
1 172 108
2 172 108
3 172 108
0 173 108
1 173 108
2 173 108
3 173 108
0 174 108
1 174 108
2 174 108
3 174 108
0 175 108
1 175 108
2 175 108
3 175 108
0 176 108
1 176 108
2 176 108
3 176 108
0 177 108
1 177 108
2 177 108
3 177 108
0 178 108
1 178 108
2 178 108
3 178 108
0 179 108
1 179 108
2 179 108
3 179 108
0 180 108
1 180 108
2 180 108
3 180 108
0 181 108
1 181 108
2 181 108
3 181 108
0 182 108
1 182 108
2 182 108
3 182 108
0 183 108
1 183 108
2 183 108
3 183 108
0 184 108
1 184 108
2 184 108
3 184 108
0 185 108
1 185 108
2 185 108
3 185 108
0 186 108
1 186 108
2 186 108
3 186 108
0 187 108
1 187 108
2 187 108
3 187 108
0 188 108
1 188 108
2 188 108
3 188 108
0 189 108
1 189 108
2 189 108
3 189 108
0 190 108
1 190 108
2 190 108
3 190 108
0 191 108
1 191 108
2 191 108
3 191 108
0 192 108
1 192 108
2 192 108
3 192 108
0 193 108
1 193 108
2 193 108
3 193 108
0 194 108
1 194 108
2 194 108
3 194 108
0 195 108
1 195 108
2 195 108
3 195 108
0 196 108
1 196 108
2 196 108
3 196 108
0 197 108
1 197 108
2 197 108
3 197 108
0 198 108
1 198 108
2 198 108
3 198 108
0 199 108
1 199 108
2 199 108
3 199 108
0 132 109
1 132 109
2 132 109
3 132 109
0 133 109
1 133 109
2 133 109
3 133 109
0 134 109
1 134 109
2 134 109
3 134 109
0 135 109
1 135 109
2 135 109
3 135 109
0 136 109
1 136 109
2 136 109
3 136 109
0 137 109
1 137 109
2 137 109
3 137 109
0 138 109
1 138 109
2 138 109
3 138 109
0 139 109
1 139 109
2 139 109
3 139 109
0 140 109
1 140 109
2 140 109
3 140 109
0 141 109
1 141 109
2 141 109
3 141 109
0 142 109
1 142 109
2 142 109
3 142 109
0 143 109
1 143 109
2 143 109
3 143 109
0 144 109
1 144 109
2 144 109
3 144 109
0 145 109
1 145 109
2 145 109
3 145 109
0 146 109
1 146 109
2 146 109
3 146 109
0 147 109
1 147 109
2 147 109
3 147 109
0 148 109
1 148 109
2 148 109
3 148 109
0 149 109
1 149 109
2 149 109
3 149 109
0 150 109
1 150 109
2 150 109
3 150 109
0 151 109
1 151 109
2 151 109
3 151 109
0 152 109
1 152 109
2 152 109
3 152 109
0 153 109
1 153 109
2 153 109
3 153 109
0 154 109
1 154 109
2 154 109
3 154 109
0 155 109
1 155 109
2 155 109
3 155 109
0 156 109
1 156 109
2 156 109
3 156 109
0 157 109
1 157 109
2 157 109
3 157 109
0 158 109
1 158 109
2 158 109
3 158 109
0 159 109
1 159 109
2 159 109
3 159 109
0 160 109
1 160 109
2 160 109
3 160 109
0 161 109
1 161 109
2 161 109
3 161 109
0 162 109
1 162 109
2 162 109
3 162 109
0 163 109
1 163 109
2 163 109
3 163 109
0 164 109
1 164 109
2 164 109
3 164 109
0 165 109
1 165 109
2 165 109
3 165 109
0 166 109
1 166 109
2 166 109
3 166 109
0 167 109
1 167 109
2 167 109
3 167 109
0 168 109
1 168 109
2 168 109
3 168 109
0 169 109
1 169 109
2 169 109
3 169 109
0 170 109
1 170 109
2 170 109
3 170 109
0 171 109
1 171 109
2 171 109
3 171 109
0 172 109
1 172 109
2 172 109
3 172 109
0 173 109
1 173 109
2 173 109
3 173 109
0 174 109
1 174 109
2 174 109
3 174 109
0 175 109
1 175 109
2 175 109
3 175 109
0 176 109
1 176 109
2 176 109
3 176 109
0 177 109
1 177 109
2 177 109
3 177 109
0 178 109
1 178 109
2 178 109
3 178 109
0 179 109
1 179 109
2 179 109
3 179 109
0 180 109
1 180 109
2 180 109
3 180 109
0 181 109
1 181 109
2 181 109
3 181 109
0 182 109
1 182 109
2 182 109
3 182 109
0 183 109
1 183 109
2 183 109
3 183 109
0 184 109
1 184 109
2 184 109
3 184 109
0 185 109
1 185 109
2 185 109
3 185 109
0 186 109
1 186 109
2 186 109
3 186 109
0 187 109
1 187 109
2 187 109
3 187 109
0 188 109
1 188 109
2 188 109
3 188 109
0 189 109
1 189 109
2 189 109
3 189 109
0 190 109
1 190 109
2 190 109
3 190 109
0 191 109
1 191 109
2 191 109
3 191 109
0 192 109
1 192 109
2 192 109
3 192 109
0 193 109
1 193 109
2 193 109
3 193 109
0 194 109
1 194 109
2 194 109
3 194 109
0 195 109
1 195 109
2 195 109
3 195 109
0 196 109
1 196 109
2 196 109
3 196 109
0 197 109
1 197 109
2 197 109
3 197 109
0 198 109
1 198 109
2 198 109
3 198 109
0 199 109
1 199 109
2 199 109
3 199 109
0 132 110
1 132 110
2 132 110
3 132 110
0 133 110
1 133 110
2 133 110
3 133 110
0 134 110
1 134 110
2 134 110
3 134 110
0 135 110
1 135 110
2 135 110
3 135 110
0 136 110
1 136 110
2 136 110
3 136 110
0 137 110
1 137 110
2 137 110
3 137 110
0 138 110
1 138 110
2 138 110
3 138 110
0 139 110
1 139 110
2 139 110
3 139 110
0 140 110
1 140 110
2 140 110
3 140 110
0 141 110
1 141 110
2 141 110
3 141 110
0 142 110
1 142 110
2 142 110
3 142 110
0 143 110
1 143 110
2 143 110
3 143 110
0 144 110
1 144 110
2 144 110
3 144 110
0 145 110
1 145 110
2 145 110
3 145 110
0 146 110
1 146 110
2 146 110
3 146 110
0 147 110
1 147 110
2 147 110
3 147 110
0 148 110
1 148 110
2 148 110
3 148 110
0 149 110
1 149 110
2 149 110
3 149 110
0 150 110
1 150 110
2 150 110
3 150 110
0 151 110
1 151 110
2 151 110
3 151 110
0 152 110
1 152 110
2 152 110
3 152 110
0 153 110
1 153 110
2 153 110
3 153 110
0 154 110
1 154 110
2 154 110
3 154 110
0 155 110
1 155 110
2 155 110
3 155 110
0 156 110
1 156 110
2 156 110
3 156 110
0 157 110
1 157 110
2 157 110
3 157 110
0 158 110
1 158 110
2 158 110
3 158 110
0 159 110
1 159 110
2 159 110
3 159 110
0 160 110
1 160 110
2 160 110
3 160 110
0 161 110
1 161 110
2 161 110
3 161 110
0 162 110
1 162 110
2 162 110
3 162 110
0 163 110
1 163 110
2 163 110
3 163 110
0 164 110
1 164 110
2 164 110
3 164 110
0 165 110
1 165 110
2 165 110
3 165 110
0 166 110
1 166 110
2 166 110
3 166 110
0 167 110
1 167 110
2 167 110
3 167 110
0 168 110
1 168 110
2 168 110
3 168 110
0 169 110
1 169 110
2 169 110
3 169 110
0 170 110
1 170 110
2 170 110
3 170 110
0 171 110
1 171 110
2 171 110
3 171 110
0 172 110
1 172 110
2 172 110
3 172 110
0 173 110
1 173 110
2 173 110
3 173 110
0 174 110
1 174 110
2 174 110
3 174 110
0 175 110
1 175 110
2 175 110
3 175 110
0 176 110
1 176 110
2 176 110
3 176 110
0 177 110
1 177 110
2 177 110
3 177 110
0 178 110
1 178 110
2 178 110
3 178 110
0 179 110
1 179 110
2 179 110
3 179 110
0 180 110
1 180 110
2 180 110
3 180 110
0 181 110
1 181 110
2 181 110
3 181 110
0 182 110
1 182 110
2 182 110
3 182 110
0 183 110
1 183 110
2 183 110
3 183 110
0 184 110
1 184 110
2 184 110
3 184 110
0 185 110
1 185 110
2 185 110
3 185 110
0 186 110
1 186 110
2 186 110
3 186 110
0 187 110
1 187 110
2 187 110
3 187 110
0 188 110
1 188 110
2 188 110
3 188 110
0 189 110
1 189 110
2 189 110
3 189 110
0 190 110
1 190 110
2 190 110
3 190 110
0 191 110
1 191 110
2 191 110
3 191 110
0 192 110
1 192 110
2 192 110
3 192 110
0 193 110
1 193 110
2 193 110
3 193 110
0 194 110
1 194 110
2 194 110
3 194 110
0 195 110
1 195 110
2 195 110
3 195 110
0 196 110
1 196 110
2 196 110
3 196 110
0 197 110
1 197 110
2 197 110
3 197 110
0 198 110
1 198 110
2 198 110
3 198 110
0 199 110
1 199 110
2 199 110
3 199 110
0 132 111
1 132 111
2 132 111
3 132 111
0 133 111
1 133 111
2 133 111
3 133 111
0 134 111
1 134 111
2 134 111
3 134 111
0 135 111
1 135 111
2 135 111
3 135 111
0 136 111
1 136 111
2 136 111
3 136 111
0 137 111
1 137 111
2 137 111
3 137 111
0 138 111
1 138 111
2 138 111
3 138 111
0 139 111
1 139 111
2 139 111
3 139 111
0 140 111
1 140 111
2 140 111
3 140 111
0 141 111
1 141 111
2 141 111
3 141 111
0 142 111
1 142 111
2 142 111
3 142 111
0 143 111
1 143 111
2 143 111
3 143 111
0 144 111
1 144 111
2 144 111
3 144 111
0 145 111
1 145 111
2 145 111
3 145 111
0 146 111
1 146 111
2 146 111
3 146 111
0 147 111
1 147 111
2 147 111
3 147 111
0 148 111
1 148 111
2 148 111
3 148 111
0 149 111
1 149 111
2 149 111
3 149 111
0 150 111
1 150 111
2 150 111
3 150 111
0 151 111
1 151 111
2 151 111
3 151 111
0 152 111
1 152 111
2 152 111
3 152 111
0 153 111
1 153 111
2 153 111
3 153 111
0 154 111
1 154 111
2 154 111
3 154 111
0 155 111
1 155 111
2 155 111
3 155 111
0 156 111
1 156 111
2 156 111
3 156 111
0 157 111
1 157 111
2 157 111
3 157 111
0 158 111
1 158 111
2 158 111
3 158 111
0 159 111
1 159 111
2 159 111
3 159 111
0 160 111
1 160 111
2 160 111
3 160 111
0 161 111
1 161 111
2 161 111
3 161 111
0 162 111
1 162 111
2 162 111
3 162 111
0 163 111
1 163 111
2 163 111
3 163 111
0 164 111
1 164 111
2 164 111
3 164 111
0 165 111
1 165 111
2 165 111
3 165 111
0 166 111
1 166 111
2 166 111
3 166 111
0 167 111
1 167 111
2 167 111
3 167 111
0 168 111
1 168 111
2 168 111
3 168 111
0 169 111
1 169 111
2 169 111
3 169 111
0 170 111
1 170 111
2 170 111
3 170 111
0 171 111
1 171 111
2 171 111
3 171 111
0 172 111
1 172 111
2 172 111
3 172 111
0 173 111
1 173 111
2 173 111
3 173 111
0 174 111
1 174 111
2 174 111
3 174 111
0 175 111
1 175 111
2 175 111
3 175 111
0 176 111
1 176 111
2 176 111
3 176 111
0 177 111
1 177 111
2 177 111
3 177 111
0 178 111
1 178 111
2 178 111
3 178 111
0 179 111
1 179 111
2 179 111
3 179 111
0 180 111
1 180 111
2 180 111
3 180 111
0 181 111
1 181 111
2 181 111
3 181 111
0 182 111
1 182 111
2 182 111
3 182 111
0 183 111
1 183 111
2 183 111
3 183 111
0 184 111
1 184 111
2 184 111
3 184 111
0 185 111
1 185 111
2 185 111
3 185 111
0 186 111
1 186 111
2 186 111
3 186 111
0 187 111
1 187 111
2 187 111
3 187 111
0 188 111
1 188 111
2 188 111
3 188 111
0 189 111
1 189 111
2 189 111
3 189 111
0 190 111
1 190 111
2 190 111
3 190 111
0 191 111
1 191 111
2 191 111
3 191 111
0 192 111
1 192 111
2 192 111
3 192 111
0 193 111
1 193 111
2 193 111
3 193 111
0 194 111
1 194 111
2 194 111
3 194 111
0 195 111
1 195 111
2 195 111
3 195 111
0 196 111
1 196 111
2 196 111
3 196 111
0 197 111
1 197 111
2 197 111
3 197 111
0 198 111
1 198 111
2 198 111
3 198 111
0 199 111
1 199 111
2 199 111
3 199 111
0 132 112
1 132 112
2 132 112
3 132 112
0 133 112
1 133 112
2 133 112
3 133 112
0 134 112
1 134 112
2 134 112
3 134 112
0 135 112
1 135 112
2 135 112
3 135 112
0 136 112
1 136 112
2 136 112
3 136 112
0 137 112
1 137 112
2 137 112
3 137 112
0 138 112
1 138 112
2 138 112
3 138 112
0 139 112
1 139 112
2 139 112
3 139 112
0 140 112
1 140 112
2 140 112
3 140 112
0 141 112
1 141 112
2 141 112
3 141 112
0 142 112
1 142 112
2 142 112
3 142 112
0 143 112
1 143 112
2 143 112
3 143 112
0 144 112
1 144 112
2 144 112
3 144 112
0 145 112
1 145 112
2 145 112
3 145 112
0 146 112
1 146 112
2 146 112
3 146 112
0 147 112
1 147 112
2 147 112
3 147 112
0 148 112
1 148 112
2 148 112
3 148 112
0 149 112
1 149 112
2 149 112
3 149 112
0 150 112
1 150 112
2 150 112
3 150 112
0 151 112
1 151 112
2 151 112
3 151 112
0 152 112
1 152 112
2 152 112
3 152 112
0 153 112
1 153 112
2 153 112
3 153 112
0 154 112
1 154 112
2 154 112
3 154 112
0 155 112
1 155 112
2 155 112
3 155 112
0 156 112
1 156 112
2 156 112
3 156 112
0 157 112
1 157 112
2 157 112
3 157 112
0 158 112
1 158 112
2 158 112
3 158 112
0 159 112
1 159 112
2 159 112
3 159 112
0 160 112
1 160 112
2 160 112
3 160 112
0 161 112
1 161 112
2 161 112
3 161 112
0 162 112
1 162 112
2 162 112
3 162 112
0 163 112
1 163 112
2 163 112
3 163 112
0 164 112
1 164 112
2 164 112
3 164 112
0 165 112
1 165 112
2 165 112
3 165 112
0 166 112
1 166 112
2 166 112
3 166 112
0 167 112
1 167 112
2 167 112
3 167 112
0 168 112
1 168 112
2 168 112
3 168 112
0 169 112
1 169 112
2 169 112
3 169 112
0 170 112
1 170 112
2 170 112
3 170 112
0 171 112
1 171 112
2 171 112
3 171 112
0 172 112
1 172 112
2 172 112
3 172 112
0 173 112
1 173 112
2 173 112
3 173 112
0 174 112
1 174 112
2 174 112
3 174 112
0 175 112
1 175 112
2 175 112
3 175 112
0 176 112
1 176 112
2 176 112
3 176 112
0 177 112
1 177 112
2 177 112
3 177 112
0 178 112
1 178 112
2 178 112
3 178 112
0 179 112
1 179 112
2 179 112
3 179 112
0 180 112
1 180 112
2 180 112
3 180 112
0 181 112
1 181 112
2 181 112
3 181 112
0 182 112
1 182 112
2 182 112
3 182 112
0 183 112
1 183 112
2 183 112
3 183 112
0 184 112
1 184 112
2 184 112
3 184 112
0 185 112
1 185 112
2 185 112
3 185 112
0 186 112
1 186 112
2 186 112
3 186 112
0 187 112
1 187 112
2 187 112
3 187 112
0 188 112
1 188 112
2 188 112
3 188 112
0 189 112
1 189 112
2 189 112
3 189 112
0 190 112
1 190 112
2 190 112
3 190 112
0 191 112
1 191 112
2 191 112
3 191 112
0 192 112
1 192 112
2 192 112
3 192 112
0 193 112
1 193 112
2 193 112
3 193 112
0 194 112
1 194 112
2 194 112
3 194 112
0 195 112
1 195 112
2 195 112
3 195 112
0 196 112
1 196 112
2 196 112
3 196 112
0 197 112
1 197 112
2 197 112
3 197 112
0 198 112
1 198 112
2 198 112
3 198 112
0 199 112
1 199 112
2 199 112
3 199 112
0 132 113
1 132 113
2 132 113
3 132 113
0 133 113
1 133 113
2 133 113
3 133 113
0 134 113
1 134 113
2 134 113
3 134 113
0 135 113
1 135 113
2 135 113
3 135 113
0 136 113
1 136 113
2 136 113
3 136 113
0 137 113
1 137 113
2 137 113
3 137 113
0 138 113
1 138 113
2 138 113
3 138 113
0 139 113
1 139 113
2 139 113
3 139 113
0 140 113
1 140 113
2 140 113
3 140 113
0 141 113
1 141 113
2 141 113
3 141 113
0 142 113
1 142 113
2 142 113
3 142 113
0 143 113
1 143 113
2 143 113
3 143 113
0 144 113
1 144 113
2 144 113
3 144 113
0 145 113
1 145 113
2 145 113
3 145 113
0 146 113
1 146 113
2 146 113
3 146 113
0 147 113
1 147 113
2 147 113
3 147 113
0 148 113
1 148 113
2 148 113
3 148 113
0 149 113
1 149 113
2 149 113
3 149 113
0 150 113
1 150 113
2 150 113
3 150 113
0 151 113
1 151 113
2 151 113
3 151 113
0 152 113
1 152 113
2 152 113
3 152 113
0 153 113
1 153 113
2 153 113
3 153 113
0 154 113
1 154 113
2 154 113
3 154 113
0 155 113
1 155 113
2 155 113
3 155 113
0 156 113
1 156 113
2 156 113
3 156 113
0 157 113
1 157 113
2 157 113
3 157 113
0 158 113
1 158 113
2 158 113
3 158 113
0 159 113
1 159 113
2 159 113
3 159 113
0 160 113
1 160 113
2 160 113
3 160 113
0 161 113
1 161 113
2 161 113
3 161 113
0 162 113
1 162 113
2 162 113
3 162 113
0 163 113
1 163 113
2 163 113
3 163 113
0 164 113
1 164 113
2 164 113
3 164 113
0 165 113
1 165 113
2 165 113
3 165 113
0 166 113
1 166 113
2 166 113
3 166 113
0 167 113
1 167 113
2 167 113
3 167 113
0 168 113
1 168 113
2 168 113
3 168 113
0 169 113
1 169 113
2 169 113
3 169 113
0 170 113
1 170 113
2 170 113
3 170 113
0 171 113
1 171 113
2 171 113
3 171 113
0 172 113
1 172 113
2 172 113
3 172 113
0 173 113
1 173 113
2 173 113
3 173 113
0 174 113
1 174 113
2 174 113
3 174 113
0 175 113
1 175 113
2 175 113
3 175 113
0 176 113
1 176 113
2 176 113
3 176 113
0 177 113
1 177 113
2 177 113
3 177 113
0 178 113
1 178 113
2 178 113
3 178 113
0 179 113
1 179 113
2 179 113
3 179 113
0 180 113
1 180 113
2 180 113
3 180 113
0 181 113
1 181 113
2 181 113
3 181 113
0 182 113
1 182 113
2 182 113
3 182 113
0 183 113
1 183 113
2 183 113
3 183 113
0 184 113
1 184 113
2 184 113
3 184 113
0 185 113
1 185 113
2 185 113
3 185 113
0 186 113
1 186 113
2 186 113
3 186 113
0 187 113
1 187 113
2 187 113
3 187 113
0 188 113
1 188 113
2 188 113
3 188 113
0 189 113
1 189 113
2 189 113
3 189 113
0 190 113
1 190 113
2 190 113
3 190 113
0 191 113
1 191 113
2 191 113
3 191 113
0 192 113
1 192 113
2 192 113
3 192 113
0 193 113
1 193 113
2 193 113
3 193 113
0 194 113
1 194 113
2 194 113
3 194 113
0 195 113
1 195 113
2 195 113
3 195 113
0 196 113
1 196 113
2 196 113
3 196 113
0 197 113
1 197 113
2 197 113
3 197 113
0 198 113
1 198 113
2 198 113
3 198 113
0 199 113
1 199 113
2 199 113
3 199 113
0 132 114
1 132 114
2 132 114
3 132 114
0 133 114
1 133 114
2 133 114
3 133 114
0 134 114
1 134 114
2 134 114
3 134 114
0 135 114
1 135 114
2 135 114
3 135 114
0 136 114
1 136 114
2 136 114
3 136 114
0 137 114
1 137 114
2 137 114
3 137 114
0 138 114
1 138 114
2 138 114
3 138 114
0 139 114
1 139 114
2 139 114
3 139 114
0 140 114
1 140 114
2 140 114
3 140 114
0 141 114
1 141 114
2 141 114
3 141 114
0 142 114
1 142 114
2 142 114
3 142 114
0 143 114
1 143 114
2 143 114
3 143 114
0 144 114
1 144 114
2 144 114
3 144 114
0 145 114
1 145 114
2 145 114
3 145 114
0 146 114
1 146 114
2 146 114
3 146 114
0 147 114
1 147 114
2 147 114
3 147 114
0 148 114
1 148 114
2 148 114
3 148 114
0 149 114
1 149 114
2 149 114
3 149 114
0 150 114
1 150 114
2 150 114
3 150 114
0 151 114
1 151 114
2 151 114
3 151 114
0 152 114
1 152 114
2 152 114
3 152 114
0 153 114
1 153 114
2 153 114
3 153 114
0 154 114
1 154 114
2 154 114
3 154 114
0 155 114
1 155 114
2 155 114
3 155 114
0 156 114
1 156 114
2 156 114
3 156 114
0 157 114
1 157 114
2 157 114
3 157 114
0 158 114
1 158 114
2 158 114
3 158 114
0 159 114
1 159 114
2 159 114
3 159 114
0 160 114
1 160 114
2 160 114
3 160 114
0 161 114
1 161 114
2 161 114
3 161 114
0 162 114
1 162 114
2 162 114
3 162 114
0 163 114
1 163 114
2 163 114
3 163 114
0 164 114
1 164 114
2 164 114
3 164 114
0 165 114
1 165 114
2 165 114
3 165 114
0 166 114
1 166 114
2 166 114
3 166 114
0 167 114
1 167 114
2 167 114
3 167 114
0 168 114
1 168 114
2 168 114
3 168 114
0 169 114
1 169 114
2 169 114
3 169 114
0 170 114
1 170 114
2 170 114
3 170 114
0 171 114
1 171 114
2 171 114
3 171 114
0 172 114
1 172 114
2 172 114
3 172 114
0 173 114
1 173 114
2 173 114
3 173 114
0 174 114
1 174 114
2 174 114
3 174 114
0 175 114
1 175 114
2 175 114
3 175 114
0 176 114
1 176 114
2 176 114
3 176 114
0 177 114
1 177 114
2 177 114
3 177 114
0 178 114
1 178 114
2 178 114
3 178 114
0 179 114
1 179 114
2 179 114
3 179 114
0 180 114
1 180 114
2 180 114
3 180 114
0 181 114
1 181 114
2 181 114
3 181 114
0 182 114
1 182 114
2 182 114
3 182 114
0 183 114
1 183 114
2 183 114
3 183 114
0 184 114
1 184 114
2 184 114
3 184 114
0 185 114
1 185 114
2 185 114
3 185 114
0 186 114
1 186 114
2 186 114
3 186 114
0 187 114
1 187 114
2 187 114
3 187 114
0 188 114
1 188 114
2 188 114
3 188 114
0 189 114
1 189 114
2 189 114
3 189 114
0 190 114
1 190 114
2 190 114
3 190 114
0 191 114
1 191 114
2 191 114
3 191 114
0 192 114
1 192 114
2 192 114
3 192 114
0 193 114
1 193 114
2 193 114
3 193 114
0 194 114
1 194 114
2 194 114
3 194 114
0 195 114
1 195 114
2 195 114
3 195 114
0 196 114
1 196 114
2 196 114
3 196 114
0 197 114
1 197 114
2 197 114
3 197 114
0 198 114
1 198 114
2 198 114
3 198 114
0 199 114
1 199 114
2 199 114
3 199 114
0 132 115
1 132 115
2 132 115
3 132 115
0 133 115
1 133 115
2 133 115
3 133 115
0 134 115
1 134 115
2 134 115
3 134 115
0 135 115
1 135 115
2 135 115
3 135 115
0 136 115
1 136 115
2 136 115
3 136 115
0 137 115
1 137 115
2 137 115
3 137 115
0 138 115
1 138 115
2 138 115
3 138 115
0 139 115
1 139 115
2 139 115
3 139 115
0 140 115
1 140 115
2 140 115
3 140 115
0 141 115
1 141 115
2 141 115
3 141 115
0 142 115
1 142 115
2 142 115
3 142 115
0 143 115
1 143 115
2 143 115
3 143 115
0 144 115
1 144 115
2 144 115
3 144 115
0 145 115
1 145 115
2 145 115
3 145 115
0 146 115
1 146 115
2 146 115
3 146 115
0 147 115
1 147 115
2 147 115
3 147 115
0 148 115
1 148 115
2 148 115
3 148 115
0 149 115
1 149 115
2 149 115
3 149 115
0 150 115
1 150 115
2 150 115
3 150 115
0 151 115
1 151 115
2 151 115
3 151 115
0 152 115
1 152 115
2 152 115
3 152 115
0 153 115
1 153 115
2 153 115
3 153 115
0 154 115
1 154 115
2 154 115
3 154 115
0 155 115
1 155 115
2 155 115
3 155 115
0 156 115
1 156 115
2 156 115
3 156 115
0 157 115
1 157 115
2 157 115
3 157 115
0 158 115
1 158 115
2 158 115
3 158 115
0 159 115
1 159 115
2 159 115
3 159 115
0 160 115
1 160 115
2 160 115
3 160 115
0 161 115
1 161 115
2 161 115
3 161 115
0 162 115
1 162 115
2 162 115
3 162 115
0 163 115
1 163 115
2 163 115
3 163 115
0 164 115
1 164 115
2 164 115
3 164 115
0 165 115
1 165 115
2 165 115
3 165 115
0 166 115
1 166 115
2 166 115
3 166 115
0 167 115
1 167 115
2 167 115
3 167 115
0 168 115
1 168 115
2 168 115
3 168 115
0 169 115
1 169 115
2 169 115
3 169 115
0 170 115
1 170 115
2 170 115
3 170 115
0 171 115
1 171 115
2 171 115
3 171 115
0 172 115
1 172 115
2 172 115
3 172 115
0 173 115
1 173 115
2 173 115
3 173 115
0 174 115
1 174 115
2 174 115
3 174 115
0 175 115
1 175 115
2 175 115
3 175 115
0 176 115
1 176 115
2 176 115
3 176 115
0 177 115
1 177 115
2 177 115
3 177 115
0 178 115
1 178 115
2 178 115
3 178 115
0 179 115
1 179 115
2 179 115
3 179 115
0 180 115
1 180 115
2 180 115
3 180 115
0 181 115
1 181 115
2 181 115
3 181 115
0 182 115
1 182 115
2 182 115
3 182 115
0 183 115
1 183 115
2 183 115
3 183 115
0 184 115
1 184 115
2 184 115
3 184 115
0 185 115
1 185 115
2 185 115
3 185 115
0 186 115
1 186 115
2 186 115
3 186 115
0 187 115
1 187 115
2 187 115
3 187 115
0 188 115
1 188 115
2 188 115
3 188 115
0 189 115
1 189 115
2 189 115
3 189 115
0 190 115
1 190 115
2 190 115
3 190 115
0 191 115
1 191 115
2 191 115
3 191 115
0 192 115
1 192 115
2 192 115
3 192 115
0 193 115
1 193 115
2 193 115
3 193 115
0 194 115
1 194 115
2 194 115
3 194 115
0 195 115
1 195 115
2 195 115
3 195 115
0 196 115
1 196 115
2 196 115
3 196 115
0 197 115
1 197 115
2 197 115
3 197 115
0 198 115
1 198 115
2 198 115
3 198 115
0 199 115
1 199 115
2 199 115
3 199 115
0 132 116
1 132 116
2 132 116
3 132 116
0 133 116
1 133 116
2 133 116
3 133 116
0 134 116
1 134 116
2 134 116
3 134 116
0 135 116
1 135 116
2 135 116
3 135 116
0 136 116
1 136 116
2 136 116
3 136 116
0 137 116
1 137 116
2 137 116
3 137 116
0 138 116
1 138 116
2 138 116
3 138 116
0 139 116
1 139 116
2 139 116
3 139 116
0 140 116
1 140 116
2 140 116
3 140 116
0 141 116
1 141 116
2 141 116
3 141 116
0 142 116
1 142 116
2 142 116
3 142 116
0 143 116
1 143 116
2 143 116
3 143 116
0 144 116
1 144 116
2 144 116
3 144 116
0 145 116
1 145 116
2 145 116
3 145 116
0 146 116
1 146 116
2 146 116
3 146 116
0 147 116
1 147 116
2 147 116
3 147 116
0 148 116
1 148 116
2 148 116
3 148 116
0 149 116
1 149 116
2 149 116
3 149 116
0 150 116
1 150 116
2 150 116
3 150 116
0 151 116
1 151 116
2 151 116
3 151 116
0 152 116
1 152 116
2 152 116
3 152 116
0 153 116
1 153 116
2 153 116
3 153 116
0 154 116
1 154 116
2 154 116
3 154 116
0 155 116
1 155 116
2 155 116
3 155 116
0 156 116
1 156 116
2 156 116
3 156 116
0 157 116
1 157 116
2 157 116
3 157 116
0 158 116
1 158 116
2 158 116
3 158 116
0 159 116
1 159 116
2 159 116
3 159 116
0 160 116
1 160 116
2 160 116
3 160 116
0 161 116
1 161 116
2 161 116
3 161 116
0 162 116
1 162 116
2 162 116
3 162 116
0 163 116
1 163 116
2 163 116
3 163 116
0 164 116
1 164 116
2 164 116
3 164 116
0 165 116
1 165 116
2 165 116
3 165 116
0 166 116
1 166 116
2 166 116
3 166 116
0 167 116
1 167 116
2 167 116
3 167 116
0 168 116
1 168 116
2 168 116
3 168 116
0 169 116
1 169 116
2 169 116
3 169 116
0 170 116
1 170 116
2 170 116
3 170 116
0 171 116
1 171 116
2 171 116
3 171 116
0 172 116
1 172 116
2 172 116
3 172 116
0 173 116
1 173 116
2 173 116
3 173 116
0 174 116
1 174 116
2 174 116
3 174 116
0 175 116
1 175 116
2 175 116
3 175 116
0 176 116
1 176 116
2 176 116
3 176 116
0 177 116
1 177 116
2 177 116
3 177 116
0 178 116
1 178 116
2 178 116
3 178 116
0 179 116
1 179 116
2 179 116
3 179 116
0 180 116
1 180 116
2 180 116
3 180 116
0 181 116
1 181 116
2 181 116
3 181 116
0 182 116
1 182 116
2 182 116
3 182 116
0 183 116
1 183 116
2 183 116
3 183 116
0 184 116
1 184 116
2 184 116
3 184 116
0 185 116
1 185 116
2 185 116
3 185 116
0 186 116
1 186 116
2 186 116
3 186 116
0 187 116
1 187 116
2 187 116
3 187 116
0 188 116
1 188 116
2 188 116
3 188 116
0 189 116
1 189 116
2 189 116
3 189 116
0 190 116
1 190 116
2 190 116
3 190 116
0 191 116
1 191 116
2 191 116
3 191 116
0 192 116
1 192 116
2 192 116
3 192 116
0 193 116
1 193 116
2 193 116
3 193 116
0 194 116
1 194 116
2 194 116
3 194 116
0 195 116
1 195 116
2 195 116
3 195 116
0 196 116
1 196 116
2 196 116
3 196 116
0 197 116
1 197 116
2 197 116
3 197 116
0 198 116
1 198 116
2 198 116
3 198 116
0 199 116
1 199 116
2 199 116
3 199 116
0 132 117
1 132 117
2 132 117
3 132 117
0 133 117
1 133 117
2 133 117
3 133 117
0 134 117
1 134 117
2 134 117
3 134 117
0 135 117
1 135 117
2 135 117
3 135 117
0 136 117
1 136 117
2 136 117
3 136 117
0 137 117
1 137 117
2 137 117
3 137 117
0 138 117
1 138 117
2 138 117
3 138 117
0 139 117
1 139 117
2 139 117
3 139 117
0 140 117
1 140 117
2 140 117
3 140 117
0 141 117
1 141 117
2 141 117
3 141 117
0 142 117
1 142 117
2 142 117
3 142 117
0 143 117
1 143 117
2 143 117
3 143 117
0 144 117
1 144 117
2 144 117
3 144 117
0 145 117
1 145 117
2 145 117
3 145 117
0 146 117
1 146 117
2 146 117
3 146 117
0 147 117
1 147 117
2 147 117
3 147 117
0 148 117
1 148 117
2 148 117
3 148 117
0 149 117
1 149 117
2 149 117
3 149 117
0 150 117
1 150 117
2 150 117
3 150 117
0 151 117
1 151 117
2 151 117
3 151 117
0 152 117
1 152 117
2 152 117
3 152 117
0 153 117
1 153 117
2 153 117
3 153 117
0 154 117
1 154 117
2 154 117
3 154 117
0 155 117
1 155 117
2 155 117
3 155 117
0 156 117
1 156 117
2 156 117
3 156 117
0 157 117
1 157 117
2 157 117
3 157 117
0 158 117
1 158 117
2 158 117
3 158 117
0 159 117
1 159 117
2 159 117
3 159 117
0 160 117
1 160 117
2 160 117
3 160 117
0 161 117
1 161 117
2 161 117
3 161 117
0 162 117
1 162 117
2 162 117
3 162 117
0 163 117
1 163 117
2 163 117
3 163 117
0 164 117
1 164 117
2 164 117
3 164 117
0 165 117
1 165 117
2 165 117
3 165 117
0 166 117
1 166 117
2 166 117
3 166 117
0 167 117
1 167 117
2 167 117
3 167 117
0 168 117
1 168 117
2 168 117
3 168 117
0 169 117
1 169 117
2 169 117
3 169 117
0 170 117
1 170 117
2 170 117
3 170 117
0 171 117
1 171 117
2 171 117
3 171 117
0 172 117
1 172 117
2 172 117
3 172 117
0 173 117
1 173 117
2 173 117
3 173 117
0 174 117
1 174 117
2 174 117
3 174 117
0 175 117
1 175 117
2 175 117
3 175 117
0 176 117
1 176 117
2 176 117
3 176 117
0 177 117
1 177 117
2 177 117
3 177 117
0 178 117
1 178 117
2 178 117
3 178 117
0 179 117
1 179 117
2 179 117
3 179 117
0 180 117
1 180 117
2 180 117
3 180 117
0 181 117
1 181 117
2 181 117
3 181 117
0 182 117
1 182 117
2 182 117
3 182 117
0 183 117
1 183 117
2 183 117
3 183 117
0 184 117
1 184 117
2 184 117
3 184 117
0 185 117
1 185 117
2 185 117
3 185 117
0 186 117
1 186 117
2 186 117
3 186 117
0 187 117
1 187 117
2 187 117
3 187 117
0 188 117
1 188 117
2 188 117
3 188 117
0 189 117
1 189 117
2 189 117
3 189 117
0 190 117
1 190 117
2 190 117
3 190 117
0 191 117
1 191 117
2 191 117
3 191 117
0 192 117
1 192 117
2 192 117
3 192 117
0 193 117
1 193 117
2 193 117
3 193 117
0 194 117
1 194 117
2 194 117
3 194 117
0 195 117
1 195 117
2 195 117
3 195 117
0 196 117
1 196 117
2 196 117
3 196 117
0 197 117
1 197 117
2 197 117
3 197 117
0 198 117
1 198 117
2 198 117
3 198 117
0 199 117
1 199 117
2 199 117
3 199 117
0 132 118
1 132 118
2 132 118
3 132 118
0 133 118
1 133 118
2 133 118
3 133 118
0 134 118
1 134 118
2 134 118
3 134 118
0 135 118
1 135 118
2 135 118
3 135 118
0 136 118
1 136 118
2 136 118
3 136 118
0 137 118
1 137 118
2 137 118
3 137 118
0 138 118
1 138 118
2 138 118
3 138 118
0 139 118
1 139 118
2 139 118
3 139 118
0 140 118
1 140 118
2 140 118
3 140 118
0 141 118
1 141 118
2 141 118
3 141 118
0 142 118
1 142 118
2 142 118
3 142 118
0 143 118
1 143 118
2 143 118
3 143 118
0 144 118
1 144 118
2 144 118
3 144 118
0 145 118
1 145 118
2 145 118
3 145 118
0 146 118
1 146 118
2 146 118
3 146 118
0 147 118
1 147 118
2 147 118
3 147 118
0 148 118
1 148 118
2 148 118
3 148 118
0 149 118
1 149 118
2 149 118
3 149 118
0 150 118
1 150 118
2 150 118
3 150 118
0 151 118
1 151 118
2 151 118
3 151 118
0 152 118
1 152 118
2 152 118
3 152 118
0 153 118
1 153 118
2 153 118
3 153 118
0 154 118
1 154 118
2 154 118
3 154 118
0 155 118
1 155 118
2 155 118
3 155 118
0 156 118
1 156 118
2 156 118
3 156 118
0 157 118
1 157 118
2 157 118
3 157 118
0 158 118
1 158 118
2 158 118
3 158 118
0 159 118
1 159 118
2 159 118
3 159 118
0 160 118
1 160 118
2 160 118
3 160 118
0 161 118
1 161 118
2 161 118
3 161 118
0 162 118
1 162 118
2 162 118
3 162 118
0 163 118
1 163 118
2 163 118
3 163 118
0 164 118
1 164 118
2 164 118
3 164 118
0 165 118
1 165 118
2 165 118
3 165 118
0 166 118
1 166 118
2 166 118
3 166 118
0 167 118
1 167 118
2 167 118
3 167 118
0 168 118
1 168 118
2 168 118
3 168 118
0 169 118
1 169 118
2 169 118
3 169 118
0 170 118
1 170 118
2 170 118
3 170 118
0 171 118
1 171 118
2 171 118
3 171 118
0 172 118
1 172 118
2 172 118
3 172 118
0 173 118
1 173 118
2 173 118
3 173 118
0 174 118
1 174 118
2 174 118
3 174 118
0 175 118
1 175 118
2 175 118
3 175 118
0 176 118
1 176 118
2 176 118
3 176 118
0 177 118
1 177 118
2 177 118
3 177 118
0 178 118
1 178 118
2 178 118
3 178 118
0 179 118
1 179 118
2 179 118
3 179 118
0 180 118
1 180 118
2 180 118
3 180 118
0 181 118
1 181 118
2 181 118
3 181 118
0 182 118
1 182 118
2 182 118
3 182 118
0 183 118
1 183 118
2 183 118
3 183 118
0 184 118
1 184 118
2 184 118
3 184 118
0 185 118
1 185 118
2 185 118
3 185 118
0 186 118
1 186 118
2 186 118
3 186 118
0 187 118
1 187 118
2 187 118
3 187 118
0 188 118
1 188 118
2 188 118
3 188 118
0 189 118
1 189 118
2 189 118
3 189 118
0 190 118
1 190 118
2 190 118
3 190 118
0 191 118
1 191 118
2 191 118
3 191 118
0 192 118
1 192 118
2 192 118
3 192 118
0 193 118
1 193 118
2 193 118
3 193 118
0 194 118
1 194 118
2 194 118
3 194 118
0 195 118
1 195 118
2 195 118
3 195 118
0 196 118
1 196 118
2 196 118
3 196 118
0 197 118
1 197 118
2 197 118
3 197 118
0 198 118
1 198 118
2 198 118
3 198 118
0 199 118
1 199 118
2 199 118
3 199 118
0 132 119
1 132 119
2 132 119
3 132 119
0 133 119
1 133 119
2 133 119
3 133 119
0 134 119
1 134 119
2 134 119
3 134 119
0 135 119
1 135 119
2 135 119
3 135 119
0 136 119
1 136 119
2 136 119
3 136 119
0 137 119
1 137 119
2 137 119
3 137 119
0 138 119
1 138 119
2 138 119
3 138 119
0 139 119
1 139 119
2 139 119
3 139 119
0 140 119
1 140 119
2 140 119
3 140 119
0 141 119
1 141 119
2 141 119
3 141 119
0 142 119
1 142 119
2 142 119
3 142 119
0 143 119
1 143 119
2 143 119
3 143 119
0 144 119
1 144 119
2 144 119
3 144 119
0 145 119
1 145 119
2 145 119
3 145 119
0 146 119
1 146 119
2 146 119
3 146 119
0 147 119
1 147 119
2 147 119
3 147 119
0 148 119
1 148 119
2 148 119
3 148 119
0 149 119
1 149 119
2 149 119
3 149 119
0 150 119
1 150 119
2 150 119
3 150 119
0 151 119
1 151 119
2 151 119
3 151 119
0 152 119
1 152 119
2 152 119
3 152 119
0 153 119
1 153 119
2 153 119
3 153 119
0 154 119
1 154 119
2 154 119
3 154 119
0 155 119
1 155 119
2 155 119
3 155 119
0 156 119
1 156 119
2 156 119
3 156 119
0 157 119
1 157 119
2 157 119
3 157 119
0 158 119
1 158 119
2 158 119
3 158 119
0 159 119
1 159 119
2 159 119
3 159 119
0 160 119
1 160 119
2 160 119
3 160 119
0 161 119
1 161 119
2 161 119
3 161 119
0 162 119
1 162 119
2 162 119
3 162 119
0 163 119
1 163 119
2 163 119
3 163 119
0 164 119
1 164 119
2 164 119
3 164 119
0 165 119
1 165 119
2 165 119
3 165 119
0 166 119
1 166 119
2 166 119
3 166 119
0 167 119
1 167 119
2 167 119
3 167 119
0 168 119
1 168 119
2 168 119
3 168 119
0 169 119
1 169 119
2 169 119
3 169 119
0 170 119
1 170 119
2 170 119
3 170 119
0 171 119
1 171 119
2 171 119
3 171 119
0 172 119
1 172 119
2 172 119
3 172 119
0 173 119
1 173 119
2 173 119
3 173 119
0 174 119
1 174 119
2 174 119
3 174 119
0 175 119
1 175 119
2 175 119
3 175 119
0 176 119
1 176 119
2 176 119
3 176 119
0 177 119
1 177 119
2 177 119
3 177 119
0 178 119
1 178 119
2 178 119
3 178 119
0 179 119
1 179 119
2 179 119
3 179 119
0 180 119
1 180 119
2 180 119
3 180 119
0 181 119
1 181 119
2 181 119
3 181 119
0 182 119
1 182 119
2 182 119
3 182 119
0 183 119
1 183 119
2 183 119
3 183 119
0 184 119
1 184 119
2 184 119
3 184 119
0 185 119
1 185 119
2 185 119
3 185 119
0 186 119
1 186 119
2 186 119
3 186 119
0 187 119
1 187 119
2 187 119
3 187 119
0 188 119
1 188 119
2 188 119
3 188 119
0 189 119
1 189 119
2 189 119
3 189 119
0 190 119
1 190 119
2 190 119
3 190 119
0 191 119
1 191 119
2 191 119
3 191 119
0 192 119
1 192 119
2 192 119
3 192 119
0 193 119
1 193 119
2 193 119
3 193 119
0 194 119
1 194 119
2 194 119
3 194 119
0 195 119
1 195 119
2 195 119
3 195 119
0 196 119
1 196 119
2 196 119
3 196 119
0 197 119
1 197 119
2 197 119
3 197 119
0 198 119
1 198 119
2 198 119
3 198 119
0 199 119
1 199 119
2 199 119
3 199 119
0 132 120
1 132 120
2 132 120
3 132 120
0 133 120
1 133 120
2 133 120
3 133 120
0 134 120
1 134 120
2 134 120
3 134 120
0 135 120
1 135 120
2 135 120
3 135 120
0 136 120
1 136 120
2 136 120
3 136 120
0 137 120
1 137 120
2 137 120
3 137 120
0 138 120
1 138 120
2 138 120
3 138 120
0 139 120
1 139 120
2 139 120
3 139 120
0 140 120
1 140 120
2 140 120
3 140 120
0 141 120
1 141 120
2 141 120
3 141 120
0 142 120
1 142 120
2 142 120
3 142 120
0 143 120
1 143 120
2 143 120
3 143 120
0 144 120
1 144 120
2 144 120
3 144 120
0 145 120
1 145 120
2 145 120
3 145 120
0 146 120
1 146 120
2 146 120
3 146 120
0 147 120
1 147 120
2 147 120
3 147 120
0 148 120
1 148 120
2 148 120
3 148 120
0 149 120
1 149 120
2 149 120
3 149 120
0 150 120
1 150 120
2 150 120
3 150 120
0 151 120
1 151 120
2 151 120
3 151 120
0 152 120
1 152 120
2 152 120
3 152 120
0 153 120
1 153 120
2 153 120
3 153 120
0 154 120
1 154 120
2 154 120
3 154 120
0 155 120
1 155 120
2 155 120
3 155 120
0 156 120
1 156 120
2 156 120
3 156 120
0 157 120
1 157 120
2 157 120
3 157 120
0 158 120
1 158 120
2 158 120
3 158 120
0 159 120
1 159 120
2 159 120
3 159 120
0 160 120
1 160 120
2 160 120
3 160 120
0 161 120
1 161 120
2 161 120
3 161 120
0 162 120
1 162 120
2 162 120
3 162 120
0 163 120
1 163 120
2 163 120
3 163 120
0 164 120
1 164 120
2 164 120
3 164 120
0 165 120
1 165 120
2 165 120
3 165 120
0 166 120
1 166 120
2 166 120
3 166 120
0 167 120
1 167 120
2 167 120
3 167 120
0 168 120
1 168 120
2 168 120
3 168 120
0 169 120
1 169 120
2 169 120
3 169 120
0 170 120
1 170 120
2 170 120
3 170 120
0 171 120
1 171 120
2 171 120
3 171 120
0 172 120
1 172 120
2 172 120
3 172 120
0 173 120
1 173 120
2 173 120
3 173 120
0 174 120
1 174 120
2 174 120
3 174 120
0 175 120
1 175 120
2 175 120
3 175 120
0 176 120
1 176 120
2 176 120
3 176 120
0 177 120
1 177 120
2 177 120
3 177 120
0 178 120
1 178 120
2 178 120
3 178 120
0 179 120
1 179 120
2 179 120
3 179 120
0 180 120
1 180 120
2 180 120
3 180 120
0 181 120
1 181 120
2 181 120
3 181 120
0 182 120
1 182 120
2 182 120
3 182 120
0 183 120
1 183 120
2 183 120
3 183 120
0 184 120
1 184 120
2 184 120
3 184 120
0 185 120
1 185 120
2 185 120
3 185 120
0 186 120
1 186 120
2 186 120
3 186 120
0 187 120
1 187 120
2 187 120
3 187 120
0 188 120
1 188 120
2 188 120
3 188 120
0 189 120
1 189 120
2 189 120
3 189 120
0 190 120
1 190 120
2 190 120
3 190 120
0 191 120
1 191 120
2 191 120
3 191 120
0 192 120
1 192 120
2 192 120
3 192 120
0 193 120
1 193 120
2 193 120
3 193 120
0 194 120
1 194 120
2 194 120
3 194 120
0 195 120
1 195 120
2 195 120
3 195 120
0 196 120
1 196 120
2 196 120
3 196 120
0 197 120
1 197 120
2 197 120
3 197 120
0 198 120
1 198 120
2 198 120
3 198 120
0 199 120
1 199 120
2 199 120
3 199 120
0 132 121
1 132 121
2 132 121
3 132 121
0 133 121
1 133 121
2 133 121
3 133 121
0 134 121
1 134 121
2 134 121
3 134 121
0 135 121
1 135 121
2 135 121
3 135 121
0 136 121
1 136 121
2 136 121
3 136 121
0 137 121
1 137 121
2 137 121
3 137 121
0 138 121
1 138 121
2 138 121
3 138 121
0 139 121
1 139 121
2 139 121
3 139 121
0 140 121
1 140 121
2 140 121
3 140 121
0 141 121
1 141 121
2 141 121
3 141 121
0 142 121
1 142 121
2 142 121
3 142 121
0 143 121
1 143 121
2 143 121
3 143 121
0 144 121
1 144 121
2 144 121
3 144 121
0 145 121
1 145 121
2 145 121
3 145 121
0 146 121
1 146 121
2 146 121
3 146 121
0 147 121
1 147 121
2 147 121
3 147 121
0 148 121
1 148 121
2 148 121
3 148 121
0 149 121
1 149 121
2 149 121
3 149 121
0 150 121
1 150 121
2 150 121
3 150 121
0 151 121
1 151 121
2 151 121
3 151 121
0 152 121
1 152 121
2 152 121
3 152 121
0 153 121
1 153 121
2 153 121
3 153 121
0 154 121
1 154 121
2 154 121
3 154 121
0 155 121
1 155 121
2 155 121
3 155 121
0 156 121
1 156 121
2 156 121
3 156 121
0 157 121
1 157 121
2 157 121
3 157 121
0 158 121
1 158 121
2 158 121
3 158 121
0 159 121
1 159 121
2 159 121
3 159 121
0 160 121
1 160 121
2 160 121
3 160 121
0 161 121
1 161 121
2 161 121
3 161 121
0 162 121
1 162 121
2 162 121
3 162 121
0 163 121
1 163 121
2 163 121
3 163 121
0 164 121
1 164 121
2 164 121
3 164 121
0 165 121
1 165 121
2 165 121
3 165 121
0 166 121
1 166 121
2 166 121
3 166 121
0 167 121
1 167 121
2 167 121
3 167 121
0 168 121
1 168 121
2 168 121
3 168 121
0 169 121
1 169 121
2 169 121
3 169 121
0 170 121
1 170 121
2 170 121
3 170 121
0 171 121
1 171 121
2 171 121
3 171 121
0 172 121
1 172 121
2 172 121
3 172 121
0 173 121
1 173 121
2 173 121
3 173 121
0 174 121
1 174 121
2 174 121
3 174 121
0 175 121
1 175 121
2 175 121
3 175 121
0 176 121
1 176 121
2 176 121
3 176 121
0 177 121
1 177 121
2 177 121
3 177 121
0 178 121
1 178 121
2 178 121
3 178 121
0 179 121
1 179 121
2 179 121
3 179 121
0 180 121
1 180 121
2 180 121
3 180 121
0 181 121
1 181 121
2 181 121
3 181 121
0 182 121
1 182 121
2 182 121
3 182 121
0 183 121
1 183 121
2 183 121
3 183 121
0 184 121
1 184 121
2 184 121
3 184 121
0 185 121
1 185 121
2 185 121
3 185 121
0 186 121
1 186 121
2 186 121
3 186 121
0 187 121
1 187 121
2 187 121
3 187 121
0 188 121
1 188 121
2 188 121
3 188 121
0 189 121
1 189 121
2 189 121
3 189 121
0 190 121
1 190 121
2 190 121
3 190 121
0 191 121
1 191 121
2 191 121
3 191 121
0 192 121
1 192 121
2 192 121
3 192 121
0 193 121
1 193 121
2 193 121
3 193 121
0 194 121
1 194 121
2 194 121
3 194 121
0 195 121
1 195 121
2 195 121
3 195 121
0 196 121
1 196 121
2 196 121
3 196 121
0 197 121
1 197 121
2 197 121
3 197 121
0 198 121
1 198 121
2 198 121
3 198 121
0 199 121
1 199 121
2 199 121
3 199 121
0 132 122
1 132 122
2 132 122
3 132 122
0 133 122
1 133 122
2 133 122
3 133 122
0 134 122
1 134 122
2 134 122
3 134 122
0 135 122
1 135 122
2 135 122
3 135 122
0 136 122
1 136 122
2 136 122
3 136 122
0 137 122
1 137 122
2 137 122
3 137 122
0 138 122
1 138 122
2 138 122
3 138 122
0 139 122
1 139 122
2 139 122
3 139 122
0 140 122
1 140 122
2 140 122
3 140 122
0 141 122
1 141 122
2 141 122
3 141 122
0 142 122
1 142 122
2 142 122
3 142 122
0 143 122
1 143 122
2 143 122
3 143 122
0 144 122
1 144 122
2 144 122
3 144 122
0 145 122
1 145 122
2 145 122
3 145 122
0 146 122
1 146 122
2 146 122
3 146 122
0 147 122
1 147 122
2 147 122
3 147 122
0 148 122
1 148 122
2 148 122
3 148 122
0 149 122
1 149 122
2 149 122
3 149 122
0 150 122
1 150 122
2 150 122
3 150 122
0 151 122
1 151 122
2 151 122
3 151 122
0 152 122
1 152 122
2 152 122
3 152 122
0 153 122
1 153 122
2 153 122
3 153 122
0 154 122
1 154 122
2 154 122
3 154 122
0 155 122
1 155 122
2 155 122
3 155 122
0 156 122
1 156 122
2 156 122
3 156 122
0 157 122
1 157 122
2 157 122
3 157 122
0 158 122
1 158 122
2 158 122
3 158 122
0 159 122
1 159 122
2 159 122
3 159 122
0 160 122
1 160 122
2 160 122
3 160 122
0 161 122
1 161 122
2 161 122
3 161 122
0 162 122
1 162 122
2 162 122
3 162 122
0 163 122
1 163 122
2 163 122
3 163 122
0 164 122
1 164 122
2 164 122
3 164 122
0 165 122
1 165 122
2 165 122
3 165 122
0 166 122
1 166 122
2 166 122
3 166 122
0 167 122
1 167 122
2 167 122
3 167 122
0 168 122
1 168 122
2 168 122
3 168 122
0 169 122
1 169 122
2 169 122
3 169 122
0 170 122
1 170 122
2 170 122
3 170 122
0 171 122
1 171 122
2 171 122
3 171 122
0 172 122
1 172 122
2 172 122
3 172 122
0 173 122
1 173 122
2 173 122
3 173 122
0 174 122
1 174 122
2 174 122
3 174 122
0 175 122
1 175 122
2 175 122
3 175 122
0 176 122
1 176 122
2 176 122
3 176 122
0 177 122
1 177 122
2 177 122
3 177 122
0 178 122
1 178 122
2 178 122
3 178 122
0 179 122
1 179 122
2 179 122
3 179 122
0 180 122
1 180 122
2 180 122
3 180 122
0 181 122
1 181 122
2 181 122
3 181 122
0 182 122
1 182 122
2 182 122
3 182 122
0 183 122
1 183 122
2 183 122
3 183 122
0 184 122
1 184 122
2 184 122
3 184 122
0 185 122
1 185 122
2 185 122
3 185 122
0 186 122
1 186 122
2 186 122
3 186 122
0 187 122
1 187 122
2 187 122
3 187 122
0 188 122
1 188 122
2 188 122
3 188 122
0 189 122
1 189 122
2 189 122
3 189 122
0 190 122
1 190 122
2 190 122
3 190 122
0 191 122
1 191 122
2 191 122
3 191 122
0 192 122
1 192 122
2 192 122
3 192 122
0 193 122
1 193 122
2 193 122
3 193 122
0 194 122
1 194 122
2 194 122
3 194 122
0 195 122
1 195 122
2 195 122
3 195 122
0 196 122
1 196 122
2 196 122
3 196 122
0 197 122
1 197 122
2 197 122
3 197 122
0 198 122
1 198 122
2 198 122
3 198 122
0 199 122
1 199 122
2 199 122
3 199 122
0 132 123
1 132 123
2 132 123
3 132 123
0 133 123
1 133 123
2 133 123
3 133 123
0 134 123
1 134 123
2 134 123
3 134 123
0 135 123
1 135 123
2 135 123
3 135 123
0 136 123
1 136 123
2 136 123
3 136 123
0 137 123
1 137 123
2 137 123
3 137 123
0 138 123
1 138 123
2 138 123
3 138 123
0 139 123
1 139 123
2 139 123
3 139 123
0 140 123
1 140 123
2 140 123
3 140 123
0 141 123
1 141 123
2 141 123
3 141 123
0 142 123
1 142 123
2 142 123
3 142 123
0 143 123
1 143 123
2 143 123
3 143 123
0 144 123
1 144 123
2 144 123
3 144 123
0 145 123
1 145 123
2 145 123
3 145 123
0 146 123
1 146 123
2 146 123
3 146 123
0 147 123
1 147 123
2 147 123
3 147 123
0 148 123
1 148 123
2 148 123
3 148 123
0 149 123
1 149 123
2 149 123
3 149 123
0 150 123
1 150 123
2 150 123
3 150 123
0 151 123
1 151 123
2 151 123
3 151 123
0 152 123
1 152 123
2 152 123
3 152 123
0 153 123
1 153 123
2 153 123
3 153 123
0 154 123
1 154 123
2 154 123
3 154 123
0 155 123
1 155 123
2 155 123
3 155 123
0 156 123
1 156 123
2 156 123
3 156 123
0 157 123
1 157 123
2 157 123
3 157 123
0 158 123
1 158 123
2 158 123
3 158 123
0 159 123
1 159 123
2 159 123
3 159 123
0 160 123
1 160 123
2 160 123
3 160 123
0 161 123
1 161 123
2 161 123
3 161 123
0 162 123
1 162 123
2 162 123
3 162 123
0 163 123
1 163 123
2 163 123
3 163 123
0 164 123
1 164 123
2 164 123
3 164 123
0 165 123
1 165 123
2 165 123
3 165 123
0 166 123
1 166 123
2 166 123
3 166 123
0 167 123
1 167 123
2 167 123
3 167 123
0 168 123
1 168 123
2 168 123
3 168 123
0 169 123
1 169 123
2 169 123
3 169 123
0 170 123
1 170 123
2 170 123
3 170 123
0 171 123
1 171 123
2 171 123
3 171 123
0 172 123
1 172 123
2 172 123
3 172 123
0 173 123
1 173 123
2 173 123
3 173 123
0 174 123
1 174 123
2 174 123
3 174 123
0 175 123
1 175 123
2 175 123
3 175 123
0 176 123
1 176 123
2 176 123
3 176 123
0 177 123
1 177 123
2 177 123
3 177 123
0 178 123
1 178 123
2 178 123
3 178 123
0 179 123
1 179 123
2 179 123
3 179 123
0 180 123
1 180 123
2 180 123
3 180 123
0 181 123
1 181 123
2 181 123
3 181 123
0 182 123
1 182 123
2 182 123
3 182 123
0 183 123
1 183 123
2 183 123
3 183 123
0 184 123
1 184 123
2 184 123
3 184 123
0 185 123
1 185 123
2 185 123
3 185 123
0 186 123
1 186 123
2 186 123
3 186 123
0 187 123
1 187 123
2 187 123
3 187 123
0 188 123
1 188 123
2 188 123
3 188 123
0 189 123
1 189 123
2 189 123
3 189 123
0 190 123
1 190 123
2 190 123
3 190 123
0 191 123
1 191 123
2 191 123
3 191 123
0 192 123
1 192 123
2 192 123
3 192 123
0 193 123
1 193 123
2 193 123
3 193 123
0 194 123
1 194 123
2 194 123
3 194 123
0 195 123
1 195 123
2 195 123
3 195 123
0 196 123
1 196 123
2 196 123
3 196 123
0 197 123
1 197 123
2 197 123
3 197 123
0 198 123
1 198 123
2 198 123
3 198 123
0 199 123
1 199 123
2 199 123
3 199 123
0 132 124
1 132 124
2 132 124
3 132 124
0 133 124
1 133 124
2 133 124
3 133 124
0 134 124
1 134 124
2 134 124
3 134 124
0 135 124
1 135 124
2 135 124
3 135 124
0 136 124
1 136 124
2 136 124
3 136 124
0 137 124
1 137 124
2 137 124
3 137 124
0 138 124
1 138 124
2 138 124
3 138 124
0 139 124
1 139 124
2 139 124
3 139 124
0 140 124
1 140 124
2 140 124
3 140 124
0 141 124
1 141 124
2 141 124
3 141 124
0 142 124
1 142 124
2 142 124
3 142 124
0 143 124
1 143 124
2 143 124
3 143 124
0 144 124
1 144 124
2 144 124
3 144 124
0 145 124
1 145 124
2 145 124
3 145 124
0 146 124
1 146 124
2 146 124
3 146 124
0 147 124
1 147 124
2 147 124
3 147 124
0 148 124
1 148 124
2 148 124
3 148 124
0 149 124
1 149 124
2 149 124
3 149 124
0 150 124
1 150 124
2 150 124
3 150 124
0 151 124
1 151 124
2 151 124
3 151 124
0 152 124
1 152 124
2 152 124
3 152 124
0 153 124
1 153 124
2 153 124
3 153 124
0 154 124
1 154 124
2 154 124
3 154 124
0 155 124
1 155 124
2 155 124
3 155 124
0 156 124
1 156 124
2 156 124
3 156 124
0 157 124
1 157 124
2 157 124
3 157 124
0 158 124
1 158 124
2 158 124
3 158 124
0 159 124
1 159 124
2 159 124
3 159 124
0 160 124
1 160 124
2 160 124
3 160 124
0 161 124
1 161 124
2 161 124
3 161 124
0 162 124
1 162 124
2 162 124
3 162 124
0 163 124
1 163 124
2 163 124
3 163 124
0 164 124
1 164 124
2 164 124
3 164 124
0 165 124
1 165 124
2 165 124
3 165 124
0 166 124
1 166 124
2 166 124
3 166 124
0 167 124
1 167 124
2 167 124
3 167 124
0 168 124
1 168 124
2 168 124
3 168 124
0 169 124
1 169 124
2 169 124
3 169 124
0 170 124
1 170 124
2 170 124
3 170 124
0 171 124
1 171 124
2 171 124
3 171 124
0 172 124
1 172 124
2 172 124
3 172 124
0 173 124
1 173 124
2 173 124
3 173 124
0 174 124
1 174 124
2 174 124
3 174 124
0 175 124
1 175 124
2 175 124
3 175 124
0 176 124
1 176 124
2 176 124
3 176 124
0 177 124
1 177 124
2 177 124
3 177 124
0 178 124
1 178 124
2 178 124
3 178 124
0 179 124
1 179 124
2 179 124
3 179 124
0 180 124
1 180 124
2 180 124
3 180 124
0 181 124
1 181 124
2 181 124
3 181 124
0 182 124
1 182 124
2 182 124
3 182 124
0 183 124
1 183 124
2 183 124
3 183 124
0 184 124
1 184 124
2 184 124
3 184 124
0 185 124
1 185 124
2 185 124
3 185 124
0 186 124
1 186 124
2 186 124
3 186 124
0 187 124
1 187 124
2 187 124
3 187 124
0 188 124
1 188 124
2 188 124
3 188 124
0 189 124
1 189 124
2 189 124
3 189 124
0 190 124
1 190 124
2 190 124
3 190 124
0 191 124
1 191 124
2 191 124
3 191 124
0 192 124
1 192 124
2 192 124
3 192 124
0 193 124
1 193 124
2 193 124
3 193 124
0 194 124
1 194 124
2 194 124
3 194 124
0 195 124
1 195 124
2 195 124
3 195 124
0 196 124
1 196 124
2 196 124
3 196 124
0 197 124
1 197 124
2 197 124
3 197 124
0 198 124
1 198 124
2 198 124
3 198 124
0 199 124
1 199 124
2 199 124
3 199 124
0 132 125
1 132 125
2 132 125
3 132 125
0 133 125
1 133 125
2 133 125
3 133 125
0 134 125
1 134 125
2 134 125
3 134 125
0 135 125
1 135 125
2 135 125
3 135 125
0 136 125
1 136 125
2 136 125
3 136 125
0 137 125
1 137 125
2 137 125
3 137 125
0 138 125
1 138 125
2 138 125
3 138 125
0 139 125
1 139 125
2 139 125
3 139 125
0 140 125
1 140 125
2 140 125
3 140 125
0 141 125
1 141 125
2 141 125
3 141 125
0 142 125
1 142 125
2 142 125
3 142 125
0 143 125
1 143 125
2 143 125
3 143 125
0 144 125
1 144 125
2 144 125
3 144 125
0 145 125
1 145 125
2 145 125
3 145 125
0 146 125
1 146 125
2 146 125
3 146 125
0 147 125
1 147 125
2 147 125
3 147 125
0 148 125
1 148 125
2 148 125
3 148 125
0 149 125
1 149 125
2 149 125
3 149 125
0 150 125
1 150 125
2 150 125
3 150 125
0 151 125
1 151 125
2 151 125
3 151 125
0 152 125
1 152 125
2 152 125
3 152 125
0 153 125
1 153 125
2 153 125
3 153 125
0 154 125
1 154 125
2 154 125
3 154 125
0 155 125
1 155 125
2 155 125
3 155 125
0 156 125
1 156 125
2 156 125
3 156 125
0 157 125
1 157 125
2 157 125
3 157 125
0 158 125
1 158 125
2 158 125
3 158 125
0 159 125
1 159 125
2 159 125
3 159 125
0 160 125
1 160 125
2 160 125
3 160 125
0 161 125
1 161 125
2 161 125
3 161 125
0 162 125
1 162 125
2 162 125
3 162 125
0 163 125
1 163 125
2 163 125
3 163 125
0 164 125
1 164 125
2 164 125
3 164 125
0 165 125
1 165 125
2 165 125
3 165 125
0 166 125
1 166 125
2 166 125
3 166 125
0 167 125
1 167 125
2 167 125
3 167 125
0 168 125
1 168 125
2 168 125
3 168 125
0 169 125
1 169 125
2 169 125
3 169 125
0 170 125
1 170 125
2 170 125
3 170 125
0 171 125
1 171 125
2 171 125
3 171 125
0 172 125
1 172 125
2 172 125
3 172 125
0 173 125
1 173 125
2 173 125
3 173 125
0 174 125
1 174 125
2 174 125
3 174 125
0 175 125
1 175 125
2 175 125
3 175 125
0 176 125
1 176 125
2 176 125
3 176 125
0 177 125
1 177 125
2 177 125
3 177 125
0 178 125
1 178 125
2 178 125
3 178 125
0 179 125
1 179 125
2 179 125
3 179 125
0 180 125
1 180 125
2 180 125
3 180 125
0 181 125
1 181 125
2 181 125
3 181 125
0 182 125
1 182 125
2 182 125
3 182 125
0 183 125
1 183 125
2 183 125
3 183 125
0 184 125
1 184 125
2 184 125
3 184 125
0 185 125
1 185 125
2 185 125
3 185 125
0 186 125
1 186 125
2 186 125
3 186 125
0 187 125
1 187 125
2 187 125
3 187 125
0 188 125
1 188 125
2 188 125
3 188 125
0 189 125
1 189 125
2 189 125
3 189 125
0 190 125
1 190 125
2 190 125
3 190 125
0 191 125
1 191 125
2 191 125
3 191 125
0 192 125
1 192 125
2 192 125
3 192 125
0 193 125
1 193 125
2 193 125
3 193 125
0 194 125
1 194 125
2 194 125
3 194 125
0 195 125
1 195 125
2 195 125
3 195 125
0 196 125
1 196 125
2 196 125
3 196 125
0 197 125
1 197 125
2 197 125
3 197 125
0 198 125
1 198 125
2 198 125
3 198 125
0 199 125
1 199 125
2 199 125
3 199 125
0 132 126
1 132 126
2 132 126
3 132 126
0 133 126
1 133 126
2 133 126
3 133 126
0 134 126
1 134 126
2 134 126
3 134 126
0 135 126
1 135 126
2 135 126
3 135 126
0 136 126
1 136 126
2 136 126
3 136 126
0 137 126
1 137 126
2 137 126
3 137 126
0 138 126
1 138 126
2 138 126
3 138 126
0 139 126
1 139 126
2 139 126
3 139 126
0 140 126
1 140 126
2 140 126
3 140 126
0 141 126
1 141 126
2 141 126
3 141 126
0 142 126
1 142 126
2 142 126
3 142 126
0 143 126
1 143 126
2 143 126
3 143 126
0 144 126
1 144 126
2 144 126
3 144 126
0 145 126
1 145 126
2 145 126
3 145 126
0 146 126
1 146 126
2 146 126
3 146 126
0 147 126
1 147 126
2 147 126
3 147 126
0 148 126
1 148 126
2 148 126
3 148 126
0 149 126
1 149 126
2 149 126
3 149 126
0 150 126
1 150 126
2 150 126
3 150 126
0 151 126
1 151 126
2 151 126
3 151 126
0 152 126
1 152 126
2 152 126
3 152 126
0 153 126
1 153 126
2 153 126
3 153 126
0 154 126
1 154 126
2 154 126
3 154 126
0 155 126
1 155 126
2 155 126
3 155 126
0 156 126
1 156 126
2 156 126
3 156 126
0 157 126
1 157 126
2 157 126
3 157 126
0 158 126
1 158 126
2 158 126
3 158 126
0 159 126
1 159 126
2 159 126
3 159 126
0 160 126
1 160 126
2 160 126
3 160 126
0 161 126
1 161 126
2 161 126
3 161 126
0 162 126
1 162 126
2 162 126
3 162 126
0 163 126
1 163 126
2 163 126
3 163 126
0 164 126
1 164 126
2 164 126
3 164 126
0 165 126
1 165 126
2 165 126
3 165 126
0 166 126
1 166 126
2 166 126
3 166 126
0 167 126
1 167 126
2 167 126
3 167 126
0 168 126
1 168 126
2 168 126
3 168 126
0 169 126
1 169 126
2 169 126
3 169 126
0 170 126
1 170 126
2 170 126
3 170 126
0 171 126
1 171 126
2 171 126
3 171 126
0 172 126
1 172 126
2 172 126
3 172 126
0 173 126
1 173 126
2 173 126
3 173 126
0 174 126
1 174 126
2 174 126
3 174 126
0 175 126
1 175 126
2 175 126
3 175 126
0 176 126
1 176 126
2 176 126
3 176 126
0 177 126
1 177 126
2 177 126
3 177 126
0 178 126
1 178 126
2 178 126
3 178 126
0 179 126
1 179 126
2 179 126
3 179 126
0 180 126
1 180 126
2 180 126
3 180 126
0 181 126
1 181 126
2 181 126
3 181 126
0 182 126
1 182 126
2 182 126
3 182 126
0 183 126
1 183 126
2 183 126
3 183 126
0 184 126
1 184 126
2 184 126
3 184 126
0 185 126
1 185 126
2 185 126
3 185 126
0 186 126
1 186 126
2 186 126
3 186 126
0 187 126
1 187 126
2 187 126
3 187 126
0 188 126
1 188 126
2 188 126
3 188 126
0 189 126
1 189 126
2 189 126
3 189 126
0 190 126
1 190 126
2 190 126
3 190 126
0 191 126
1 191 126
2 191 126
3 191 126
0 192 126
1 192 126
2 192 126
3 192 126
0 193 126
1 193 126
2 193 126
3 193 126
0 194 126
1 194 126
2 194 126
3 194 126
0 195 126
1 195 126
2 195 126
3 195 126
0 196 126
1 196 126
2 196 126
3 196 126
0 197 126
1 197 126
2 197 126
3 197 126
0 198 126
1 198 126
2 198 126
3 198 126
0 199 126
1 199 126
2 199 126
3 199 126
0 132 127
1 132 127
2 132 127
3 132 127
0 133 127
1 133 127
2 133 127
3 133 127
0 134 127
1 134 127
2 134 127
3 134 127
0 135 127
1 135 127
2 135 127
3 135 127
0 136 127
1 136 127
2 136 127
3 136 127
0 137 127
1 137 127
2 137 127
3 137 127
0 138 127
1 138 127
2 138 127
3 138 127
0 139 127
1 139 127
2 139 127
3 139 127
0 140 127
1 140 127
2 140 127
3 140 127
0 141 127
1 141 127
2 141 127
3 141 127
0 142 127
1 142 127
2 142 127
3 142 127
0 143 127
1 143 127
2 143 127
3 143 127
0 144 127
1 144 127
2 144 127
3 144 127
0 145 127
1 145 127
2 145 127
3 145 127
0 146 127
1 146 127
2 146 127
3 146 127
0 147 127
1 147 127
2 147 127
3 147 127
0 148 127
1 148 127
2 148 127
3 148 127
0 149 127
1 149 127
2 149 127
3 149 127
0 150 127
1 150 127
2 150 127
3 150 127
0 151 127
1 151 127
2 151 127
3 151 127
0 152 127
1 152 127
2 152 127
3 152 127
0 153 127
1 153 127
2 153 127
3 153 127
0 154 127
1 154 127
2 154 127
3 154 127
0 155 127
1 155 127
2 155 127
3 155 127
0 156 127
1 156 127
2 156 127
3 156 127
0 157 127
1 157 127
2 157 127
3 157 127
0 158 127
1 158 127
2 158 127
3 158 127
0 159 127
1 159 127
2 159 127
3 159 127
0 160 127
1 160 127
2 160 127
3 160 127
0 161 127
1 161 127
2 161 127
3 161 127
0 162 127
1 162 127
2 162 127
3 162 127
0 163 127
1 163 127
2 163 127
3 163 127
0 164 127
1 164 127
2 164 127
3 164 127
0 165 127
1 165 127
2 165 127
3 165 127
0 166 127
1 166 127
2 166 127
3 166 127
0 167 127
1 167 127
2 167 127
3 167 127
0 168 127
1 168 127
2 168 127
3 168 127
0 169 127
1 169 127
2 169 127
3 169 127
0 170 127
1 170 127
2 170 127
3 170 127
0 171 127
1 171 127
2 171 127
3 171 127
0 172 127
1 172 127
2 172 127
3 172 127
0 173 127
1 173 127
2 173 127
3 173 127
0 174 127
1 174 127
2 174 127
3 174 127
0 175 127
1 175 127
2 175 127
3 175 127
0 176 127
1 176 127
2 176 127
3 176 127
0 177 127
1 177 127
2 177 127
3 177 127
0 178 127
1 178 127
2 178 127
3 178 127
0 179 127
1 179 127
2 179 127
3 179 127
0 180 127
1 180 127
2 180 127
3 180 127
0 181 127
1 181 127
2 181 127
3 181 127
0 182 127
1 182 127
2 182 127
3 182 127
0 183 127
1 183 127
2 183 127
3 183 127
0 184 127
1 184 127
2 184 127
3 184 127
0 185 127
1 185 127
2 185 127
3 185 127
0 186 127
1 186 127
2 186 127
3 186 127
0 187 127
1 187 127
2 187 127
3 187 127
0 188 127
1 188 127
2 188 127
3 188 127
0 189 127
1 189 127
2 189 127
3 189 127
0 190 127
1 190 127
2 190 127
3 190 127
0 191 127
1 191 127
2 191 127
3 191 127
0 192 127
1 192 127
2 192 127
3 192 127
0 193 127
1 193 127
2 193 127
3 193 127
0 194 127
1 194 127
2 194 127
3 194 127
0 195 127
1 195 127
2 195 127
3 195 127
0 196 127
1 196 127
2 196 127
3 196 127
0 197 127
1 197 127
2 197 127
3 197 127
0 198 127
1 198 127
2 198 127
3 198 127
0 199 127
1 199 127
2 199 127
3 199 127
0 132 128
1 132 128
2 132 128
3 132 128
0 133 128
1 133 128
2 133 128
3 133 128
0 134 128
1 134 128
2 134 128
3 134 128
0 135 128
1 135 128
2 135 128
3 135 128
0 136 128
1 136 128
2 136 128
3 136 128
0 137 128
1 137 128
2 137 128
3 137 128
0 138 128
1 138 128
2 138 128
3 138 128
0 139 128
1 139 128
2 139 128
3 139 128
0 140 128
1 140 128
2 140 128
3 140 128
0 141 128
1 141 128
2 141 128
3 141 128
0 142 128
1 142 128
2 142 128
3 142 128
0 143 128
1 143 128
2 143 128
3 143 128
0 144 128
1 144 128
2 144 128
3 144 128
0 145 128
1 145 128
2 145 128
3 145 128
0 146 128
1 146 128
2 146 128
3 146 128
0 147 128
1 147 128
2 147 128
3 147 128
0 148 128
1 148 128
2 148 128
3 148 128
0 149 128
1 149 128
2 149 128
3 149 128
0 150 128
1 150 128
2 150 128
3 150 128
0 151 128
1 151 128
2 151 128
3 151 128
0 152 128
1 152 128
2 152 128
3 152 128
0 153 128
1 153 128
2 153 128
3 153 128
0 154 128
1 154 128
2 154 128
3 154 128
0 155 128
1 155 128
2 155 128
3 155 128
0 156 128
1 156 128
2 156 128
3 156 128
0 157 128
1 157 128
2 157 128
3 157 128
0 158 128
1 158 128
2 158 128
3 158 128
0 159 128
1 159 128
2 159 128
3 159 128
0 160 128
1 160 128
2 160 128
3 160 128
0 161 128
1 161 128
2 161 128
3 161 128
0 162 128
1 162 128
2 162 128
3 162 128
0 163 128
1 163 128
2 163 128
3 163 128
0 164 128
1 164 128
2 164 128
3 164 128
0 165 128
1 165 128
2 165 128
3 165 128
0 166 128
1 166 128
2 166 128
3 166 128
0 167 128
1 167 128
2 167 128
3 167 128
0 168 128
1 168 128
2 168 128
3 168 128
0 169 128
1 169 128
2 169 128
3 169 128
0 170 128
1 170 128
2 170 128
3 170 128
0 171 128
1 171 128
2 171 128
3 171 128
0 172 128
1 172 128
2 172 128
3 172 128
0 173 128
1 173 128
2 173 128
3 173 128
0 174 128
1 174 128
2 174 128
3 174 128
0 175 128
1 175 128
2 175 128
3 175 128
0 176 128
1 176 128
2 176 128
3 176 128
0 177 128
1 177 128
2 177 128
3 177 128
0 178 128
1 178 128
2 178 128
3 178 128
0 179 128
1 179 128
2 179 128
3 179 128
0 180 128
1 180 128
2 180 128
3 180 128
0 181 128
1 181 128
2 181 128
3 181 128
0 182 128
1 182 128
2 182 128
3 182 128
0 183 128
1 183 128
2 183 128
3 183 128
0 184 128
1 184 128
2 184 128
3 184 128
0 185 128
1 185 128
2 185 128
3 185 128
0 186 128
1 186 128
2 186 128
3 186 128
0 187 128
1 187 128
2 187 128
3 187 128
0 188 128
1 188 128
2 188 128
3 188 128
0 189 128
1 189 128
2 189 128
3 189 128
0 190 128
1 190 128
2 190 128
3 190 128
0 191 128
1 191 128
2 191 128
3 191 128
0 192 128
1 192 128
2 192 128
3 192 128
0 193 128
1 193 128
2 193 128
3 193 128
0 194 128
1 194 128
2 194 128
3 194 128
0 195 128
1 195 128
2 195 128
3 195 128
0 196 128
1 196 128
2 196 128
3 196 128
0 197 128
1 197 128
2 197 128
3 197 128
0 198 128
1 198 128
2 198 128
3 198 128
0 199 128
1 199 128
2 199 128
3 199 128
0 132 129
1 132 129
2 132 129
3 132 129
0 133 129
1 133 129
2 133 129
3 133 129
0 134 129
1 134 129
2 134 129
3 134 129
0 135 129
1 135 129
2 135 129
3 135 129
0 136 129
1 136 129
2 136 129
3 136 129
0 137 129
1 137 129
2 137 129
3 137 129
0 138 129
1 138 129
2 138 129
3 138 129
0 139 129
1 139 129
2 139 129
3 139 129
0 140 129
1 140 129
2 140 129
3 140 129
0 141 129
1 141 129
2 141 129
3 141 129
0 142 129
1 142 129
2 142 129
3 142 129
0 143 129
1 143 129
2 143 129
3 143 129
0 144 129
1 144 129
2 144 129
3 144 129
0 145 129
1 145 129
2 145 129
3 145 129
0 146 129
1 146 129
2 146 129
3 146 129
0 147 129
1 147 129
2 147 129
3 147 129
0 148 129
1 148 129
2 148 129
3 148 129
0 149 129
1 149 129
2 149 129
3 149 129
0 150 129
1 150 129
2 150 129
3 150 129
0 151 129
1 151 129
2 151 129
3 151 129
0 152 129
1 152 129
2 152 129
3 152 129
0 153 129
1 153 129
2 153 129
3 153 129
0 154 129
1 154 129
2 154 129
3 154 129
0 155 129
1 155 129
2 155 129
3 155 129
0 156 129
1 156 129
2 156 129
3 156 129
0 157 129
1 157 129
2 157 129
3 157 129
0 158 129
1 158 129
2 158 129
3 158 129
0 159 129
1 159 129
2 159 129
3 159 129
0 160 129
1 160 129
2 160 129
3 160 129
0 161 129
1 161 129
2 161 129
3 161 129
0 162 129
1 162 129
2 162 129
3 162 129
0 163 129
1 163 129
2 163 129
3 163 129
0 164 129
1 164 129
2 164 129
3 164 129
0 165 129
1 165 129
2 165 129
3 165 129
0 166 129
1 166 129
2 166 129
3 166 129
0 167 129
1 167 129
2 167 129
3 167 129
0 168 129
1 168 129
2 168 129
3 168 129
0 169 129
1 169 129
2 169 129
3 169 129
0 170 129
1 170 129
2 170 129
3 170 129
0 171 129
1 171 129
2 171 129
3 171 129
0 172 129
1 172 129
2 172 129
3 172 129
0 173 129
1 173 129
2 173 129
3 173 129
0 174 129
1 174 129
2 174 129
3 174 129
0 175 129
1 175 129
2 175 129
3 175 129
0 176 129
1 176 129
2 176 129
3 176 129
0 177 129
1 177 129
2 177 129
3 177 129
0 178 129
1 178 129
2 178 129
3 178 129
0 179 129
1 179 129
2 179 129
3 179 129
0 180 129
1 180 129
2 180 129
3 180 129
0 181 129
1 181 129
2 181 129
3 181 129
0 182 129
1 182 129
2 182 129
3 182 129
0 183 129
1 183 129
2 183 129
3 183 129
0 184 129
1 184 129
2 184 129
3 184 129
0 185 129
1 185 129
2 185 129
3 185 129
0 186 129
1 186 129
2 186 129
3 186 129
0 187 129
1 187 129
2 187 129
3 187 129
0 188 129
1 188 129
2 188 129
3 188 129
0 189 129
1 189 129
2 189 129
3 189 129
0 190 129
1 190 129
2 190 129
3 190 129
0 191 129
1 191 129
2 191 129
3 191 129
0 192 129
1 192 129
2 192 129
3 192 129
0 193 129
1 193 129
2 193 129
3 193 129
0 194 129
1 194 129
2 194 129
3 194 129
0 195 129
1 195 129
2 195 129
3 195 129
0 196 129
1 196 129
2 196 129
3 196 129
0 197 129
1 197 129
2 197 129
3 197 129
0 198 129
1 198 129
2 198 129
3 198 129
0 199 129
1 199 129
2 199 129
3 199 129
0 132 130
1 132 130
2 132 130
3 132 130
0 133 130
1 133 130
2 133 130
3 133 130
0 134 130
1 134 130
2 134 130
3 134 130
0 135 130
1 135 130
2 135 130
3 135 130
0 136 130
1 136 130
2 136 130
3 136 130
0 137 130
1 137 130
2 137 130
3 137 130
0 138 130
1 138 130
2 138 130
3 138 130
0 139 130
1 139 130
2 139 130
3 139 130
0 140 130
1 140 130
2 140 130
3 140 130
0 141 130
1 141 130
2 141 130
3 141 130
0 142 130
1 142 130
2 142 130
3 142 130
0 143 130
1 143 130
2 143 130
3 143 130
0 144 130
1 144 130
2 144 130
3 144 130
0 145 130
1 145 130
2 145 130
3 145 130
0 146 130
1 146 130
2 146 130
3 146 130
0 147 130
1 147 130
2 147 130
3 147 130
0 148 130
1 148 130
2 148 130
3 148 130
0 149 130
1 149 130
2 149 130
3 149 130
0 150 130
1 150 130
2 150 130
3 150 130
0 151 130
1 151 130
2 151 130
3 151 130
0 152 130
1 152 130
2 152 130
3 152 130
0 153 130
1 153 130
2 153 130
3 153 130
0 154 130
1 154 130
2 154 130
3 154 130
0 155 130
1 155 130
2 155 130
3 155 130
0 156 130
1 156 130
2 156 130
3 156 130
0 157 130
1 157 130
2 157 130
3 157 130
0 158 130
1 158 130
2 158 130
3 158 130
0 159 130
1 159 130
2 159 130
3 159 130
0 160 130
1 160 130
2 160 130
3 160 130
0 161 130
1 161 130
2 161 130
3 161 130
0 162 130
1 162 130
2 162 130
3 162 130
0 163 130
1 163 130
2 163 130
3 163 130
0 164 130
1 164 130
2 164 130
3 164 130
0 165 130
1 165 130
2 165 130
3 165 130
0 166 130
1 166 130
2 166 130
3 166 130
0 167 130
1 167 130
2 167 130
3 167 130
0 168 130
1 168 130
2 168 130
3 168 130
0 169 130
1 169 130
2 169 130
3 169 130
0 170 130
1 170 130
2 170 130
3 170 130
0 171 130
1 171 130
2 171 130
3 171 130
0 172 130
1 172 130
2 172 130
3 172 130
0 173 130
1 173 130
2 173 130
3 173 130
0 174 130
1 174 130
2 174 130
3 174 130
0 175 130
1 175 130
2 175 130
3 175 130
0 176 130
1 176 130
2 176 130
3 176 130
0 177 130
1 177 130
2 177 130
3 177 130
0 178 130
1 178 130
2 178 130
3 178 130
0 179 130
1 179 130
2 179 130
3 179 130
0 180 130
1 180 130
2 180 130
3 180 130
0 181 130
1 181 130
2 181 130
3 181 130
0 182 130
1 182 130
2 182 130
3 182 130
0 183 130
1 183 130
2 183 130
3 183 130
0 184 130
1 184 130
2 184 130
3 184 130
0 185 130
1 185 130
2 185 130
3 185 130
0 186 130
1 186 130
2 186 130
3 186 130
0 187 130
1 187 130
2 187 130
3 187 130
0 188 130
1 188 130
2 188 130
3 188 130
0 189 130
1 189 130
2 189 130
3 189 130
0 190 130
1 190 130
2 190 130
3 190 130
0 191 130
1 191 130
2 191 130
3 191 130
0 192 130
1 192 130
2 192 130
3 192 130
0 193 130
1 193 130
2 193 130
3 193 130
0 194 130
1 194 130
2 194 130
3 194 130
0 195 130
1 195 130
2 195 130
3 195 130
0 196 130
1 196 130
2 196 130
3 196 130
0 197 130
1 197 130
2 197 130
3 197 130
0 198 130
1 198 130
2 198 130
3 198 130
0 199 130
1 199 130
2 199 130
3 199 130
0 132 131
1 132 131
2 132 131
3 132 131
0 133 131
1 133 131
2 133 131
3 133 131
0 134 131
1 134 131
2 134 131
3 134 131
0 135 131
1 135 131
2 135 131
3 135 131
0 136 131
1 136 131
2 136 131
3 136 131
0 137 131
1 137 131
2 137 131
3 137 131
0 138 131
1 138 131
2 138 131
3 138 131
0 139 131
1 139 131
2 139 131
3 139 131
0 140 131
1 140 131
2 140 131
3 140 131
0 141 131
1 141 131
2 141 131
3 141 131
0 142 131
1 142 131
2 142 131
3 142 131
0 143 131
1 143 131
2 143 131
3 143 131
0 144 131
1 144 131
2 144 131
3 144 131
0 145 131
1 145 131
2 145 131
3 145 131
0 146 131
1 146 131
2 146 131
3 146 131
0 147 131
1 147 131
2 147 131
3 147 131
0 148 131
1 148 131
2 148 131
3 148 131
0 149 131
1 149 131
2 149 131
3 149 131
0 150 131
1 150 131
2 150 131
3 150 131
0 151 131
1 151 131
2 151 131
3 151 131
0 152 131
1 152 131
2 152 131
3 152 131
0 153 131
1 153 131
2 153 131
3 153 131
0 154 131
1 154 131
2 154 131
3 154 131
0 155 131
1 155 131
2 155 131
3 155 131
0 156 131
1 156 131
2 156 131
3 156 131
0 157 131
1 157 131
2 157 131
3 157 131
0 158 131
1 158 131
2 158 131
3 158 131
0 159 131
1 159 131
2 159 131
3 159 131
0 160 131
1 160 131
2 160 131
3 160 131
0 161 131
1 161 131
2 161 131
3 161 131
0 162 131
1 162 131
2 162 131
3 162 131
0 163 131
1 163 131
2 163 131
3 163 131
0 164 131
1 164 131
2 164 131
3 164 131
0 165 131
1 165 131
2 165 131
3 165 131
0 166 131
1 166 131
2 166 131
3 166 131
0 167 131
1 167 131
2 167 131
3 167 131
0 168 131
1 168 131
2 168 131
3 168 131
0 169 131
1 169 131
2 169 131
3 169 131
0 170 131
1 170 131
2 170 131
3 170 131
0 171 131
1 171 131
2 171 131
3 171 131
0 172 131
1 172 131
2 172 131
3 172 131
0 173 131
1 173 131
2 173 131
3 173 131
0 174 131
1 174 131
2 174 131
3 174 131
0 175 131
1 175 131
2 175 131
3 175 131
0 176 131
1 176 131
2 176 131
3 176 131
0 177 131
1 177 131
2 177 131
3 177 131
0 178 131
1 178 131
2 178 131
3 178 131
0 179 131
1 179 131
2 179 131
3 179 131
0 180 131
1 180 131
2 180 131
3 180 131
0 181 131
1 181 131
2 181 131
3 181 131
0 182 131
1 182 131
2 182 131
3 182 131
0 183 131
1 183 131
2 183 131
3 183 131
0 184 131
1 184 131
2 184 131
3 184 131
0 185 131
1 185 131
2 185 131
3 185 131
0 186 131
1 186 131
2 186 131
3 186 131
0 187 131
1 187 131
2 187 131
3 187 131
0 188 131
1 188 131
2 188 131
3 188 131
0 189 131
1 189 131
2 189 131
3 189 131
0 190 131
1 190 131
2 190 131
3 190 131
0 191 131
1 191 131
2 191 131
3 191 131
0 192 131
1 192 131
2 192 131
3 192 131
0 193 131
1 193 131
2 193 131
3 193 131
0 194 131
1 194 131
2 194 131
3 194 131
0 195 131
1 195 131
2 195 131
3 195 131
0 196 131
1 196 131
2 196 131
3 196 131
0 197 131
1 197 131
2 197 131
3 197 131
0 198 131
1 198 131
2 198 131
3 198 131
0 199 131
1 199 131
2 199 131
3 199 131
0 132 132
1 132 132
2 132 132
3 132 132
0 133 132
1 133 132
2 133 132
3 133 132
0 134 132
1 134 132
2 134 132
3 134 132
0 135 132
1 135 132
2 135 132
3 135 132
0 136 132
1 136 132
2 136 132
3 136 132
0 137 132
1 137 132
2 137 132
3 137 132
0 138 132
1 138 132
2 138 132
3 138 132
0 139 132
1 139 132
2 139 132
3 139 132
0 140 132
1 140 132
2 140 132
3 140 132
0 141 132
1 141 132
2 141 132
3 141 132
0 142 132
1 142 132
2 142 132
3 142 132
0 143 132
1 143 132
2 143 132
3 143 132
0 144 132
1 144 132
2 144 132
3 144 132
0 145 132
1 145 132
2 145 132
3 145 132
0 146 132
1 146 132
2 146 132
3 146 132
0 147 132
1 147 132
2 147 132
3 147 132
0 148 132
1 148 132
2 148 132
3 148 132
0 149 132
1 149 132
2 149 132
3 149 132
0 150 132
1 150 132
2 150 132
3 150 132
0 151 132
1 151 132
2 151 132
3 151 132
0 152 132
1 152 132
2 152 132
3 152 132
0 153 132
1 153 132
2 153 132
3 153 132
0 154 132
1 154 132
2 154 132
3 154 132
0 155 132
1 155 132
2 155 132
3 155 132
0 156 132
1 156 132
2 156 132
3 156 132
0 157 132
1 157 132
2 157 132
3 157 132
0 158 132
1 158 132
2 158 132
3 158 132
0 159 132
1 159 132
2 159 132
3 159 132
0 160 132
1 160 132
2 160 132
3 160 132
0 161 132
1 161 132
2 161 132
3 161 132
0 162 132
1 162 132
2 162 132
3 162 132
0 163 132
1 163 132
2 163 132
3 163 132
0 164 132
1 164 132
2 164 132
3 164 132
0 165 132
1 165 132
2 165 132
3 165 132
0 166 132
1 166 132
2 166 132
3 166 132
0 167 132
1 167 132
2 167 132
3 167 132
0 168 132
1 168 132
2 168 132
3 168 132
0 169 132
1 169 132
2 169 132
3 169 132
0 170 132
1 170 132
2 170 132
3 170 132
0 171 132
1 171 132
2 171 132
3 171 132
0 172 132
1 172 132
2 172 132
3 172 132
0 173 132
1 173 132
2 173 132
3 173 132
0 174 132
1 174 132
2 174 132
3 174 132
0 175 132
1 175 132
2 175 132
3 175 132
0 176 132
1 176 132
2 176 132
3 176 132
0 177 132
1 177 132
2 177 132
3 177 132
0 178 132
1 178 132
2 178 132
3 178 132
0 179 132
1 179 132
2 179 132
3 179 132
0 180 132
1 180 132
2 180 132
3 180 132
0 181 132
1 181 132
2 181 132
3 181 132
0 182 132
1 182 132
2 182 132
3 182 132
0 183 132
1 183 132
2 183 132
3 183 132
0 184 132
1 184 132
2 184 132
3 184 132
0 185 132
1 185 132
2 185 132
3 185 132
0 186 132
1 186 132
2 186 132
3 186 132
0 187 132
1 187 132
2 187 132
3 187 132
0 188 132
1 188 132
2 188 132
3 188 132
0 189 132
1 189 132
2 189 132
3 189 132
0 190 132
1 190 132
2 190 132
3 190 132
0 191 132
1 191 132
2 191 132
3 191 132
0 192 132
1 192 132
2 192 132
3 192 132
0 193 132
1 193 132
2 193 132
3 193 132
0 194 132
1 194 132
2 194 132
3 194 132
0 195 132
1 195 132
2 195 132
3 195 132
0 196 132
1 196 132
2 196 132
3 196 132
0 197 132
1 197 132
2 197 132
3 197 132
0 198 132
1 198 132
2 198 132
3 198 132
0 199 132
1 199 132
2 199 132
3 199 132
0 132 133
1 132 133
2 132 133
3 132 133
0 133 133
1 133 133
2 133 133
3 133 133
0 134 133
1 134 133
2 134 133
3 134 133
0 135 133
1 135 133
2 135 133
3 135 133
0 136 133
1 136 133
2 136 133
3 136 133
0 137 133
1 137 133
2 137 133
3 137 133
0 138 133
1 138 133
2 138 133
3 138 133
0 139 133
1 139 133
2 139 133
3 139 133
0 140 133
1 140 133
2 140 133
3 140 133
0 141 133
1 141 133
2 141 133
3 141 133
0 142 133
1 142 133
2 142 133
3 142 133
0 143 133
1 143 133
2 143 133
3 143 133
0 144 133
1 144 133
2 144 133
3 144 133
0 145 133
1 145 133
2 145 133
3 145 133
0 146 133
1 146 133
2 146 133
3 146 133
0 147 133
1 147 133
2 147 133
3 147 133
0 148 133
1 148 133
2 148 133
3 148 133
0 149 133
1 149 133
2 149 133
3 149 133
0 150 133
1 150 133
2 150 133
3 150 133
0 151 133
1 151 133
2 151 133
3 151 133
0 152 133
1 152 133
2 152 133
3 152 133
0 153 133
1 153 133
2 153 133
3 153 133
0 154 133
1 154 133
2 154 133
3 154 133
0 155 133
1 155 133
2 155 133
3 155 133
0 156 133
1 156 133
2 156 133
3 156 133
0 157 133
1 157 133
2 157 133
3 157 133
0 158 133
1 158 133
2 158 133
3 158 133
0 159 133
1 159 133
2 159 133
3 159 133
0 160 133
1 160 133
2 160 133
3 160 133
0 161 133
1 161 133
2 161 133
3 161 133
0 162 133
1 162 133
2 162 133
3 162 133
0 163 133
1 163 133
2 163 133
3 163 133
0 164 133
1 164 133
2 164 133
3 164 133
0 165 133
1 165 133
2 165 133
3 165 133
0 166 133
1 166 133
2 166 133
3 166 133
0 167 133
1 167 133
2 167 133
3 167 133
0 168 133
1 168 133
2 168 133
3 168 133
0 169 133
1 169 133
2 169 133
3 169 133
0 170 133
1 170 133
2 170 133
3 170 133
0 171 133
1 171 133
2 171 133
3 171 133
0 172 133
1 172 133
2 172 133
3 172 133
0 173 133
1 173 133
2 173 133
3 173 133
0 174 133
1 174 133
2 174 133
3 174 133
0 175 133
1 175 133
2 175 133
3 175 133
0 176 133
1 176 133
2 176 133
3 176 133
0 177 133
1 177 133
2 177 133
3 177 133
0 178 133
1 178 133
2 178 133
3 178 133
0 179 133
1 179 133
2 179 133
3 179 133
0 180 133
1 180 133
2 180 133
3 180 133
0 181 133
1 181 133
2 181 133
3 181 133
0 182 133
1 182 133
2 182 133
3 182 133
0 183 133
1 183 133
2 183 133
3 183 133
0 184 133
1 184 133
2 184 133
3 184 133
0 185 133
1 185 133
2 185 133
3 185 133
0 186 133
1 186 133
2 186 133
3 186 133
0 187 133
1 187 133
2 187 133
3 187 133
0 188 133
1 188 133
2 188 133
3 188 133
0 189 133
1 189 133
2 189 133
3 189 133
0 190 133
1 190 133
2 190 133
3 190 133
0 191 133
1 191 133
2 191 133
3 191 133
0 192 133
1 192 133
2 192 133
3 192 133
0 193 133
1 193 133
2 193 133
3 193 133
0 194 133
1 194 133
2 194 133
3 194 133
0 195 133
1 195 133
2 195 133
3 195 133
0 196 133
1 196 133
2 196 133
3 196 133
0 197 133
1 197 133
2 197 133
3 197 133
0 198 133
1 198 133
2 198 133
3 198 133
0 199 133
1 199 133
2 199 133
3 199 133
0 132 134
1 132 134
2 132 134
3 132 134
0 133 134
1 133 134
2 133 134
3 133 134
0 134 134
1 134 134
2 134 134
3 134 134
0 135 134
1 135 134
2 135 134
3 135 134
0 136 134
1 136 134
2 136 134
3 136 134
0 137 134
1 137 134
2 137 134
3 137 134
0 138 134
1 138 134
2 138 134
3 138 134
0 139 134
1 139 134
2 139 134
3 139 134
0 140 134
1 140 134
2 140 134
3 140 134
0 141 134
1 141 134
2 141 134
3 141 134
0 142 134
1 142 134
2 142 134
3 142 134
0 143 134
1 143 134
2 143 134
3 143 134
0 144 134
1 144 134
2 144 134
3 144 134
0 145 134
1 145 134
2 145 134
3 145 134
0 146 134
1 146 134
2 146 134
3 146 134
0 147 134
1 147 134
2 147 134
3 147 134
0 148 134
1 148 134
2 148 134
3 148 134
0 149 134
1 149 134
2 149 134
3 149 134
0 150 134
1 150 134
2 150 134
3 150 134
0 151 134
1 151 134
2 151 134
3 151 134
0 152 134
1 152 134
2 152 134
3 152 134
0 153 134
1 153 134
2 153 134
3 153 134
0 154 134
1 154 134
2 154 134
3 154 134
0 155 134
1 155 134
2 155 134
3 155 134
0 156 134
1 156 134
2 156 134
3 156 134
0 157 134
1 157 134
2 157 134
3 157 134
0 158 134
1 158 134
2 158 134
3 158 134
0 159 134
1 159 134
2 159 134
3 159 134
0 160 134
1 160 134
2 160 134
3 160 134
0 161 134
1 161 134
2 161 134
3 161 134
0 162 134
1 162 134
2 162 134
3 162 134
0 163 134
1 163 134
2 163 134
3 163 134
0 164 134
1 164 134
2 164 134
3 164 134
0 165 134
1 165 134
2 165 134
3 165 134
0 166 134
1 166 134
2 166 134
3 166 134
0 167 134
1 167 134
2 167 134
3 167 134
0 168 134
1 168 134
2 168 134
3 168 134
0 169 134
1 169 134
2 169 134
3 169 134
0 170 134
1 170 134
2 170 134
3 170 134
0 171 134
1 171 134
2 171 134
3 171 134
0 172 134
1 172 134
2 172 134
3 172 134
0 173 134
1 173 134
2 173 134
3 173 134
0 174 134
1 174 134
2 174 134
3 174 134
0 175 134
1 175 134
2 175 134
3 175 134
0 176 134
1 176 134
2 176 134
3 176 134
0 177 134
1 177 134
2 177 134
3 177 134
0 178 134
1 178 134
2 178 134
3 178 134
0 179 134
1 179 134
2 179 134
3 179 134
0 180 134
1 180 134
2 180 134
3 180 134
0 181 134
1 181 134
2 181 134
3 181 134
0 182 134
1 182 134
2 182 134
3 182 134
0 183 134
1 183 134
2 183 134
3 183 134
0 184 134
1 184 134
2 184 134
3 184 134
0 185 134
1 185 134
2 185 134
3 185 134
0 186 134
1 186 134
2 186 134
3 186 134
0 187 134
1 187 134
2 187 134
3 187 134
0 188 134
1 188 134
2 188 134
3 188 134
0 189 134
1 189 134
2 189 134
3 189 134
0 190 134
1 190 134
2 190 134
3 190 134
0 191 134
1 191 134
2 191 134
3 191 134
0 192 134
1 192 134
2 192 134
3 192 134
0 193 134
1 193 134
2 193 134
3 193 134
0 194 134
1 194 134
2 194 134
3 194 134
0 195 134
1 195 134
2 195 134
3 195 134
0 196 134
1 196 134
2 196 134
3 196 134
0 197 134
1 197 134
2 197 134
3 197 134
0 198 134
1 198 134
2 198 134
3 198 134
0 199 134
1 199 134
2 199 134
3 199 134
0 132 135
1 132 135
2 132 135
3 132 135
0 133 135
1 133 135
2 133 135
3 133 135
0 134 135
1 134 135
2 134 135
3 134 135
0 135 135
1 135 135
2 135 135
3 135 135
0 136 135
1 136 135
2 136 135
3 136 135
0 137 135
1 137 135
2 137 135
3 137 135
0 138 135
1 138 135
2 138 135
3 138 135
0 139 135
1 139 135
2 139 135
3 139 135
0 140 135
1 140 135
2 140 135
3 140 135
0 141 135
1 141 135
2 141 135
3 141 135
0 142 135
1 142 135
2 142 135
3 142 135
0 143 135
1 143 135
2 143 135
3 143 135
0 144 135
1 144 135
2 144 135
3 144 135
0 145 135
1 145 135
2 145 135
3 145 135
0 146 135
1 146 135
2 146 135
3 146 135
0 147 135
1 147 135
2 147 135
3 147 135
0 148 135
1 148 135
2 148 135
3 148 135
0 149 135
1 149 135
2 149 135
3 149 135
0 150 135
1 150 135
2 150 135
3 150 135
0 151 135
1 151 135
2 151 135
3 151 135
0 152 135
1 152 135
2 152 135
3 152 135
0 153 135
1 153 135
2 153 135
3 153 135
0 154 135
1 154 135
2 154 135
3 154 135
0 155 135
1 155 135
2 155 135
3 155 135
0 156 135
1 156 135
2 156 135
3 156 135
0 157 135
1 157 135
2 157 135
3 157 135
0 158 135
1 158 135
2 158 135
3 158 135
0 159 135
1 159 135
2 159 135
3 159 135
0 160 135
1 160 135
2 160 135
3 160 135
0 161 135
1 161 135
2 161 135
3 161 135
0 162 135
1 162 135
2 162 135
3 162 135
0 163 135
1 163 135
2 163 135
3 163 135
0 164 135
1 164 135
2 164 135
3 164 135
0 165 135
1 165 135
2 165 135
3 165 135
0 166 135
1 166 135
2 166 135
3 166 135
0 167 135
1 167 135
2 167 135
3 167 135
0 168 135
1 168 135
2 168 135
3 168 135
0 169 135
1 169 135
2 169 135
3 169 135
0 170 135
1 170 135
2 170 135
3 170 135
0 171 135
1 171 135
2 171 135
3 171 135
0 172 135
1 172 135
2 172 135
3 172 135
0 173 135
1 173 135
2 173 135
3 173 135
0 174 135
1 174 135
2 174 135
3 174 135
0 175 135
1 175 135
2 175 135
3 175 135
0 176 135
1 176 135
2 176 135
3 176 135
0 177 135
1 177 135
2 177 135
3 177 135
0 178 135
1 178 135
2 178 135
3 178 135
0 179 135
1 179 135
2 179 135
3 179 135
0 180 135
1 180 135
2 180 135
3 180 135
0 181 135
1 181 135
2 181 135
3 181 135
0 182 135
1 182 135
2 182 135
3 182 135
0 183 135
1 183 135
2 183 135
3 183 135
0 184 135
1 184 135
2 184 135
3 184 135
0 185 135
1 185 135
2 185 135
3 185 135
0 186 135
1 186 135
2 186 135
3 186 135
0 187 135
1 187 135
2 187 135
3 187 135
0 188 135
1 188 135
2 188 135
3 188 135
0 189 135
1 189 135
2 189 135
3 189 135
0 190 135
1 190 135
2 190 135
3 190 135
0 191 135
1 191 135
2 191 135
3 191 135
0 192 135
1 192 135
2 192 135
3 192 135
0 193 135
1 193 135
2 193 135
3 193 135
0 194 135
1 194 135
2 194 135
3 194 135
0 195 135
1 195 135
2 195 135
3 195 135
0 196 135
1 196 135
2 196 135
3 196 135
0 197 135
1 197 135
2 197 135
3 197 135
0 198 135
1 198 135
2 198 135
3 198 135
0 199 135
1 199 135
2 199 135
3 199 135
0 132 136
1 132 136
2 132 136
3 132 136
0 133 136
1 133 136
2 133 136
3 133 136
0 134 136
1 134 136
2 134 136
3 134 136
0 135 136
1 135 136
2 135 136
3 135 136
0 136 136
1 136 136
2 136 136
3 136 136
0 137 136
1 137 136
2 137 136
3 137 136
0 138 136
1 138 136
2 138 136
3 138 136
0 139 136
1 139 136
2 139 136
3 139 136
0 140 136
1 140 136
2 140 136
3 140 136
0 141 136
1 141 136
2 141 136
3 141 136
0 142 136
1 142 136
2 142 136
3 142 136
0 143 136
1 143 136
2 143 136
3 143 136
0 144 136
1 144 136
2 144 136
3 144 136
0 145 136
1 145 136
2 145 136
3 145 136
0 146 136
1 146 136
2 146 136
3 146 136
0 147 136
1 147 136
2 147 136
3 147 136
0 148 136
1 148 136
2 148 136
3 148 136
0 149 136
1 149 136
2 149 136
3 149 136
0 150 136
1 150 136
2 150 136
3 150 136
0 151 136
1 151 136
2 151 136
3 151 136
0 152 136
1 152 136
2 152 136
3 152 136
0 153 136
1 153 136
2 153 136
3 153 136
0 154 136
1 154 136
2 154 136
3 154 136
0 155 136
1 155 136
2 155 136
3 155 136
0 156 136
1 156 136
2 156 136
3 156 136
0 157 136
1 157 136
2 157 136
3 157 136
0 158 136
1 158 136
2 158 136
3 158 136
0 159 136
1 159 136
2 159 136
3 159 136
0 160 136
1 160 136
2 160 136
3 160 136
0 161 136
1 161 136
2 161 136
3 161 136
0 162 136
1 162 136
2 162 136
3 162 136
0 163 136
1 163 136
2 163 136
3 163 136
0 164 136
1 164 136
2 164 136
3 164 136
0 165 136
1 165 136
2 165 136
3 165 136
0 166 136
1 166 136
2 166 136
3 166 136
0 167 136
1 167 136
2 167 136
3 167 136
0 168 136
1 168 136
2 168 136
3 168 136
0 169 136
1 169 136
2 169 136
3 169 136
0 170 136
1 170 136
2 170 136
3 170 136
0 171 136
1 171 136
2 171 136
3 171 136
0 172 136
1 172 136
2 172 136
3 172 136
0 173 136
1 173 136
2 173 136
3 173 136
0 174 136
1 174 136
2 174 136
3 174 136
0 175 136
1 175 136
2 175 136
3 175 136
0 176 136
1 176 136
2 176 136
3 176 136
0 177 136
1 177 136
2 177 136
3 177 136
0 178 136
1 178 136
2 178 136
3 178 136
0 179 136
1 179 136
2 179 136
3 179 136
0 180 136
1 180 136
2 180 136
3 180 136
0 181 136
1 181 136
2 181 136
3 181 136
0 182 136
1 182 136
2 182 136
3 182 136
0 183 136
1 183 136
2 183 136
3 183 136
0 184 136
1 184 136
2 184 136
3 184 136
0 185 136
1 185 136
2 185 136
3 185 136
0 186 136
1 186 136
2 186 136
3 186 136
0 187 136
1 187 136
2 187 136
3 187 136
0 188 136
1 188 136
2 188 136
3 188 136
0 189 136
1 189 136
2 189 136
3 189 136
0 190 136
1 190 136
2 190 136
3 190 136
0 191 136
1 191 136
2 191 136
3 191 136
0 192 136
1 192 136
2 192 136
3 192 136
0 193 136
1 193 136
2 193 136
3 193 136
0 194 136
1 194 136
2 194 136
3 194 136
0 195 136
1 195 136
2 195 136
3 195 136
0 196 136
1 196 136
2 196 136
3 196 136
0 197 136
1 197 136
2 197 136
3 197 136
0 198 136
1 198 136
2 198 136
3 198 136
0 199 136
1 199 136
2 199 136
3 199 136
0 132 137
1 132 137
2 132 137
3 132 137
0 133 137
1 133 137
2 133 137
3 133 137
0 134 137
1 134 137
2 134 137
3 134 137
0 135 137
1 135 137
2 135 137
3 135 137
0 136 137
1 136 137
2 136 137
3 136 137
0 137 137
1 137 137
2 137 137
3 137 137
0 138 137
1 138 137
2 138 137
3 138 137
0 139 137
1 139 137
2 139 137
3 139 137
0 140 137
1 140 137
2 140 137
3 140 137
0 141 137
1 141 137
2 141 137
3 141 137
0 142 137
1 142 137
2 142 137
3 142 137
0 143 137
1 143 137
2 143 137
3 143 137
0 144 137
1 144 137
2 144 137
3 144 137
0 145 137
1 145 137
2 145 137
3 145 137
0 146 137
1 146 137
2 146 137
3 146 137
0 147 137
1 147 137
2 147 137
3 147 137
0 148 137
1 148 137
2 148 137
3 148 137
0 149 137
1 149 137
2 149 137
3 149 137
0 150 137
1 150 137
2 150 137
3 150 137
0 151 137
1 151 137
2 151 137
3 151 137
0 152 137
1 152 137
2 152 137
3 152 137
0 153 137
1 153 137
2 153 137
3 153 137
0 154 137
1 154 137
2 154 137
3 154 137
0 155 137
1 155 137
2 155 137
3 155 137
0 156 137
1 156 137
2 156 137
3 156 137
0 157 137
1 157 137
2 157 137
3 157 137
0 158 137
1 158 137
2 158 137
3 158 137
0 159 137
1 159 137
2 159 137
3 159 137
0 160 137
1 160 137
2 160 137
3 160 137
0 161 137
1 161 137
2 161 137
3 161 137
0 162 137
1 162 137
2 162 137
3 162 137
0 163 137
1 163 137
2 163 137
3 163 137
0 164 137
1 164 137
2 164 137
3 164 137
0 165 137
1 165 137
2 165 137
3 165 137
0 166 137
1 166 137
2 166 137
3 166 137
0 167 137
1 167 137
2 167 137
3 167 137
0 168 137
1 168 137
2 168 137
3 168 137
0 169 137
1 169 137
2 169 137
3 169 137
0 170 137
1 170 137
2 170 137
3 170 137
0 171 137
1 171 137
2 171 137
3 171 137
0 172 137
1 172 137
2 172 137
3 172 137
0 173 137
1 173 137
2 173 137
3 173 137
0 174 137
1 174 137
2 174 137
3 174 137
0 175 137
1 175 137
2 175 137
3 175 137
0 176 137
1 176 137
2 176 137
3 176 137
0 177 137
1 177 137
2 177 137
3 177 137
0 178 137
1 178 137
2 178 137
3 178 137
0 179 137
1 179 137
2 179 137
3 179 137
0 180 137
1 180 137
2 180 137
3 180 137
0 181 137
1 181 137
2 181 137
3 181 137
0 182 137
1 182 137
2 182 137
3 182 137
0 183 137
1 183 137
2 183 137
3 183 137
0 184 137
1 184 137
2 184 137
3 184 137
0 185 137
1 185 137
2 185 137
3 185 137
0 186 137
1 186 137
2 186 137
3 186 137
0 187 137
1 187 137
2 187 137
3 187 137
0 188 137
1 188 137
2 188 137
3 188 137
0 189 137
1 189 137
2 189 137
3 189 137
0 190 137
1 190 137
2 190 137
3 190 137
0 191 137
1 191 137
2 191 137
3 191 137
0 192 137
1 192 137
2 192 137
3 192 137
0 193 137
1 193 137
2 193 137
3 193 137
0 194 137
1 194 137
2 194 137
3 194 137
0 195 137
1 195 137
2 195 137
3 195 137
0 196 137
1 196 137
2 196 137
3 196 137
0 197 137
1 197 137
2 197 137
3 197 137
0 198 137
1 198 137
2 198 137
3 198 137
0 199 137
1 199 137
2 199 137
3 199 137
0 132 138
1 132 138
2 132 138
3 132 138
0 133 138
1 133 138
2 133 138
3 133 138
0 134 138
1 134 138
2 134 138
3 134 138
0 135 138
1 135 138
2 135 138
3 135 138
0 136 138
1 136 138
2 136 138
3 136 138
0 137 138
1 137 138
2 137 138
3 137 138
0 138 138
1 138 138
2 138 138
3 138 138
0 139 138
1 139 138
2 139 138
3 139 138
0 140 138
1 140 138
2 140 138
3 140 138
0 141 138
1 141 138
2 141 138
3 141 138
0 142 138
1 142 138
2 142 138
3 142 138
0 143 138
1 143 138
2 143 138
3 143 138
0 144 138
1 144 138
2 144 138
3 144 138
0 145 138
1 145 138
2 145 138
3 145 138
0 146 138
1 146 138
2 146 138
3 146 138
0 147 138
1 147 138
2 147 138
3 147 138
0 148 138
1 148 138
2 148 138
3 148 138
0 149 138
1 149 138
2 149 138
3 149 138
0 150 138
1 150 138
2 150 138
3 150 138
0 151 138
1 151 138
2 151 138
3 151 138
0 152 138
1 152 138
2 152 138
3 152 138
0 153 138
1 153 138
2 153 138
3 153 138
0 154 138
1 154 138
2 154 138
3 154 138
0 155 138
1 155 138
2 155 138
3 155 138
0 156 138
1 156 138
2 156 138
3 156 138
0 157 138
1 157 138
2 157 138
3 157 138
0 158 138
1 158 138
2 158 138
3 158 138
0 159 138
1 159 138
2 159 138
3 159 138
0 160 138
1 160 138
2 160 138
3 160 138
0 161 138
1 161 138
2 161 138
3 161 138
0 162 138
1 162 138
2 162 138
3 162 138
0 163 138
1 163 138
2 163 138
3 163 138
0 164 138
1 164 138
2 164 138
3 164 138
0 165 138
1 165 138
2 165 138
3 165 138
0 166 138
1 166 138
2 166 138
3 166 138
0 167 138
1 167 138
2 167 138
3 167 138
0 168 138
1 168 138
2 168 138
3 168 138
0 169 138
1 169 138
2 169 138
3 169 138
0 170 138
1 170 138
2 170 138
3 170 138
0 171 138
1 171 138
2 171 138
3 171 138
0 172 138
1 172 138
2 172 138
3 172 138
0 173 138
1 173 138
2 173 138
3 173 138
0 174 138
1 174 138
2 174 138
3 174 138
0 175 138
1 175 138
2 175 138
3 175 138
0 176 138
1 176 138
2 176 138
3 176 138
0 177 138
1 177 138
2 177 138
3 177 138
0 178 138
1 178 138
2 178 138
3 178 138
0 179 138
1 179 138
2 179 138
3 179 138
0 180 138
1 180 138
2 180 138
3 180 138
0 181 138
1 181 138
2 181 138
3 181 138
0 182 138
1 182 138
2 182 138
3 182 138
0 183 138
1 183 138
2 183 138
3 183 138
0 184 138
1 184 138
2 184 138
3 184 138
0 185 138
1 185 138
2 185 138
3 185 138
0 186 138
1 186 138
2 186 138
3 186 138
0 187 138
1 187 138
2 187 138
3 187 138
0 188 138
1 188 138
2 188 138
3 188 138
0 189 138
1 189 138
2 189 138
3 189 138
0 190 138
1 190 138
2 190 138
3 190 138
0 191 138
1 191 138
2 191 138
3 191 138
0 192 138
1 192 138
2 192 138
3 192 138
0 193 138
1 193 138
2 193 138
3 193 138
0 194 138
1 194 138
2 194 138
3 194 138
0 195 138
1 195 138
2 195 138
3 195 138
0 196 138
1 196 138
2 196 138
3 196 138
0 197 138
1 197 138
2 197 138
3 197 138
0 198 138
1 198 138
2 198 138
3 198 138
0 199 138
1 199 138
2 199 138
3 199 138
0 132 139
1 132 139
2 132 139
3 132 139
0 133 139
1 133 139
2 133 139
3 133 139
0 134 139
1 134 139
2 134 139
3 134 139
0 135 139
1 135 139
2 135 139
3 135 139
0 136 139
1 136 139
2 136 139
3 136 139
0 137 139
1 137 139
2 137 139
3 137 139
0 138 139
1 138 139
2 138 139
3 138 139
0 139 139
1 139 139
2 139 139
3 139 139
0 140 139
1 140 139
2 140 139
3 140 139
0 141 139
1 141 139
2 141 139
3 141 139
0 142 139
1 142 139
2 142 139
3 142 139
0 143 139
1 143 139
2 143 139
3 143 139
0 144 139
1 144 139
2 144 139
3 144 139
0 145 139
1 145 139
2 145 139
3 145 139
0 146 139
1 146 139
2 146 139
3 146 139
0 147 139
1 147 139
2 147 139
3 147 139
0 148 139
1 148 139
2 148 139
3 148 139
0 149 139
1 149 139
2 149 139
3 149 139
0 150 139
1 150 139
2 150 139
3 150 139
0 151 139
1 151 139
2 151 139
3 151 139
0 152 139
1 152 139
2 152 139
3 152 139
0 153 139
1 153 139
2 153 139
3 153 139
0 154 139
1 154 139
2 154 139
3 154 139
0 155 139
1 155 139
2 155 139
3 155 139
0 156 139
1 156 139
2 156 139
3 156 139
0 157 139
1 157 139
2 157 139
3 157 139
0 158 139
1 158 139
2 158 139
3 158 139
0 159 139
1 159 139
2 159 139
3 159 139
0 160 139
1 160 139
2 160 139
3 160 139
0 161 139
1 161 139
2 161 139
3 161 139
0 162 139
1 162 139
2 162 139
3 162 139
0 163 139
1 163 139
2 163 139
3 163 139
0 164 139
1 164 139
2 164 139
3 164 139
0 165 139
1 165 139
2 165 139
3 165 139
0 166 139
1 166 139
2 166 139
3 166 139
0 167 139
1 167 139
2 167 139
3 167 139
0 168 139
1 168 139
2 168 139
3 168 139
0 169 139
1 169 139
2 169 139
3 169 139
0 170 139
1 170 139
2 170 139
3 170 139
0 171 139
1 171 139
2 171 139
3 171 139
0 172 139
1 172 139
2 172 139
3 172 139
0 173 139
1 173 139
2 173 139
3 173 139
0 174 139
1 174 139
2 174 139
3 174 139
0 175 139
1 175 139
2 175 139
3 175 139
0 176 139
1 176 139
2 176 139
3 176 139
0 177 139
1 177 139
2 177 139
3 177 139
0 178 139
1 178 139
2 178 139
3 178 139
0 179 139
1 179 139
2 179 139
3 179 139
0 180 139
1 180 139
2 180 139
3 180 139
0 181 139
1 181 139
2 181 139
3 181 139
0 182 139
1 182 139
2 182 139
3 182 139
0 183 139
1 183 139
2 183 139
3 183 139
0 184 139
1 184 139
2 184 139
3 184 139
0 185 139
1 185 139
2 185 139
3 185 139
0 186 139
1 186 139
2 186 139
3 186 139
0 187 139
1 187 139
2 187 139
3 187 139
0 188 139
1 188 139
2 188 139
3 188 139
0 189 139
1 189 139
2 189 139
3 189 139
0 190 139
1 190 139
2 190 139
3 190 139
0 191 139
1 191 139
2 191 139
3 191 139
0 192 139
1 192 139
2 192 139
3 192 139
0 193 139
1 193 139
2 193 139
3 193 139
0 194 139
1 194 139
2 194 139
3 194 139
0 195 139
1 195 139
2 195 139
3 195 139
0 196 139
1 196 139
2 196 139
3 196 139
0 197 139
1 197 139
2 197 139
3 197 139
0 198 139
1 198 139
2 198 139
3 198 139
0 199 139
1 199 139
2 199 139
3 199 139
0 132 140
1 132 140
2 132 140
3 132 140
0 133 140
1 133 140
2 133 140
3 133 140
0 134 140
1 134 140
2 134 140
3 134 140
0 135 140
1 135 140
2 135 140
3 135 140
0 136 140
1 136 140
2 136 140
3 136 140
0 137 140
1 137 140
2 137 140
3 137 140
0 138 140
1 138 140
2 138 140
3 138 140
0 139 140
1 139 140
2 139 140
3 139 140
0 140 140
1 140 140
2 140 140
3 140 140
0 141 140
1 141 140
2 141 140
3 141 140
0 142 140
1 142 140
2 142 140
3 142 140
0 143 140
1 143 140
2 143 140
3 143 140
0 144 140
1 144 140
2 144 140
3 144 140
0 145 140
1 145 140
2 145 140
3 145 140
0 146 140
1 146 140
2 146 140
3 146 140
0 147 140
1 147 140
2 147 140
3 147 140
0 148 140
1 148 140
2 148 140
3 148 140
0 149 140
1 149 140
2 149 140
3 149 140
0 150 140
1 150 140
2 150 140
3 150 140
0 151 140
1 151 140
2 151 140
3 151 140
0 152 140
1 152 140
2 152 140
3 152 140
0 153 140
1 153 140
2 153 140
3 153 140
0 154 140
1 154 140
2 154 140
3 154 140
0 155 140
1 155 140
2 155 140
3 155 140
0 156 140
1 156 140
2 156 140
3 156 140
0 157 140
1 157 140
2 157 140
3 157 140
0 158 140
1 158 140
2 158 140
3 158 140
0 159 140
1 159 140
2 159 140
3 159 140
0 160 140
1 160 140
2 160 140
3 160 140
0 161 140
1 161 140
2 161 140
3 161 140
0 162 140
1 162 140
2 162 140
3 162 140
0 163 140
1 163 140
2 163 140
3 163 140
0 164 140
1 164 140
2 164 140
3 164 140
0 165 140
1 165 140
2 165 140
3 165 140
0 166 140
1 166 140
2 166 140
3 166 140
0 167 140
1 167 140
2 167 140
3 167 140
0 168 140
1 168 140
2 168 140
3 168 140
0 169 140
1 169 140
2 169 140
3 169 140
0 170 140
1 170 140
2 170 140
3 170 140
0 171 140
1 171 140
2 171 140
3 171 140
0 172 140
1 172 140
2 172 140
3 172 140
0 173 140
1 173 140
2 173 140
3 173 140
0 174 140
1 174 140
2 174 140
3 174 140
0 175 140
1 175 140
2 175 140
3 175 140
0 176 140
1 176 140
2 176 140
3 176 140
0 177 140
1 177 140
2 177 140
3 177 140
0 178 140
1 178 140
2 178 140
3 178 140
0 179 140
1 179 140
2 179 140
3 179 140
0 180 140
1 180 140
2 180 140
3 180 140
0 181 140
1 181 140
2 181 140
3 181 140
0 182 140
1 182 140
2 182 140
3 182 140
0 183 140
1 183 140
2 183 140
3 183 140
0 184 140
1 184 140
2 184 140
3 184 140
0 185 140
1 185 140
2 185 140
3 185 140
0 186 140
1 186 140
2 186 140
3 186 140
0 187 140
1 187 140
2 187 140
3 187 140
0 188 140
1 188 140
2 188 140
3 188 140
0 189 140
1 189 140
2 189 140
3 189 140
0 190 140
1 190 140
2 190 140
3 190 140
0 191 140
1 191 140
2 191 140
3 191 140
0 192 140
1 192 140
2 192 140
3 192 140
0 193 140
1 193 140
2 193 140
3 193 140
0 194 140
1 194 140
2 194 140
3 194 140
0 195 140
1 195 140
2 195 140
3 195 140
0 196 140
1 196 140
2 196 140
3 196 140
0 197 140
1 197 140
2 197 140
3 197 140
0 198 140
1 198 140
2 198 140
3 198 140
0 199 140
1 199 140
2 199 140
3 199 140
0 132 141
1 132 141
2 132 141
3 132 141
0 133 141
1 133 141
2 133 141
3 133 141
0 134 141
1 134 141
2 134 141
3 134 141
0 135 141
1 135 141
2 135 141
3 135 141
0 136 141
1 136 141
2 136 141
3 136 141
0 137 141
1 137 141
2 137 141
3 137 141
0 138 141
1 138 141
2 138 141
3 138 141
0 139 141
1 139 141
2 139 141
3 139 141
0 140 141
1 140 141
2 140 141
3 140 141
0 141 141
1 141 141
2 141 141
3 141 141
0 142 141
1 142 141
2 142 141
3 142 141
0 143 141
1 143 141
2 143 141
3 143 141
0 144 141
1 144 141
2 144 141
3 144 141
0 145 141
1 145 141
2 145 141
3 145 141
0 146 141
1 146 141
2 146 141
3 146 141
0 147 141
1 147 141
2 147 141
3 147 141
0 148 141
1 148 141
2 148 141
3 148 141
0 149 141
1 149 141
2 149 141
3 149 141
0 150 141
1 150 141
2 150 141
3 150 141
0 151 141
1 151 141
2 151 141
3 151 141
0 152 141
1 152 141
2 152 141
3 152 141
0 153 141
1 153 141
2 153 141
3 153 141
0 154 141
1 154 141
2 154 141
3 154 141
0 155 141
1 155 141
2 155 141
3 155 141
0 156 141
1 156 141
2 156 141
3 156 141
0 157 141
1 157 141
2 157 141
3 157 141
0 158 141
1 158 141
2 158 141
3 158 141
0 159 141
1 159 141
2 159 141
3 159 141
0 160 141
1 160 141
2 160 141
3 160 141
0 161 141
1 161 141
2 161 141
3 161 141
0 162 141
1 162 141
2 162 141
3 162 141
0 163 141
1 163 141
2 163 141
3 163 141
0 164 141
1 164 141
2 164 141
3 164 141
0 165 141
1 165 141
2 165 141
3 165 141
0 166 141
1 166 141
2 166 141
3 166 141
0 167 141
1 167 141
2 167 141
3 167 141
0 168 141
1 168 141
2 168 141
3 168 141
0 169 141
1 169 141
2 169 141
3 169 141
0 170 141
1 170 141
2 170 141
3 170 141
0 171 141
1 171 141
2 171 141
3 171 141
0 172 141
1 172 141
2 172 141
3 172 141
0 173 141
1 173 141
2 173 141
3 173 141
0 174 141
1 174 141
2 174 141
3 174 141
0 175 141
1 175 141
2 175 141
3 175 141
0 176 141
1 176 141
2 176 141
3 176 141
0 177 141
1 177 141
2 177 141
3 177 141
0 178 141
1 178 141
2 178 141
3 178 141
0 179 141
1 179 141
2 179 141
3 179 141
0 180 141
1 180 141
2 180 141
3 180 141
0 181 141
1 181 141
2 181 141
3 181 141
0 182 141
1 182 141
2 182 141
3 182 141
0 183 141
1 183 141
2 183 141
3 183 141
0 184 141
1 184 141
2 184 141
3 184 141
0 185 141
1 185 141
2 185 141
3 185 141
0 186 141
1 186 141
2 186 141
3 186 141
0 187 141
1 187 141
2 187 141
3 187 141
0 188 141
1 188 141
2 188 141
3 188 141
0 189 141
1 189 141
2 189 141
3 189 141
0 190 141
1 190 141
2 190 141
3 190 141
0 191 141
1 191 141
2 191 141
3 191 141
0 192 141
1 192 141
2 192 141
3 192 141
0 193 141
1 193 141
2 193 141
3 193 141
0 194 141
1 194 141
2 194 141
3 194 141
0 195 141
1 195 141
2 195 141
3 195 141
0 196 141
1 196 141
2 196 141
3 196 141
0 197 141
1 197 141
2 197 141
3 197 141
0 198 141
1 198 141
2 198 141
3 198 141
0 199 141
1 199 141
2 199 141
3 199 141
0 132 142
1 132 142
2 132 142
3 132 142
0 133 142
1 133 142
2 133 142
3 133 142
0 134 142
1 134 142
2 134 142
3 134 142
0 135 142
1 135 142
2 135 142
3 135 142
0 136 142
1 136 142
2 136 142
3 136 142
0 137 142
1 137 142
2 137 142
3 137 142
0 138 142
1 138 142
2 138 142
3 138 142
0 139 142
1 139 142
2 139 142
3 139 142
0 140 142
1 140 142
2 140 142
3 140 142
0 141 142
1 141 142
2 141 142
3 141 142
0 142 142
1 142 142
2 142 142
3 142 142
0 143 142
1 143 142
2 143 142
3 143 142
0 144 142
1 144 142
2 144 142
3 144 142
0 145 142
1 145 142
2 145 142
3 145 142
0 146 142
1 146 142
2 146 142
3 146 142
0 147 142
1 147 142
2 147 142
3 147 142
0 148 142
1 148 142
2 148 142
3 148 142
0 149 142
1 149 142
2 149 142
3 149 142
0 150 142
1 150 142
2 150 142
3 150 142
0 151 142
1 151 142
2 151 142
3 151 142
0 152 142
1 152 142
2 152 142
3 152 142
0 153 142
1 153 142
2 153 142
3 153 142
0 154 142
1 154 142
2 154 142
3 154 142
0 155 142
1 155 142
2 155 142
3 155 142
0 156 142
1 156 142
2 156 142
3 156 142
0 157 142
1 157 142
2 157 142
3 157 142
0 158 142
1 158 142
2 158 142
3 158 142
0 159 142
1 159 142
2 159 142
3 159 142
0 160 142
1 160 142
2 160 142
3 160 142
0 161 142
1 161 142
2 161 142
3 161 142
0 162 142
1 162 142
2 162 142
3 162 142
0 163 142
1 163 142
2 163 142
3 163 142
0 164 142
1 164 142
2 164 142
3 164 142
0 165 142
1 165 142
2 165 142
3 165 142
0 166 142
1 166 142
2 166 142
3 166 142
0 167 142
1 167 142
2 167 142
3 167 142
0 168 142
1 168 142
2 168 142
3 168 142
0 169 142
1 169 142
2 169 142
3 169 142
0 170 142
1 170 142
2 170 142
3 170 142
0 171 142
1 171 142
2 171 142
3 171 142
0 172 142
1 172 142
2 172 142
3 172 142
0 173 142
1 173 142
2 173 142
3 173 142
0 174 142
1 174 142
2 174 142
3 174 142
0 175 142
1 175 142
2 175 142
3 175 142
0 176 142
1 176 142
2 176 142
3 176 142
0 177 142
1 177 142
2 177 142
3 177 142
0 178 142
1 178 142
2 178 142
3 178 142
0 179 142
1 179 142
2 179 142
3 179 142
0 180 142
1 180 142
2 180 142
3 180 142
0 181 142
1 181 142
2 181 142
3 181 142
0 182 142
1 182 142
2 182 142
3 182 142
0 183 142
1 183 142
2 183 142
3 183 142
0 184 142
1 184 142
2 184 142
3 184 142
0 185 142
1 185 142
2 185 142
3 185 142
0 186 142
1 186 142
2 186 142
3 186 142
0 187 142
1 187 142
2 187 142
3 187 142
0 188 142
1 188 142
2 188 142
3 188 142
0 189 142
1 189 142
2 189 142
3 189 142
0 190 142
1 190 142
2 190 142
3 190 142
0 191 142
1 191 142
2 191 142
3 191 142
0 192 142
1 192 142
2 192 142
3 192 142
0 193 142
1 193 142
2 193 142
3 193 142
0 194 142
1 194 142
2 194 142
3 194 142
0 195 142
1 195 142
2 195 142
3 195 142
0 196 142
1 196 142
2 196 142
3 196 142
0 197 142
1 197 142
2 197 142
3 197 142
0 198 142
1 198 142
2 198 142
3 198 142
0 199 142
1 199 142
2 199 142
3 199 142
0 132 143
1 132 143
2 132 143
3 132 143
0 133 143
1 133 143
2 133 143
3 133 143
0 134 143
1 134 143
2 134 143
3 134 143
0 135 143
1 135 143
2 135 143
3 135 143
0 136 143
1 136 143
2 136 143
3 136 143
0 137 143
1 137 143
2 137 143
3 137 143
0 138 143
1 138 143
2 138 143
3 138 143
0 139 143
1 139 143
2 139 143
3 139 143
0 140 143
1 140 143
2 140 143
3 140 143
0 141 143
1 141 143
2 141 143
3 141 143
0 142 143
1 142 143
2 142 143
3 142 143
0 143 143
1 143 143
2 143 143
3 143 143
0 144 143
1 144 143
2 144 143
3 144 143
0 145 143
1 145 143
2 145 143
3 145 143
0 146 143
1 146 143
2 146 143
3 146 143
0 147 143
1 147 143
2 147 143
3 147 143
0 148 143
1 148 143
2 148 143
3 148 143
0 149 143
1 149 143
2 149 143
3 149 143
0 150 143
1 150 143
2 150 143
3 150 143
0 151 143
1 151 143
2 151 143
3 151 143
0 152 143
1 152 143
2 152 143
3 152 143
0 153 143
1 153 143
2 153 143
3 153 143
0 154 143
1 154 143
2 154 143
3 154 143
0 155 143
1 155 143
2 155 143
3 155 143
0 156 143
1 156 143
2 156 143
3 156 143
0 157 143
1 157 143
2 157 143
3 157 143
0 158 143
1 158 143
2 158 143
3 158 143
0 159 143
1 159 143
2 159 143
3 159 143
0 160 143
1 160 143
2 160 143
3 160 143
0 161 143
1 161 143
2 161 143
3 161 143
0 162 143
1 162 143
2 162 143
3 162 143
0 163 143
1 163 143
2 163 143
3 163 143
0 164 143
1 164 143
2 164 143
3 164 143
0 165 143
1 165 143
2 165 143
3 165 143
0 166 143
1 166 143
2 166 143
3 166 143
0 167 143
1 167 143
2 167 143
3 167 143
0 168 143
1 168 143
2 168 143
3 168 143
0 169 143
1 169 143
2 169 143
3 169 143
0 170 143
1 170 143
2 170 143
3 170 143
0 171 143
1 171 143
2 171 143
3 171 143
0 172 143
1 172 143
2 172 143
3 172 143
0 173 143
1 173 143
2 173 143
3 173 143
0 174 143
1 174 143
2 174 143
3 174 143
0 175 143
1 175 143
2 175 143
3 175 143
0 176 143
1 176 143
2 176 143
3 176 143
0 177 143
1 177 143
2 177 143
3 177 143
0 178 143
1 178 143
2 178 143
3 178 143
0 179 143
1 179 143
2 179 143
3 179 143
0 180 143
1 180 143
2 180 143
3 180 143
0 181 143
1 181 143
2 181 143
3 181 143
0 182 143
1 182 143
2 182 143
3 182 143
0 183 143
1 183 143
2 183 143
3 183 143
0 184 143
1 184 143
2 184 143
3 184 143
0 185 143
1 185 143
2 185 143
3 185 143
0 186 143
1 186 143
2 186 143
3 186 143
0 187 143
1 187 143
2 187 143
3 187 143
0 188 143
1 188 143
2 188 143
3 188 143
0 189 143
1 189 143
2 189 143
3 189 143
0 190 143
1 190 143
2 190 143
3 190 143
0 191 143
1 191 143
2 191 143
3 191 143
0 192 143
1 192 143
2 192 143
3 192 143
0 193 143
1 193 143
2 193 143
3 193 143
0 194 143
1 194 143
2 194 143
3 194 143
0 195 143
1 195 143
2 195 143
3 195 143
0 196 143
1 196 143
2 196 143
3 196 143
0 197 143
1 197 143
2 197 143
3 197 143
0 198 143
1 198 143
2 198 143
3 198 143
0 199 143
1 199 143
2 199 143
3 199 143
0 132 144
1 132 144
2 132 144
3 132 144
0 133 144
1 133 144
2 133 144
3 133 144
0 134 144
1 134 144
2 134 144
3 134 144
0 135 144
1 135 144
2 135 144
3 135 144
0 136 144
1 136 144
2 136 144
3 136 144
0 137 144
1 137 144
2 137 144
3 137 144
0 138 144
1 138 144
2 138 144
3 138 144
0 139 144
1 139 144
2 139 144
3 139 144
0 140 144
1 140 144
2 140 144
3 140 144
0 141 144
1 141 144
2 141 144
3 141 144
0 142 144
1 142 144
2 142 144
3 142 144
0 143 144
1 143 144
2 143 144
3 143 144
0 144 144
1 144 144
2 144 144
3 144 144
0 145 144
1 145 144
2 145 144
3 145 144
0 146 144
1 146 144
2 146 144
3 146 144
0 147 144
1 147 144
2 147 144
3 147 144
0 148 144
1 148 144
2 148 144
3 148 144
0 149 144
1 149 144
2 149 144
3 149 144
0 150 144
1 150 144
2 150 144
3 150 144
0 151 144
1 151 144
2 151 144
3 151 144
0 152 144
1 152 144
2 152 144
3 152 144
0 153 144
1 153 144
2 153 144
3 153 144
0 154 144
1 154 144
2 154 144
3 154 144
0 155 144
1 155 144
2 155 144
3 155 144
0 156 144
1 156 144
2 156 144
3 156 144
0 157 144
1 157 144
2 157 144
3 157 144
0 158 144
1 158 144
2 158 144
3 158 144
0 159 144
1 159 144
2 159 144
3 159 144
0 160 144
1 160 144
2 160 144
3 160 144
0 161 144
1 161 144
2 161 144
3 161 144
0 162 144
1 162 144
2 162 144
3 162 144
0 163 144
1 163 144
2 163 144
3 163 144
0 164 144
1 164 144
2 164 144
3 164 144
0 165 144
1 165 144
2 165 144
3 165 144
0 166 144
1 166 144
2 166 144
3 166 144
0 167 144
1 167 144
2 167 144
3 167 144
0 168 144
1 168 144
2 168 144
3 168 144
0 169 144
1 169 144
2 169 144
3 169 144
0 170 144
1 170 144
2 170 144
3 170 144
0 171 144
1 171 144
2 171 144
3 171 144
0 172 144
1 172 144
2 172 144
3 172 144
0 173 144
1 173 144
2 173 144
3 173 144
0 174 144
1 174 144
2 174 144
3 174 144
0 175 144
1 175 144
2 175 144
3 175 144
0 176 144
1 176 144
2 176 144
3 176 144
0 177 144
1 177 144
2 177 144
3 177 144
0 178 144
1 178 144
2 178 144
3 178 144
0 179 144
1 179 144
2 179 144
3 179 144
0 180 144
1 180 144
2 180 144
3 180 144
0 181 144
1 181 144
2 181 144
3 181 144
0 182 144
1 182 144
2 182 144
3 182 144
0 183 144
1 183 144
2 183 144
3 183 144
0 184 144
1 184 144
2 184 144
3 184 144
0 185 144
1 185 144
2 185 144
3 185 144
0 186 144
1 186 144
2 186 144
3 186 144
0 187 144
1 187 144
2 187 144
3 187 144
0 188 144
1 188 144
2 188 144
3 188 144
0 189 144
1 189 144
2 189 144
3 189 144
0 190 144
1 190 144
2 190 144
3 190 144
0 191 144
1 191 144
2 191 144
3 191 144
0 192 144
1 192 144
2 192 144
3 192 144
0 193 144
1 193 144
2 193 144
3 193 144
0 194 144
1 194 144
2 194 144
3 194 144
0 195 144
1 195 144
2 195 144
3 195 144
0 196 144
1 196 144
2 196 144
3 196 144
0 197 144
1 197 144
2 197 144
3 197 144
0 198 144
1 198 144
2 198 144
3 198 144
0 199 144
1 199 144
2 199 144
3 199 144
0 132 145
1 132 145
2 132 145
3 132 145
0 133 145
1 133 145
2 133 145
3 133 145
0 134 145
1 134 145
2 134 145
3 134 145
0 135 145
1 135 145
2 135 145
3 135 145
0 136 145
1 136 145
2 136 145
3 136 145
0 137 145
1 137 145
2 137 145
3 137 145
0 138 145
1 138 145
2 138 145
3 138 145
0 139 145
1 139 145
2 139 145
3 139 145
0 140 145
1 140 145
2 140 145
3 140 145
0 141 145
1 141 145
2 141 145
3 141 145
0 142 145
1 142 145
2 142 145
3 142 145
0 143 145
1 143 145
2 143 145
3 143 145
0 144 145
1 144 145
2 144 145
3 144 145
0 145 145
1 145 145
2 145 145
3 145 145
0 146 145
1 146 145
2 146 145
3 146 145
0 147 145
1 147 145
2 147 145
3 147 145
0 148 145
1 148 145
2 148 145
3 148 145
0 149 145
1 149 145
2 149 145
3 149 145
0 150 145
1 150 145
2 150 145
3 150 145
0 151 145
1 151 145
2 151 145
3 151 145
0 152 145
1 152 145
2 152 145
3 152 145
0 153 145
1 153 145
2 153 145
3 153 145
0 154 145
1 154 145
2 154 145
3 154 145
0 155 145
1 155 145
2 155 145
3 155 145
0 156 145
1 156 145
2 156 145
3 156 145
0 157 145
1 157 145
2 157 145
3 157 145
0 158 145
1 158 145
2 158 145
3 158 145
0 159 145
1 159 145
2 159 145
3 159 145
0 160 145
1 160 145
2 160 145
3 160 145
0 161 145
1 161 145
2 161 145
3 161 145
0 162 145
1 162 145
2 162 145
3 162 145
0 163 145
1 163 145
2 163 145
3 163 145
0 164 145
1 164 145
2 164 145
3 164 145
0 165 145
1 165 145
2 165 145
3 165 145
0 166 145
1 166 145
2 166 145
3 166 145
0 167 145
1 167 145
2 167 145
3 167 145
0 168 145
1 168 145
2 168 145
3 168 145
0 169 145
1 169 145
2 169 145
3 169 145
0 170 145
1 170 145
2 170 145
3 170 145
0 171 145
1 171 145
2 171 145
3 171 145
0 172 145
1 172 145
2 172 145
3 172 145
0 173 145
1 173 145
2 173 145
3 173 145
0 174 145
1 174 145
2 174 145
3 174 145
0 175 145
1 175 145
2 175 145
3 175 145
0 176 145
1 176 145
2 176 145
3 176 145
0 177 145
1 177 145
2 177 145
3 177 145
0 178 145
1 178 145
2 178 145
3 178 145
0 179 145
1 179 145
2 179 145
3 179 145
0 180 145
1 180 145
2 180 145
3 180 145
0 181 145
1 181 145
2 181 145
3 181 145
0 182 145
1 182 145
2 182 145
3 182 145
0 183 145
1 183 145
2 183 145
3 183 145
0 184 145
1 184 145
2 184 145
3 184 145
0 185 145
1 185 145
2 185 145
3 185 145
0 186 145
1 186 145
2 186 145
3 186 145
0 187 145
1 187 145
2 187 145
3 187 145
0 188 145
1 188 145
2 188 145
3 188 145
0 189 145
1 189 145
2 189 145
3 189 145
0 190 145
1 190 145
2 190 145
3 190 145
0 191 145
1 191 145
2 191 145
3 191 145
0 192 145
1 192 145
2 192 145
3 192 145
0 193 145
1 193 145
2 193 145
3 193 145
0 194 145
1 194 145
2 194 145
3 194 145
0 195 145
1 195 145
2 195 145
3 195 145
0 196 145
1 196 145
2 196 145
3 196 145
0 197 145
1 197 145
2 197 145
3 197 145
0 198 145
1 198 145
2 198 145
3 198 145
0 199 145
1 199 145
2 199 145
3 199 145
0 132 146
1 132 146
2 132 146
3 132 146
0 133 146
1 133 146
2 133 146
3 133 146
0 134 146
1 134 146
2 134 146
3 134 146
0 135 146
1 135 146
2 135 146
3 135 146
0 136 146
1 136 146
2 136 146
3 136 146
0 137 146
1 137 146
2 137 146
3 137 146
0 138 146
1 138 146
2 138 146
3 138 146
0 139 146
1 139 146
2 139 146
3 139 146
0 140 146
1 140 146
2 140 146
3 140 146
0 141 146
1 141 146
2 141 146
3 141 146
0 142 146
1 142 146
2 142 146
3 142 146
0 143 146
1 143 146
2 143 146
3 143 146
0 144 146
1 144 146
2 144 146
3 144 146
0 145 146
1 145 146
2 145 146
3 145 146
0 146 146
1 146 146
2 146 146
3 146 146
0 147 146
1 147 146
2 147 146
3 147 146
0 148 146
1 148 146
2 148 146
3 148 146
0 149 146
1 149 146
2 149 146
3 149 146
0 150 146
1 150 146
2 150 146
3 150 146
0 151 146
1 151 146
2 151 146
3 151 146
0 152 146
1 152 146
2 152 146
3 152 146
0 153 146
1 153 146
2 153 146
3 153 146
0 154 146
1 154 146
2 154 146
3 154 146
0 155 146
1 155 146
2 155 146
3 155 146
0 156 146
1 156 146
2 156 146
3 156 146
0 157 146
1 157 146
2 157 146
3 157 146
0 158 146
1 158 146
2 158 146
3 158 146
0 159 146
1 159 146
2 159 146
3 159 146
0 160 146
1 160 146
2 160 146
3 160 146
0 161 146
1 161 146
2 161 146
3 161 146
0 162 146
1 162 146
2 162 146
3 162 146
0 163 146
1 163 146
2 163 146
3 163 146
0 164 146
1 164 146
2 164 146
3 164 146
0 165 146
1 165 146
2 165 146
3 165 146
0 166 146
1 166 146
2 166 146
3 166 146
0 167 146
1 167 146
2 167 146
3 167 146
0 168 146
1 168 146
2 168 146
3 168 146
0 169 146
1 169 146
2 169 146
3 169 146
0 170 146
1 170 146
2 170 146
3 170 146
0 171 146
1 171 146
2 171 146
3 171 146
0 172 146
1 172 146
2 172 146
3 172 146
0 173 146
1 173 146
2 173 146
3 173 146
0 174 146
1 174 146
2 174 146
3 174 146
0 175 146
1 175 146
2 175 146
3 175 146
0 176 146
1 176 146
2 176 146
3 176 146
0 177 146
1 177 146
2 177 146
3 177 146
0 178 146
1 178 146
2 178 146
3 178 146
0 179 146
1 179 146
2 179 146
3 179 146
0 180 146
1 180 146
2 180 146
3 180 146
0 181 146
1 181 146
2 181 146
3 181 146
0 182 146
1 182 146
2 182 146
3 182 146
0 183 146
1 183 146
2 183 146
3 183 146
0 184 146
1 184 146
2 184 146
3 184 146
0 185 146
1 185 146
2 185 146
3 185 146
0 186 146
1 186 146
2 186 146
3 186 146
0 187 146
1 187 146
2 187 146
3 187 146
0 188 146
1 188 146
2 188 146
3 188 146
0 189 146
1 189 146
2 189 146
3 189 146
0 190 146
1 190 146
2 190 146
3 190 146
0 191 146
1 191 146
2 191 146
3 191 146
0 192 146
1 192 146
2 192 146
3 192 146
0 193 146
1 193 146
2 193 146
3 193 146
0 194 146
1 194 146
2 194 146
3 194 146
0 195 146
1 195 146
2 195 146
3 195 146
0 196 146
1 196 146
2 196 146
3 196 146
0 197 146
1 197 146
2 197 146
3 197 146
0 198 146
1 198 146
2 198 146
3 198 146
0 199 146
1 199 146
2 199 146
3 199 146
0 132 147
1 132 147
2 132 147
3 132 147
0 133 147
1 133 147
2 133 147
3 133 147
0 134 147
1 134 147
2 134 147
3 134 147
0 135 147
1 135 147
2 135 147
3 135 147
0 136 147
1 136 147
2 136 147
3 136 147
0 137 147
1 137 147
2 137 147
3 137 147
0 138 147
1 138 147
2 138 147
3 138 147
0 139 147
1 139 147
2 139 147
3 139 147
0 140 147
1 140 147
2 140 147
3 140 147
0 141 147
1 141 147
2 141 147
3 141 147
0 142 147
1 142 147
2 142 147
3 142 147
0 143 147
1 143 147
2 143 147
3 143 147
0 144 147
1 144 147
2 144 147
3 144 147
0 145 147
1 145 147
2 145 147
3 145 147
0 146 147
1 146 147
2 146 147
3 146 147
0 147 147
1 147 147
2 147 147
3 147 147
0 148 147
1 148 147
2 148 147
3 148 147
0 149 147
1 149 147
2 149 147
3 149 147
0 150 147
1 150 147
2 150 147
3 150 147
0 151 147
1 151 147
2 151 147
3 151 147
0 152 147
1 152 147
2 152 147
3 152 147
0 153 147
1 153 147
2 153 147
3 153 147
0 154 147
1 154 147
2 154 147
3 154 147
0 155 147
1 155 147
2 155 147
3 155 147
0 156 147
1 156 147
2 156 147
3 156 147
0 157 147
1 157 147
2 157 147
3 157 147
0 158 147
1 158 147
2 158 147
3 158 147
0 159 147
1 159 147
2 159 147
3 159 147
0 160 147
1 160 147
2 160 147
3 160 147
0 161 147
1 161 147
2 161 147
3 161 147
0 162 147
1 162 147
2 162 147
3 162 147
0 163 147
1 163 147
2 163 147
3 163 147
0 164 147
1 164 147
2 164 147
3 164 147
0 165 147
1 165 147
2 165 147
3 165 147
0 166 147
1 166 147
2 166 147
3 166 147
0 167 147
1 167 147
2 167 147
3 167 147
0 168 147
1 168 147
2 168 147
3 168 147
0 169 147
1 169 147
2 169 147
3 169 147
0 170 147
1 170 147
2 170 147
3 170 147
0 171 147
1 171 147
2 171 147
3 171 147
0 172 147
1 172 147
2 172 147
3 172 147
0 173 147
1 173 147
2 173 147
3 173 147
0 174 147
1 174 147
2 174 147
3 174 147
0 175 147
1 175 147
2 175 147
3 175 147
0 176 147
1 176 147
2 176 147
3 176 147
0 177 147
1 177 147
2 177 147
3 177 147
0 178 147
1 178 147
2 178 147
3 178 147
0 179 147
1 179 147
2 179 147
3 179 147
0 180 147
1 180 147
2 180 147
3 180 147
0 181 147
1 181 147
2 181 147
3 181 147
0 182 147
1 182 147
2 182 147
3 182 147
0 183 147
1 183 147
2 183 147
3 183 147
0 184 147
1 184 147
2 184 147
3 184 147
0 185 147
1 185 147
2 185 147
3 185 147
0 186 147
1 186 147
2 186 147
3 186 147
0 187 147
1 187 147
2 187 147
3 187 147
0 188 147
1 188 147
2 188 147
3 188 147
0 189 147
1 189 147
2 189 147
3 189 147
0 190 147
1 190 147
2 190 147
3 190 147
0 191 147
1 191 147
2 191 147
3 191 147
0 192 147
1 192 147
2 192 147
3 192 147
0 193 147
1 193 147
2 193 147
3 193 147
0 194 147
1 194 147
2 194 147
3 194 147
0 195 147
1 195 147
2 195 147
3 195 147
0 196 147
1 196 147
2 196 147
3 196 147
0 197 147
1 197 147
2 197 147
3 197 147
0 198 147
1 198 147
2 198 147
3 198 147
0 199 147
1 199 147
2 199 147
3 199 147
0 132 148
1 132 148
2 132 148
3 132 148
0 133 148
1 133 148
2 133 148
3 133 148
0 134 148
1 134 148
2 134 148
3 134 148
0 135 148
1 135 148
2 135 148
3 135 148
0 136 148
1 136 148
2 136 148
3 136 148
0 137 148
1 137 148
2 137 148
3 137 148
0 138 148
1 138 148
2 138 148
3 138 148
0 139 148
1 139 148
2 139 148
3 139 148
0 140 148
1 140 148
2 140 148
3 140 148
0 141 148
1 141 148
2 141 148
3 141 148
0 142 148
1 142 148
2 142 148
3 142 148
0 143 148
1 143 148
2 143 148
3 143 148
0 144 148
1 144 148
2 144 148
3 144 148
0 145 148
1 145 148
2 145 148
3 145 148
0 146 148
1 146 148
2 146 148
3 146 148
0 147 148
1 147 148
2 147 148
3 147 148
0 148 148
1 148 148
2 148 148
3 148 148
0 149 148
1 149 148
2 149 148
3 149 148
0 150 148
1 150 148
2 150 148
3 150 148
0 151 148
1 151 148
2 151 148
3 151 148
0 152 148
1 152 148
2 152 148
3 152 148
0 153 148
1 153 148
2 153 148
3 153 148
0 154 148
1 154 148
2 154 148
3 154 148
0 155 148
1 155 148
2 155 148
3 155 148
0 156 148
1 156 148
2 156 148
3 156 148
0 157 148
1 157 148
2 157 148
3 157 148
0 158 148
1 158 148
2 158 148
3 158 148
0 159 148
1 159 148
2 159 148
3 159 148
0 160 148
1 160 148
2 160 148
3 160 148
0 161 148
1 161 148
2 161 148
3 161 148
0 162 148
1 162 148
2 162 148
3 162 148
0 163 148
1 163 148
2 163 148
3 163 148
0 164 148
1 164 148
2 164 148
3 164 148
0 165 148
1 165 148
2 165 148
3 165 148
0 166 148
1 166 148
2 166 148
3 166 148
0 167 148
1 167 148
2 167 148
3 167 148
0 168 148
1 168 148
2 168 148
3 168 148
0 169 148
1 169 148
2 169 148
3 169 148
0 170 148
1 170 148
2 170 148
3 170 148
0 171 148
1 171 148
2 171 148
3 171 148
0 172 148
1 172 148
2 172 148
3 172 148
0 173 148
1 173 148
2 173 148
3 173 148
0 174 148
1 174 148
2 174 148
3 174 148
0 175 148
1 175 148
2 175 148
3 175 148
0 176 148
1 176 148
2 176 148
3 176 148
0 177 148
1 177 148
2 177 148
3 177 148
0 178 148
1 178 148
2 178 148
3 178 148
0 179 148
1 179 148
2 179 148
3 179 148
0 180 148
1 180 148
2 180 148
3 180 148
0 181 148
1 181 148
2 181 148
3 181 148
0 182 148
1 182 148
2 182 148
3 182 148
0 183 148
1 183 148
2 183 148
3 183 148
0 184 148
1 184 148
2 184 148
3 184 148
0 185 148
1 185 148
2 185 148
3 185 148
0 186 148
1 186 148
2 186 148
3 186 148
0 187 148
1 187 148
2 187 148
3 187 148
0 188 148
1 188 148
2 188 148
3 188 148
0 189 148
1 189 148
2 189 148
3 189 148
0 190 148
1 190 148
2 190 148
3 190 148
0 191 148
1 191 148
2 191 148
3 191 148
0 192 148
1 192 148
2 192 148
3 192 148
0 193 148
1 193 148
2 193 148
3 193 148
0 194 148
1 194 148
2 194 148
3 194 148
0 195 148
1 195 148
2 195 148
3 195 148
0 196 148
1 196 148
2 196 148
3 196 148
0 197 148
1 197 148
2 197 148
3 197 148
0 198 148
1 198 148
2 198 148
3 198 148
0 199 148
1 199 148
2 199 148
3 199 148
0 132 149
1 132 149
2 132 149
3 132 149
0 133 149
1 133 149
2 133 149
3 133 149
0 134 149
1 134 149
2 134 149
3 134 149
0 135 149
1 135 149
2 135 149
3 135 149
0 136 149
1 136 149
2 136 149
3 136 149
0 137 149
1 137 149
2 137 149
3 137 149
0 138 149
1 138 149
2 138 149
3 138 149
0 139 149
1 139 149
2 139 149
3 139 149
0 140 149
1 140 149
2 140 149
3 140 149
0 141 149
1 141 149
2 141 149
3 141 149
0 142 149
1 142 149
2 142 149
3 142 149
0 143 149
1 143 149
2 143 149
3 143 149
0 144 149
1 144 149
2 144 149
3 144 149
0 145 149
1 145 149
2 145 149
3 145 149
0 146 149
1 146 149
2 146 149
3 146 149
0 147 149
1 147 149
2 147 149
3 147 149
0 148 149
1 148 149
2 148 149
3 148 149
0 149 149
1 149 149
2 149 149
3 149 149
0 150 149
1 150 149
2 150 149
3 150 149
0 151 149
1 151 149
2 151 149
3 151 149
0 152 149
1 152 149
2 152 149
3 152 149
0 153 149
1 153 149
2 153 149
3 153 149
0 154 149
1 154 149
2 154 149
3 154 149
0 155 149
1 155 149
2 155 149
3 155 149
0 156 149
1 156 149
2 156 149
3 156 149
0 157 149
1 157 149
2 157 149
3 157 149
0 158 149
1 158 149
2 158 149
3 158 149
0 159 149
1 159 149
2 159 149
3 159 149
0 160 149
1 160 149
2 160 149
3 160 149
0 161 149
1 161 149
2 161 149
3 161 149
0 162 149
1 162 149
2 162 149
3 162 149
0 163 149
1 163 149
2 163 149
3 163 149
0 164 149
1 164 149
2 164 149
3 164 149
0 165 149
1 165 149
2 165 149
3 165 149
0 166 149
1 166 149
2 166 149
3 166 149
0 167 149
1 167 149
2 167 149
3 167 149
0 168 149
1 168 149
2 168 149
3 168 149
0 169 149
1 169 149
2 169 149
3 169 149
0 170 149
1 170 149
2 170 149
3 170 149
0 171 149
1 171 149
2 171 149
3 171 149
0 172 149
1 172 149
2 172 149
3 172 149
0 173 149
1 173 149
2 173 149
3 173 149
0 174 149
1 174 149
2 174 149
3 174 149
0 175 149
1 175 149
2 175 149
3 175 149
0 176 149
1 176 149
2 176 149
3 176 149
0 177 149
1 177 149
2 177 149
3 177 149
0 178 149
1 178 149
2 178 149
3 178 149
0 179 149
1 179 149
2 179 149
3 179 149
0 180 149
1 180 149
2 180 149
3 180 149
0 181 149
1 181 149
2 181 149
3 181 149
0 182 149
1 182 149
2 182 149
3 182 149
0 183 149
1 183 149
2 183 149
3 183 149
0 184 149
1 184 149
2 184 149
3 184 149
0 185 149
1 185 149
2 185 149
3 185 149
0 186 149
1 186 149
2 186 149
3 186 149
0 187 149
1 187 149
2 187 149
3 187 149
0 188 149
1 188 149
2 188 149
3 188 149
0 189 149
1 189 149
2 189 149
3 189 149
0 190 149
1 190 149
2 190 149
3 190 149
0 191 149
1 191 149
2 191 149
3 191 149
0 192 149
1 192 149
2 192 149
3 192 149
0 193 149
1 193 149
2 193 149
3 193 149
0 194 149
1 194 149
2 194 149
3 194 149
0 195 149
1 195 149
2 195 149
3 195 149
0 196 149
1 196 149
2 196 149
3 196 149
0 197 149
1 197 149
2 197 149
3 197 149
0 198 149
1 198 149
2 198 149
3 198 149
0 199 149
1 199 149
2 199 149
3 199 149
0 132 150
1 132 150
2 132 150
3 132 150
0 133 150
1 133 150
2 133 150
3 133 150
0 134 150
1 134 150
2 134 150
3 134 150
0 135 150
1 135 150
2 135 150
3 135 150
0 136 150
1 136 150
2 136 150
3 136 150
0 137 150
1 137 150
2 137 150
3 137 150
0 138 150
1 138 150
2 138 150
3 138 150
0 139 150
1 139 150
2 139 150
3 139 150
0 140 150
1 140 150
2 140 150
3 140 150
0 141 150
1 141 150
2 141 150
3 141 150
0 142 150
1 142 150
2 142 150
3 142 150
0 143 150
1 143 150
2 143 150
3 143 150
0 144 150
1 144 150
2 144 150
3 144 150
0 145 150
1 145 150
2 145 150
3 145 150
0 146 150
1 146 150
2 146 150
3 146 150
0 147 150
1 147 150
2 147 150
3 147 150
0 148 150
1 148 150
2 148 150
3 148 150
0 149 150
1 149 150
2 149 150
3 149 150
0 150 150
1 150 150
2 150 150
3 150 150
0 151 150
1 151 150
2 151 150
3 151 150
0 152 150
1 152 150
2 152 150
3 152 150
0 153 150
1 153 150
2 153 150
3 153 150
0 154 150
1 154 150
2 154 150
3 154 150
0 155 150
1 155 150
2 155 150
3 155 150
0 156 150
1 156 150
2 156 150
3 156 150
0 157 150
1 157 150
2 157 150
3 157 150
0 158 150
1 158 150
2 158 150
3 158 150
0 159 150
1 159 150
2 159 150
3 159 150
0 160 150
1 160 150
2 160 150
3 160 150
0 161 150
1 161 150
2 161 150
3 161 150
0 162 150
1 162 150
2 162 150
3 162 150
0 163 150
1 163 150
2 163 150
3 163 150
0 164 150
1 164 150
2 164 150
3 164 150
0 165 150
1 165 150
2 165 150
3 165 150
0 166 150
1 166 150
2 166 150
3 166 150
0 167 150
1 167 150
2 167 150
3 167 150
0 168 150
1 168 150
2 168 150
3 168 150
0 169 150
1 169 150
2 169 150
3 169 150
0 170 150
1 170 150
2 170 150
3 170 150
0 171 150
1 171 150
2 171 150
3 171 150
0 172 150
1 172 150
2 172 150
3 172 150
0 173 150
1 173 150
2 173 150
3 173 150
0 174 150
1 174 150
2 174 150
3 174 150
0 175 150
1 175 150
2 175 150
3 175 150
0 176 150
1 176 150
2 176 150
3 176 150
0 177 150
1 177 150
2 177 150
3 177 150
0 178 150
1 178 150
2 178 150
3 178 150
0 179 150
1 179 150
2 179 150
3 179 150
0 180 150
1 180 150
2 180 150
3 180 150
0 181 150
1 181 150
2 181 150
3 181 150
0 182 150
1 182 150
2 182 150
3 182 150
0 183 150
1 183 150
2 183 150
3 183 150
0 184 150
1 184 150
2 184 150
3 184 150
0 185 150
1 185 150
2 185 150
3 185 150
0 186 150
1 186 150
2 186 150
3 186 150
0 187 150
1 187 150
2 187 150
3 187 150
0 188 150
1 188 150
2 188 150
3 188 150
0 189 150
1 189 150
2 189 150
3 189 150
0 190 150
1 190 150
2 190 150
3 190 150
0 191 150
1 191 150
2 191 150
3 191 150
0 192 150
1 192 150
2 192 150
3 192 150
0 193 150
1 193 150
2 193 150
3 193 150
0 194 150
1 194 150
2 194 150
3 194 150
0 195 150
1 195 150
2 195 150
3 195 150
0 196 150
1 196 150
2 196 150
3 196 150
0 197 150
1 197 150
2 197 150
3 197 150
0 198 150
1 198 150
2 198 150
3 198 150
0 199 150
1 199 150
2 199 150
3 199 150
0 132 151
1 132 151
2 132 151
3 132 151
0 133 151
1 133 151
2 133 151
3 133 151
0 134 151
1 134 151
2 134 151
3 134 151
0 135 151
1 135 151
2 135 151
3 135 151
0 136 151
1 136 151
2 136 151
3 136 151
0 137 151
1 137 151
2 137 151
3 137 151
0 138 151
1 138 151
2 138 151
3 138 151
0 139 151
1 139 151
2 139 151
3 139 151
0 140 151
1 140 151
2 140 151
3 140 151
0 141 151
1 141 151
2 141 151
3 141 151
0 142 151
1 142 151
2 142 151
3 142 151
0 143 151
1 143 151
2 143 151
3 143 151
0 144 151
1 144 151
2 144 151
3 144 151
0 145 151
1 145 151
2 145 151
3 145 151
0 146 151
1 146 151
2 146 151
3 146 151
0 147 151
1 147 151
2 147 151
3 147 151
0 148 151
1 148 151
2 148 151
3 148 151
0 149 151
1 149 151
2 149 151
3 149 151
0 150 151
1 150 151
2 150 151
3 150 151
0 151 151
1 151 151
2 151 151
3 151 151
0 152 151
1 152 151
2 152 151
3 152 151
0 153 151
1 153 151
2 153 151
3 153 151
0 154 151
1 154 151
2 154 151
3 154 151
0 155 151
1 155 151
2 155 151
3 155 151
0 156 151
1 156 151
2 156 151
3 156 151
0 157 151
1 157 151
2 157 151
3 157 151
0 158 151
1 158 151
2 158 151
3 158 151
0 159 151
1 159 151
2 159 151
3 159 151
0 160 151
1 160 151
2 160 151
3 160 151
0 161 151
1 161 151
2 161 151
3 161 151
0 162 151
1 162 151
2 162 151
3 162 151
0 163 151
1 163 151
2 163 151
3 163 151
0 164 151
1 164 151
2 164 151
3 164 151
0 165 151
1 165 151
2 165 151
3 165 151
0 166 151
1 166 151
2 166 151
3 166 151
0 167 151
1 167 151
2 167 151
3 167 151
0 168 151
1 168 151
2 168 151
3 168 151
0 169 151
1 169 151
2 169 151
3 169 151
0 170 151
1 170 151
2 170 151
3 170 151
0 171 151
1 171 151
2 171 151
3 171 151
0 172 151
1 172 151
2 172 151
3 172 151
0 173 151
1 173 151
2 173 151
3 173 151
0 174 151
1 174 151
2 174 151
3 174 151
0 175 151
1 175 151
2 175 151
3 175 151
0 176 151
1 176 151
2 176 151
3 176 151
0 177 151
1 177 151
2 177 151
3 177 151
0 178 151
1 178 151
2 178 151
3 178 151
0 179 151
1 179 151
2 179 151
3 179 151
0 180 151
1 180 151
2 180 151
3 180 151
0 181 151
1 181 151
2 181 151
3 181 151
0 182 151
1 182 151
2 182 151
3 182 151
0 183 151
1 183 151
2 183 151
3 183 151
0 184 151
1 184 151
2 184 151
3 184 151
0 185 151
1 185 151
2 185 151
3 185 151
0 186 151
1 186 151
2 186 151
3 186 151
0 187 151
1 187 151
2 187 151
3 187 151
0 188 151
1 188 151
2 188 151
3 188 151
0 189 151
1 189 151
2 189 151
3 189 151
0 190 151
1 190 151
2 190 151
3 190 151
0 191 151
1 191 151
2 191 151
3 191 151
0 192 151
1 192 151
2 192 151
3 192 151
0 193 151
1 193 151
2 193 151
3 193 151
0 194 151
1 194 151
2 194 151
3 194 151
0 195 151
1 195 151
2 195 151
3 195 151
0 196 151
1 196 151
2 196 151
3 196 151
0 197 151
1 197 151
2 197 151
3 197 151
0 198 151
1 198 151
2 198 151
3 198 151
0 199 151
1 199 151
2 199 151
3 199 151
0 132 152
1 132 152
2 132 152
3 132 152
0 133 152
1 133 152
2 133 152
3 133 152
0 134 152
1 134 152
2 134 152
3 134 152
0 135 152
1 135 152
2 135 152
3 135 152
0 136 152
1 136 152
2 136 152
3 136 152
0 137 152
1 137 152
2 137 152
3 137 152
0 138 152
1 138 152
2 138 152
3 138 152
0 139 152
1 139 152
2 139 152
3 139 152
0 140 152
1 140 152
2 140 152
3 140 152
0 141 152
1 141 152
2 141 152
3 141 152
0 142 152
1 142 152
2 142 152
3 142 152
0 143 152
1 143 152
2 143 152
3 143 152
0 144 152
1 144 152
2 144 152
3 144 152
0 145 152
1 145 152
2 145 152
3 145 152
0 146 152
1 146 152
2 146 152
3 146 152
0 147 152
1 147 152
2 147 152
3 147 152
0 148 152
1 148 152
2 148 152
3 148 152
0 149 152
1 149 152
2 149 152
3 149 152
0 150 152
1 150 152
2 150 152
3 150 152
0 151 152
1 151 152
2 151 152
3 151 152
0 152 152
1 152 152
2 152 152
3 152 152
0 153 152
1 153 152
2 153 152
3 153 152
0 154 152
1 154 152
2 154 152
3 154 152
0 155 152
1 155 152
2 155 152
3 155 152
0 156 152
1 156 152
2 156 152
3 156 152
0 157 152
1 157 152
2 157 152
3 157 152
0 158 152
1 158 152
2 158 152
3 158 152
0 159 152
1 159 152
2 159 152
3 159 152
0 160 152
1 160 152
2 160 152
3 160 152
0 161 152
1 161 152
2 161 152
3 161 152
0 162 152
1 162 152
2 162 152
3 162 152
0 163 152
1 163 152
2 163 152
3 163 152
0 164 152
1 164 152
2 164 152
3 164 152
0 165 152
1 165 152
2 165 152
3 165 152
0 166 152
1 166 152
2 166 152
3 166 152
0 167 152
1 167 152
2 167 152
3 167 152
0 168 152
1 168 152
2 168 152
3 168 152
0 169 152
1 169 152
2 169 152
3 169 152
0 170 152
1 170 152
2 170 152
3 170 152
0 171 152
1 171 152
2 171 152
3 171 152
0 172 152
1 172 152
2 172 152
3 172 152
0 173 152
1 173 152
2 173 152
3 173 152
0 174 152
1 174 152
2 174 152
3 174 152
0 175 152
1 175 152
2 175 152
3 175 152
0 176 152
1 176 152
2 176 152
3 176 152
0 177 152
1 177 152
2 177 152
3 177 152
0 178 152
1 178 152
2 178 152
3 178 152
0 179 152
1 179 152
2 179 152
3 179 152
0 180 152
1 180 152
2 180 152
3 180 152
0 181 152
1 181 152
2 181 152
3 181 152
0 182 152
1 182 152
2 182 152
3 182 152
0 183 152
1 183 152
2 183 152
3 183 152
0 184 152
1 184 152
2 184 152
3 184 152
0 185 152
1 185 152
2 185 152
3 185 152
0 186 152
1 186 152
2 186 152
3 186 152
0 187 152
1 187 152
2 187 152
3 187 152
0 188 152
1 188 152
2 188 152
3 188 152
0 189 152
1 189 152
2 189 152
3 189 152
0 190 152
1 190 152
2 190 152
3 190 152
0 191 152
1 191 152
2 191 152
3 191 152
0 192 152
1 192 152
2 192 152
3 192 152
0 193 152
1 193 152
2 193 152
3 193 152
0 194 152
1 194 152
2 194 152
3 194 152
0 195 152
1 195 152
2 195 152
3 195 152
0 196 152
1 196 152
2 196 152
3 196 152
0 197 152
1 197 152
2 197 152
3 197 152
0 198 152
1 198 152
2 198 152
3 198 152
0 199 152
1 199 152
2 199 152
3 199 152
0 132 153
1 132 153
2 132 153
3 132 153
0 133 153
1 133 153
2 133 153
3 133 153
0 134 153
1 134 153
2 134 153
3 134 153
0 135 153
1 135 153
2 135 153
3 135 153
0 136 153
1 136 153
2 136 153
3 136 153
0 137 153
1 137 153
2 137 153
3 137 153
0 138 153
1 138 153
2 138 153
3 138 153
0 139 153
1 139 153
2 139 153
3 139 153
0 140 153
1 140 153
2 140 153
3 140 153
0 141 153
1 141 153
2 141 153
3 141 153
0 142 153
1 142 153
2 142 153
3 142 153
0 143 153
1 143 153
2 143 153
3 143 153
0 144 153
1 144 153
2 144 153
3 144 153
0 145 153
1 145 153
2 145 153
3 145 153
0 146 153
1 146 153
2 146 153
3 146 153
0 147 153
1 147 153
2 147 153
3 147 153
0 148 153
1 148 153
2 148 153
3 148 153
0 149 153
1 149 153
2 149 153
3 149 153
0 150 153
1 150 153
2 150 153
3 150 153
0 151 153
1 151 153
2 151 153
3 151 153
0 152 153
1 152 153
2 152 153
3 152 153
0 153 153
1 153 153
2 153 153
3 153 153
0 154 153
1 154 153
2 154 153
3 154 153
0 155 153
1 155 153
2 155 153
3 155 153
0 156 153
1 156 153
2 156 153
3 156 153
0 157 153
1 157 153
2 157 153
3 157 153
0 158 153
1 158 153
2 158 153
3 158 153
0 159 153
1 159 153
2 159 153
3 159 153
0 160 153
1 160 153
2 160 153
3 160 153
0 161 153
1 161 153
2 161 153
3 161 153
0 162 153
1 162 153
2 162 153
3 162 153
0 163 153
1 163 153
2 163 153
3 163 153
0 164 153
1 164 153
2 164 153
3 164 153
0 165 153
1 165 153
2 165 153
3 165 153
0 166 153
1 166 153
2 166 153
3 166 153
0 167 153
1 167 153
2 167 153
3 167 153
0 168 153
1 168 153
2 168 153
3 168 153
0 169 153
1 169 153
2 169 153
3 169 153
0 170 153
1 170 153
2 170 153
3 170 153
0 171 153
1 171 153
2 171 153
3 171 153
0 172 153
1 172 153
2 172 153
3 172 153
0 173 153
1 173 153
2 173 153
3 173 153
0 174 153
1 174 153
2 174 153
3 174 153
0 175 153
1 175 153
2 175 153
3 175 153
0 176 153
1 176 153
2 176 153
3 176 153
0 177 153
1 177 153
2 177 153
3 177 153
0 178 153
1 178 153
2 178 153
3 178 153
0 179 153
1 179 153
2 179 153
3 179 153
0 180 153
1 180 153
2 180 153
3 180 153
0 181 153
1 181 153
2 181 153
3 181 153
0 182 153
1 182 153
2 182 153
3 182 153
0 183 153
1 183 153
2 183 153
3 183 153
0 184 153
1 184 153
2 184 153
3 184 153
0 185 153
1 185 153
2 185 153
3 185 153
0 186 153
1 186 153
2 186 153
3 186 153
0 187 153
1 187 153
2 187 153
3 187 153
0 188 153
1 188 153
2 188 153
3 188 153
0 189 153
1 189 153
2 189 153
3 189 153
0 190 153
1 190 153
2 190 153
3 190 153
0 191 153
1 191 153
2 191 153
3 191 153
0 192 153
1 192 153
2 192 153
3 192 153
0 193 153
1 193 153
2 193 153
3 193 153
0 194 153
1 194 153
2 194 153
3 194 153
0 195 153
1 195 153
2 195 153
3 195 153
0 196 153
1 196 153
2 196 153
3 196 153
0 197 153
1 197 153
2 197 153
3 197 153
0 198 153
1 198 153
2 198 153
3 198 153
0 199 153
1 199 153
2 199 153
3 199 153
0 132 154
1 132 154
2 132 154
3 132 154
0 133 154
1 133 154
2 133 154
3 133 154
0 134 154
1 134 154
2 134 154
3 134 154
0 135 154
1 135 154
2 135 154
3 135 154
0 136 154
1 136 154
2 136 154
3 136 154
0 137 154
1 137 154
2 137 154
3 137 154
0 138 154
1 138 154
2 138 154
3 138 154
0 139 154
1 139 154
2 139 154
3 139 154
0 140 154
1 140 154
2 140 154
3 140 154
0 141 154
1 141 154
2 141 154
3 141 154
0 142 154
1 142 154
2 142 154
3 142 154
0 143 154
1 143 154
2 143 154
3 143 154
0 144 154
1 144 154
2 144 154
3 144 154
0 145 154
1 145 154
2 145 154
3 145 154
0 146 154
1 146 154
2 146 154
3 146 154
0 147 154
1 147 154
2 147 154
3 147 154
0 148 154
1 148 154
2 148 154
3 148 154
0 149 154
1 149 154
2 149 154
3 149 154
0 150 154
1 150 154
2 150 154
3 150 154
0 151 154
1 151 154
2 151 154
3 151 154
0 152 154
1 152 154
2 152 154
3 152 154
0 153 154
1 153 154
2 153 154
3 153 154
0 154 154
1 154 154
2 154 154
3 154 154
0 155 154
1 155 154
2 155 154
3 155 154
0 156 154
1 156 154
2 156 154
3 156 154
0 157 154
1 157 154
2 157 154
3 157 154
0 158 154
1 158 154
2 158 154
3 158 154
0 159 154
1 159 154
2 159 154
3 159 154
0 160 154
1 160 154
2 160 154
3 160 154
0 161 154
1 161 154
2 161 154
3 161 154
0 162 154
1 162 154
2 162 154
3 162 154
0 163 154
1 163 154
2 163 154
3 163 154
0 164 154
1 164 154
2 164 154
3 164 154
0 165 154
1 165 154
2 165 154
3 165 154
0 166 154
1 166 154
2 166 154
3 166 154
0 167 154
1 167 154
2 167 154
3 167 154
0 168 154
1 168 154
2 168 154
3 168 154
0 169 154
1 169 154
2 169 154
3 169 154
0 170 154
1 170 154
2 170 154
3 170 154
0 171 154
1 171 154
2 171 154
3 171 154
0 172 154
1 172 154
2 172 154
3 172 154
0 173 154
1 173 154
2 173 154
3 173 154
0 174 154
1 174 154
2 174 154
3 174 154
0 175 154
1 175 154
2 175 154
3 175 154
0 176 154
1 176 154
2 176 154
3 176 154
0 177 154
1 177 154
2 177 154
3 177 154
0 178 154
1 178 154
2 178 154
3 178 154
0 179 154
1 179 154
2 179 154
3 179 154
0 180 154
1 180 154
2 180 154
3 180 154
0 181 154
1 181 154
2 181 154
3 181 154
0 182 154
1 182 154
2 182 154
3 182 154
0 183 154
1 183 154
2 183 154
3 183 154
0 184 154
1 184 154
2 184 154
3 184 154
0 185 154
1 185 154
2 185 154
3 185 154
0 186 154
1 186 154
2 186 154
3 186 154
0 187 154
1 187 154
2 187 154
3 187 154
0 188 154
1 188 154
2 188 154
3 188 154
0 189 154
1 189 154
2 189 154
3 189 154
0 190 154
1 190 154
2 190 154
3 190 154
0 191 154
1 191 154
2 191 154
3 191 154
0 192 154
1 192 154
2 192 154
3 192 154
0 193 154
1 193 154
2 193 154
3 193 154
0 194 154
1 194 154
2 194 154
3 194 154
0 195 154
1 195 154
2 195 154
3 195 154
0 196 154
1 196 154
2 196 154
3 196 154
0 197 154
1 197 154
2 197 154
3 197 154
0 198 154
1 198 154
2 198 154
3 198 154
0 199 154
1 199 154
2 199 154
3 199 154
0 132 155
1 132 155
2 132 155
3 132 155
0 133 155
1 133 155
2 133 155
3 133 155
0 134 155
1 134 155
2 134 155
3 134 155
0 135 155
1 135 155
2 135 155
3 135 155
0 136 155
1 136 155
2 136 155
3 136 155
0 137 155
1 137 155
2 137 155
3 137 155
0 138 155
1 138 155
2 138 155
3 138 155
0 139 155
1 139 155
2 139 155
3 139 155
0 140 155
1 140 155
2 140 155
3 140 155
0 141 155
1 141 155
2 141 155
3 141 155
0 142 155
1 142 155
2 142 155
3 142 155
0 143 155
1 143 155
2 143 155
3 143 155
0 144 155
1 144 155
2 144 155
3 144 155
0 145 155
1 145 155
2 145 155
3 145 155
0 146 155
1 146 155
2 146 155
3 146 155
0 147 155
1 147 155
2 147 155
3 147 155
0 148 155
1 148 155
2 148 155
3 148 155
0 149 155
1 149 155
2 149 155
3 149 155
0 150 155
1 150 155
2 150 155
3 150 155
0 151 155
1 151 155
2 151 155
3 151 155
0 152 155
1 152 155
2 152 155
3 152 155
0 153 155
1 153 155
2 153 155
3 153 155
0 154 155
1 154 155
2 154 155
3 154 155
0 155 155
1 155 155
2 155 155
3 155 155
0 156 155
1 156 155
2 156 155
3 156 155
0 157 155
1 157 155
2 157 155
3 157 155
0 158 155
1 158 155
2 158 155
3 158 155
0 159 155
1 159 155
2 159 155
3 159 155
0 160 155
1 160 155
2 160 155
3 160 155
0 161 155
1 161 155
2 161 155
3 161 155
0 162 155
1 162 155
2 162 155
3 162 155
0 163 155
1 163 155
2 163 155
3 163 155
0 164 155
1 164 155
2 164 155
3 164 155
0 165 155
1 165 155
2 165 155
3 165 155
0 166 155
1 166 155
2 166 155
3 166 155
0 167 155
1 167 155
2 167 155
3 167 155
0 168 155
1 168 155
2 168 155
3 168 155
0 169 155
1 169 155
2 169 155
3 169 155
0 170 155
1 170 155
2 170 155
3 170 155
0 171 155
1 171 155
2 171 155
3 171 155
0 172 155
1 172 155
2 172 155
3 172 155
0 173 155
1 173 155
2 173 155
3 173 155
0 174 155
1 174 155
2 174 155
3 174 155
0 175 155
1 175 155
2 175 155
3 175 155
0 176 155
1 176 155
2 176 155
3 176 155
0 177 155
1 177 155
2 177 155
3 177 155
0 178 155
1 178 155
2 178 155
3 178 155
0 179 155
1 179 155
2 179 155
3 179 155
0 180 155
1 180 155
2 180 155
3 180 155
0 181 155
1 181 155
2 181 155
3 181 155
0 182 155
1 182 155
2 182 155
3 182 155
0 183 155
1 183 155
2 183 155
3 183 155
0 184 155
1 184 155
2 184 155
3 184 155
0 185 155
1 185 155
2 185 155
3 185 155
0 186 155
1 186 155
2 186 155
3 186 155
0 187 155
1 187 155
2 187 155
3 187 155
0 188 155
1 188 155
2 188 155
3 188 155
0 189 155
1 189 155
2 189 155
3 189 155
0 190 155
1 190 155
2 190 155
3 190 155
0 191 155
1 191 155
2 191 155
3 191 155
0 192 155
1 192 155
2 192 155
3 192 155
0 193 155
1 193 155
2 193 155
3 193 155
0 194 155
1 194 155
2 194 155
3 194 155
0 195 155
1 195 155
2 195 155
3 195 155
0 196 155
1 196 155
2 196 155
3 196 155
0 197 155
1 197 155
2 197 155
3 197 155
0 198 155
1 198 155
2 198 155
3 198 155
0 199 155
1 199 155
2 199 155
3 199 155
0 132 156
1 132 156
2 132 156
3 132 156
0 133 156
1 133 156
2 133 156
3 133 156
0 134 156
1 134 156
2 134 156
3 134 156
0 135 156
1 135 156
2 135 156
3 135 156
0 136 156
1 136 156
2 136 156
3 136 156
0 137 156
1 137 156
2 137 156
3 137 156
0 138 156
1 138 156
2 138 156
3 138 156
0 139 156
1 139 156
2 139 156
3 139 156
0 140 156
1 140 156
2 140 156
3 140 156
0 141 156
1 141 156
2 141 156
3 141 156
0 142 156
1 142 156
2 142 156
3 142 156
0 143 156
1 143 156
2 143 156
3 143 156
0 144 156
1 144 156
2 144 156
3 144 156
0 145 156
1 145 156
2 145 156
3 145 156
0 146 156
1 146 156
2 146 156
3 146 156
0 147 156
1 147 156
2 147 156
3 147 156
0 148 156
1 148 156
2 148 156
3 148 156
0 149 156
1 149 156
2 149 156
3 149 156
0 150 156
1 150 156
2 150 156
3 150 156
0 151 156
1 151 156
2 151 156
3 151 156
0 152 156
1 152 156
2 152 156
3 152 156
0 153 156
1 153 156
2 153 156
3 153 156
0 154 156
1 154 156
2 154 156
3 154 156
0 155 156
1 155 156
2 155 156
3 155 156
0 156 156
1 156 156
2 156 156
3 156 156
0 157 156
1 157 156
2 157 156
3 157 156
0 158 156
1 158 156
2 158 156
3 158 156
0 159 156
1 159 156
2 159 156
3 159 156
0 160 156
1 160 156
2 160 156
3 160 156
0 161 156
1 161 156
2 161 156
3 161 156
0 162 156
1 162 156
2 162 156
3 162 156
0 163 156
1 163 156
2 163 156
3 163 156
0 164 156
1 164 156
2 164 156
3 164 156
0 165 156
1 165 156
2 165 156
3 165 156
0 166 156
1 166 156
2 166 156
3 166 156
0 167 156
1 167 156
2 167 156
3 167 156
0 168 156
1 168 156
2 168 156
3 168 156
0 169 156
1 169 156
2 169 156
3 169 156
0 170 156
1 170 156
2 170 156
3 170 156
0 171 156
1 171 156
2 171 156
3 171 156
0 172 156
1 172 156
2 172 156
3 172 156
0 173 156
1 173 156
2 173 156
3 173 156
0 174 156
1 174 156
2 174 156
3 174 156
0 175 156
1 175 156
2 175 156
3 175 156
0 176 156
1 176 156
2 176 156
3 176 156
0 177 156
1 177 156
2 177 156
3 177 156
0 178 156
1 178 156
2 178 156
3 178 156
0 179 156
1 179 156
2 179 156
3 179 156
0 180 156
1 180 156
2 180 156
3 180 156
0 181 156
1 181 156
2 181 156
3 181 156
0 182 156
1 182 156
2 182 156
3 182 156
0 183 156
1 183 156
2 183 156
3 183 156
0 184 156
1 184 156
2 184 156
3 184 156
0 185 156
1 185 156
2 185 156
3 185 156
0 186 156
1 186 156
2 186 156
3 186 156
0 187 156
1 187 156
2 187 156
3 187 156
0 188 156
1 188 156
2 188 156
3 188 156
0 189 156
1 189 156
2 189 156
3 189 156
0 190 156
1 190 156
2 190 156
3 190 156
0 191 156
1 191 156
2 191 156
3 191 156
0 192 156
1 192 156
2 192 156
3 192 156
0 193 156
1 193 156
2 193 156
3 193 156
0 194 156
1 194 156
2 194 156
3 194 156
0 195 156
1 195 156
2 195 156
3 195 156
0 196 156
1 196 156
2 196 156
3 196 156
0 197 156
1 197 156
2 197 156
3 197 156
0 198 156
1 198 156
2 198 156
3 198 156
0 199 156
1 199 156
2 199 156
3 199 156
0 132 157
1 132 157
2 132 157
3 132 157
0 133 157
1 133 157
2 133 157
3 133 157
0 134 157
1 134 157
2 134 157
3 134 157
0 135 157
1 135 157
2 135 157
3 135 157
0 136 157
1 136 157
2 136 157
3 136 157
0 137 157
1 137 157
2 137 157
3 137 157
0 138 157
1 138 157
2 138 157
3 138 157
0 139 157
1 139 157
2 139 157
3 139 157
0 140 157
1 140 157
2 140 157
3 140 157
0 141 157
1 141 157
2 141 157
3 141 157
0 142 157
1 142 157
2 142 157
3 142 157
0 143 157
1 143 157
2 143 157
3 143 157
0 144 157
1 144 157
2 144 157
3 144 157
0 145 157
1 145 157
2 145 157
3 145 157
0 146 157
1 146 157
2 146 157
3 146 157
0 147 157
1 147 157
2 147 157
3 147 157
0 148 157
1 148 157
2 148 157
3 148 157
0 149 157
1 149 157
2 149 157
3 149 157
0 150 157
1 150 157
2 150 157
3 150 157
0 151 157
1 151 157
2 151 157
3 151 157
0 152 157
1 152 157
2 152 157
3 152 157
0 153 157
1 153 157
2 153 157
3 153 157
0 154 157
1 154 157
2 154 157
3 154 157
0 155 157
1 155 157
2 155 157
3 155 157
0 156 157
1 156 157
2 156 157
3 156 157
0 157 157
1 157 157
2 157 157
3 157 157
0 158 157
1 158 157
2 158 157
3 158 157
0 159 157
1 159 157
2 159 157
3 159 157
0 160 157
1 160 157
2 160 157
3 160 157
0 161 157
1 161 157
2 161 157
3 161 157
0 162 157
1 162 157
2 162 157
3 162 157
0 163 157
1 163 157
2 163 157
3 163 157
0 164 157
1 164 157
2 164 157
3 164 157
0 165 157
1 165 157
2 165 157
3 165 157
0 166 157
1 166 157
2 166 157
3 166 157
0 167 157
1 167 157
2 167 157
3 167 157
0 168 157
1 168 157
2 168 157
3 168 157
0 169 157
1 169 157
2 169 157
3 169 157
0 170 157
1 170 157
2 170 157
3 170 157
0 171 157
1 171 157
2 171 157
3 171 157
0 172 157
1 172 157
2 172 157
3 172 157
0 173 157
1 173 157
2 173 157
3 173 157
0 174 157
1 174 157
2 174 157
3 174 157
0 175 157
1 175 157
2 175 157
3 175 157
0 176 157
1 176 157
2 176 157
3 176 157
0 177 157
1 177 157
2 177 157
3 177 157
0 178 157
1 178 157
2 178 157
3 178 157
0 179 157
1 179 157
2 179 157
3 179 157
0 180 157
1 180 157
2 180 157
3 180 157
0 181 157
1 181 157
2 181 157
3 181 157
0 182 157
1 182 157
2 182 157
3 182 157
0 183 157
1 183 157
2 183 157
3 183 157
0 184 157
1 184 157
2 184 157
3 184 157
0 185 157
1 185 157
2 185 157
3 185 157
0 186 157
1 186 157
2 186 157
3 186 157
0 187 157
1 187 157
2 187 157
3 187 157
0 188 157
1 188 157
2 188 157
3 188 157
0 189 157
1 189 157
2 189 157
3 189 157
0 190 157
1 190 157
2 190 157
3 190 157
0 191 157
1 191 157
2 191 157
3 191 157
0 192 157
1 192 157
2 192 157
3 192 157
0 193 157
1 193 157
2 193 157
3 193 157
0 194 157
1 194 157
2 194 157
3 194 157
0 195 157
1 195 157
2 195 157
3 195 157
0 196 157
1 196 157
2 196 157
3 196 157
0 197 157
1 197 157
2 197 157
3 197 157
0 198 157
1 198 157
2 198 157
3 198 157
0 199 157
1 199 157
2 199 157
3 199 157
0 132 158
1 132 158
2 132 158
3 132 158
0 133 158
1 133 158
2 133 158
3 133 158
0 134 158
1 134 158
2 134 158
3 134 158
0 135 158
1 135 158
2 135 158
3 135 158
0 136 158
1 136 158
2 136 158
3 136 158
0 137 158
1 137 158
2 137 158
3 137 158
0 138 158
1 138 158
2 138 158
3 138 158
0 139 158
1 139 158
2 139 158
3 139 158
0 140 158
1 140 158
2 140 158
3 140 158
0 141 158
1 141 158
2 141 158
3 141 158
0 142 158
1 142 158
2 142 158
3 142 158
0 143 158
1 143 158
2 143 158
3 143 158
0 144 158
1 144 158
2 144 158
3 144 158
0 145 158
1 145 158
2 145 158
3 145 158
0 146 158
1 146 158
2 146 158
3 146 158
0 147 158
1 147 158
2 147 158
3 147 158
0 148 158
1 148 158
2 148 158
3 148 158
0 149 158
1 149 158
2 149 158
3 149 158
0 150 158
1 150 158
2 150 158
3 150 158
0 151 158
1 151 158
2 151 158
3 151 158
0 152 158
1 152 158
2 152 158
3 152 158
0 153 158
1 153 158
2 153 158
3 153 158
0 154 158
1 154 158
2 154 158
3 154 158
0 155 158
1 155 158
2 155 158
3 155 158
0 156 158
1 156 158
2 156 158
3 156 158
0 157 158
1 157 158
2 157 158
3 157 158
0 158 158
1 158 158
2 158 158
3 158 158
0 159 158
1 159 158
2 159 158
3 159 158
0 160 158
1 160 158
2 160 158
3 160 158
0 161 158
1 161 158
2 161 158
3 161 158
0 162 158
1 162 158
2 162 158
3 162 158
0 163 158
1 163 158
2 163 158
3 163 158
0 164 158
1 164 158
2 164 158
3 164 158
0 165 158
1 165 158
2 165 158
3 165 158
0 166 158
1 166 158
2 166 158
3 166 158
0 167 158
1 167 158
2 167 158
3 167 158
0 168 158
1 168 158
2 168 158
3 168 158
0 169 158
1 169 158
2 169 158
3 169 158
0 170 158
1 170 158
2 170 158
3 170 158
0 171 158
1 171 158
2 171 158
3 171 158
0 172 158
1 172 158
2 172 158
3 172 158
0 173 158
1 173 158
2 173 158
3 173 158
0 174 158
1 174 158
2 174 158
3 174 158
0 175 158
1 175 158
2 175 158
3 175 158
0 176 158
1 176 158
2 176 158
3 176 158
0 177 158
1 177 158
2 177 158
3 177 158
0 178 158
1 178 158
2 178 158
3 178 158
0 179 158
1 179 158
2 179 158
3 179 158
0 180 158
1 180 158
2 180 158
3 180 158
0 181 158
1 181 158
2 181 158
3 181 158
0 182 158
1 182 158
2 182 158
3 182 158
0 183 158
1 183 158
2 183 158
3 183 158
0 184 158
1 184 158
2 184 158
3 184 158
0 185 158
1 185 158
2 185 158
3 185 158
0 186 158
1 186 158
2 186 158
3 186 158
0 187 158
1 187 158
2 187 158
3 187 158
0 188 158
1 188 158
2 188 158
3 188 158
0 189 158
1 189 158
2 189 158
3 189 158
0 190 158
1 190 158
2 190 158
3 190 158
0 191 158
1 191 158
2 191 158
3 191 158
0 192 158
1 192 158
2 192 158
3 192 158
0 193 158
1 193 158
2 193 158
3 193 158
0 194 158
1 194 158
2 194 158
3 194 158
0 195 158
1 195 158
2 195 158
3 195 158
0 196 158
1 196 158
2 196 158
3 196 158
0 197 158
1 197 158
2 197 158
3 197 158
0 198 158
1 198 158
2 198 158
3 198 158
0 199 158
1 199 158
2 199 158
3 199 158
0 132 159
1 132 159
2 132 159
3 132 159
0 133 159
1 133 159
2 133 159
3 133 159
0 134 159
1 134 159
2 134 159
3 134 159
0 135 159
1 135 159
2 135 159
3 135 159
0 136 159
1 136 159
2 136 159
3 136 159
0 137 159
1 137 159
2 137 159
3 137 159
0 138 159
1 138 159
2 138 159
3 138 159
0 139 159
1 139 159
2 139 159
3 139 159
0 140 159
1 140 159
2 140 159
3 140 159
0 141 159
1 141 159
2 141 159
3 141 159
0 142 159
1 142 159
2 142 159
3 142 159
0 143 159
1 143 159
2 143 159
3 143 159
0 144 159
1 144 159
2 144 159
3 144 159
0 145 159
1 145 159
2 145 159
3 145 159
0 146 159
1 146 159
2 146 159
3 146 159
0 147 159
1 147 159
2 147 159
3 147 159
0 148 159
1 148 159
2 148 159
3 148 159
0 149 159
1 149 159
2 149 159
3 149 159
0 150 159
1 150 159
2 150 159
3 150 159
0 151 159
1 151 159
2 151 159
3 151 159
0 152 159
1 152 159
2 152 159
3 152 159
0 153 159
1 153 159
2 153 159
3 153 159
0 154 159
1 154 159
2 154 159
3 154 159
0 155 159
1 155 159
2 155 159
3 155 159
0 156 159
1 156 159
2 156 159
3 156 159
0 157 159
1 157 159
2 157 159
3 157 159
0 158 159
1 158 159
2 158 159
3 158 159
0 159 159
1 159 159
2 159 159
3 159 159
0 160 159
1 160 159
2 160 159
3 160 159
0 161 159
1 161 159
2 161 159
3 161 159
0 162 159
1 162 159
2 162 159
3 162 159
0 163 159
1 163 159
2 163 159
3 163 159
0 164 159
1 164 159
2 164 159
3 164 159
0 165 159
1 165 159
2 165 159
3 165 159
0 166 159
1 166 159
2 166 159
3 166 159
0 167 159
1 167 159
2 167 159
3 167 159
0 168 159
1 168 159
2 168 159
3 168 159
0 169 159
1 169 159
2 169 159
3 169 159
0 170 159
1 170 159
2 170 159
3 170 159
0 171 159
1 171 159
2 171 159
3 171 159
0 172 159
1 172 159
2 172 159
3 172 159
0 173 159
1 173 159
2 173 159
3 173 159
0 174 159
1 174 159
2 174 159
3 174 159
0 175 159
1 175 159
2 175 159
3 175 159
0 176 159
1 176 159
2 176 159
3 176 159
0 177 159
1 177 159
2 177 159
3 177 159
0 178 159
1 178 159
2 178 159
3 178 159
0 179 159
1 179 159
2 179 159
3 179 159
0 180 159
1 180 159
2 180 159
3 180 159
0 181 159
1 181 159
2 181 159
3 181 159
0 182 159
1 182 159
2 182 159
3 182 159
0 183 159
1 183 159
2 183 159
3 183 159
0 184 159
1 184 159
2 184 159
3 184 159
0 185 159
1 185 159
2 185 159
3 185 159
0 186 159
1 186 159
2 186 159
3 186 159
0 187 159
1 187 159
2 187 159
3 187 159
0 188 159
1 188 159
2 188 159
3 188 159
0 189 159
1 189 159
2 189 159
3 189 159
0 190 159
1 190 159
2 190 159
3 190 159
0 191 159
1 191 159
2 191 159
3 191 159
0 192 159
1 192 159
2 192 159
3 192 159
0 193 159
1 193 159
2 193 159
3 193 159
0 194 159
1 194 159
2 194 159
3 194 159
0 195 159
1 195 159
2 195 159
3 195 159
0 196 159
1 196 159
2 196 159
3 196 159
0 197 159
1 197 159
2 197 159
3 197 159
0 198 159
1 198 159
2 198 159
3 198 159
0 199 159
1 199 159
2 199 159
3 199 159
0 132 160
1 132 160
2 132 160
3 132 160
0 133 160
1 133 160
2 133 160
3 133 160
0 134 160
1 134 160
2 134 160
3 134 160
0 135 160
1 135 160
2 135 160
3 135 160
0 136 160
1 136 160
2 136 160
3 136 160
0 137 160
1 137 160
2 137 160
3 137 160
0 138 160
1 138 160
2 138 160
3 138 160
0 139 160
1 139 160
2 139 160
3 139 160
0 140 160
1 140 160
2 140 160
3 140 160
0 141 160
1 141 160
2 141 160
3 141 160
0 142 160
1 142 160
2 142 160
3 142 160
0 143 160
1 143 160
2 143 160
3 143 160
0 144 160
1 144 160
2 144 160
3 144 160
0 145 160
1 145 160
2 145 160
3 145 160
0 146 160
1 146 160
2 146 160
3 146 160
0 147 160
1 147 160
2 147 160
3 147 160
0 148 160
1 148 160
2 148 160
3 148 160
0 149 160
1 149 160
2 149 160
3 149 160
0 150 160
1 150 160
2 150 160
3 150 160
0 151 160
1 151 160
2 151 160
3 151 160
0 152 160
1 152 160
2 152 160
3 152 160
0 153 160
1 153 160
2 153 160
3 153 160
0 154 160
1 154 160
2 154 160
3 154 160
0 155 160
1 155 160
2 155 160
3 155 160
0 156 160
1 156 160
2 156 160
3 156 160
0 157 160
1 157 160
2 157 160
3 157 160
0 158 160
1 158 160
2 158 160
3 158 160
0 159 160
1 159 160
2 159 160
3 159 160
0 160 160
1 160 160
2 160 160
3 160 160
0 161 160
1 161 160
2 161 160
3 161 160
0 162 160
1 162 160
2 162 160
3 162 160
0 163 160
1 163 160
2 163 160
3 163 160
0 164 160
1 164 160
2 164 160
3 164 160
0 165 160
1 165 160
2 165 160
3 165 160
0 166 160
1 166 160
2 166 160
3 166 160
0 167 160
1 167 160
2 167 160
3 167 160
0 168 160
1 168 160
2 168 160
3 168 160
0 169 160
1 169 160
2 169 160
3 169 160
0 170 160
1 170 160
2 170 160
3 170 160
0 171 160
1 171 160
2 171 160
3 171 160
0 172 160
1 172 160
2 172 160
3 172 160
0 173 160
1 173 160
2 173 160
3 173 160
0 174 160
1 174 160
2 174 160
3 174 160
0 175 160
1 175 160
2 175 160
3 175 160
0 176 160
1 176 160
2 176 160
3 176 160
0 177 160
1 177 160
2 177 160
3 177 160
0 178 160
1 178 160
2 178 160
3 178 160
0 179 160
1 179 160
2 179 160
3 179 160
0 180 160
1 180 160
2 180 160
3 180 160
0 181 160
1 181 160
2 181 160
3 181 160
0 182 160
1 182 160
2 182 160
3 182 160
0 183 160
1 183 160
2 183 160
3 183 160
0 184 160
1 184 160
2 184 160
3 184 160
0 185 160
1 185 160
2 185 160
3 185 160
0 186 160
1 186 160
2 186 160
3 186 160
0 187 160
1 187 160
2 187 160
3 187 160
0 188 160
1 188 160
2 188 160
3 188 160
0 189 160
1 189 160
2 189 160
3 189 160
0 190 160
1 190 160
2 190 160
3 190 160
0 191 160
1 191 160
2 191 160
3 191 160
0 192 160
1 192 160
2 192 160
3 192 160
0 193 160
1 193 160
2 193 160
3 193 160
0 194 160
1 194 160
2 194 160
3 194 160
0 195 160
1 195 160
2 195 160
3 195 160
0 196 160
1 196 160
2 196 160
3 196 160
0 197 160
1 197 160
2 197 160
3 197 160
0 198 160
1 198 160
2 198 160
3 198 160
0 199 160
1 199 160
2 199 160
3 199 160
0 132 161
1 132 161
2 132 161
3 132 161
0 133 161
1 133 161
2 133 161
3 133 161
0 134 161
1 134 161
2 134 161
3 134 161
0 135 161
1 135 161
2 135 161
3 135 161
0 136 161
1 136 161
2 136 161
3 136 161
0 137 161
1 137 161
2 137 161
3 137 161
0 138 161
1 138 161
2 138 161
3 138 161
0 139 161
1 139 161
2 139 161
3 139 161
0 140 161
1 140 161
2 140 161
3 140 161
0 141 161
1 141 161
2 141 161
3 141 161
0 142 161
1 142 161
2 142 161
3 142 161
0 143 161
1 143 161
2 143 161
3 143 161
0 144 161
1 144 161
2 144 161
3 144 161
0 145 161
1 145 161
2 145 161
3 145 161
0 146 161
1 146 161
2 146 161
3 146 161
0 147 161
1 147 161
2 147 161
3 147 161
0 148 161
1 148 161
2 148 161
3 148 161
0 149 161
1 149 161
2 149 161
3 149 161
0 150 161
1 150 161
2 150 161
3 150 161
0 151 161
1 151 161
2 151 161
3 151 161
0 152 161
1 152 161
2 152 161
3 152 161
0 153 161
1 153 161
2 153 161
3 153 161
0 154 161
1 154 161
2 154 161
3 154 161
0 155 161
1 155 161
2 155 161
3 155 161
0 156 161
1 156 161
2 156 161
3 156 161
0 157 161
1 157 161
2 157 161
3 157 161
0 158 161
1 158 161
2 158 161
3 158 161
0 159 161
1 159 161
2 159 161
3 159 161
0 160 161
1 160 161
2 160 161
3 160 161
0 161 161
1 161 161
2 161 161
3 161 161
0 162 161
1 162 161
2 162 161
3 162 161
0 163 161
1 163 161
2 163 161
3 163 161
0 164 161
1 164 161
2 164 161
3 164 161
0 165 161
1 165 161
2 165 161
3 165 161
0 166 161
1 166 161
2 166 161
3 166 161
0 167 161
1 167 161
2 167 161
3 167 161
0 168 161
1 168 161
2 168 161
3 168 161
0 169 161
1 169 161
2 169 161
3 169 161
0 170 161
1 170 161
2 170 161
3 170 161
0 171 161
1 171 161
2 171 161
3 171 161
0 172 161
1 172 161
2 172 161
3 172 161
0 173 161
1 173 161
2 173 161
3 173 161
0 174 161
1 174 161
2 174 161
3 174 161
0 175 161
1 175 161
2 175 161
3 175 161
0 176 161
1 176 161
2 176 161
3 176 161
0 177 161
1 177 161
2 177 161
3 177 161
0 178 161
1 178 161
2 178 161
3 178 161
0 179 161
1 179 161
2 179 161
3 179 161
0 180 161
1 180 161
2 180 161
3 180 161
0 181 161
1 181 161
2 181 161
3 181 161
0 182 161
1 182 161
2 182 161
3 182 161
0 183 161
1 183 161
2 183 161
3 183 161
0 184 161
1 184 161
2 184 161
3 184 161
0 185 161
1 185 161
2 185 161
3 185 161
0 186 161
1 186 161
2 186 161
3 186 161
0 187 161
1 187 161
2 187 161
3 187 161
0 188 161
1 188 161
2 188 161
3 188 161
0 189 161
1 189 161
2 189 161
3 189 161
0 190 161
1 190 161
2 190 161
3 190 161
0 191 161
1 191 161
2 191 161
3 191 161
0 192 161
1 192 161
2 192 161
3 192 161
0 193 161
1 193 161
2 193 161
3 193 161
0 194 161
1 194 161
2 194 161
3 194 161
0 195 161
1 195 161
2 195 161
3 195 161
0 196 161
1 196 161
2 196 161
3 196 161
0 197 161
1 197 161
2 197 161
3 197 161
0 198 161
1 198 161
2 198 161
3 198 161
0 199 161
1 199 161
2 199 161
3 199 161
0 132 162
1 132 162
2 132 162
3 132 162
0 133 162
1 133 162
2 133 162
3 133 162
0 134 162
1 134 162
2 134 162
3 134 162
0 135 162
1 135 162
2 135 162
3 135 162
0 136 162
1 136 162
2 136 162
3 136 162
0 137 162
1 137 162
2 137 162
3 137 162
0 138 162
1 138 162
2 138 162
3 138 162
0 139 162
1 139 162
2 139 162
3 139 162
0 140 162
1 140 162
2 140 162
3 140 162
0 141 162
1 141 162
2 141 162
3 141 162
0 142 162
1 142 162
2 142 162
3 142 162
0 143 162
1 143 162
2 143 162
3 143 162
0 144 162
1 144 162
2 144 162
3 144 162
0 145 162
1 145 162
2 145 162
3 145 162
0 146 162
1 146 162
2 146 162
3 146 162
0 147 162
1 147 162
2 147 162
3 147 162
0 148 162
1 148 162
2 148 162
3 148 162
0 149 162
1 149 162
2 149 162
3 149 162
0 150 162
1 150 162
2 150 162
3 150 162
0 151 162
1 151 162
2 151 162
3 151 162
0 152 162
1 152 162
2 152 162
3 152 162
0 153 162
1 153 162
2 153 162
3 153 162
0 154 162
1 154 162
2 154 162
3 154 162
0 155 162
1 155 162
2 155 162
3 155 162
0 156 162
1 156 162
2 156 162
3 156 162
0 157 162
1 157 162
2 157 162
3 157 162
0 158 162
1 158 162
2 158 162
3 158 162
0 159 162
1 159 162
2 159 162
3 159 162
0 160 162
1 160 162
2 160 162
3 160 162
0 161 162
1 161 162
2 161 162
3 161 162
0 162 162
1 162 162
2 162 162
3 162 162
0 163 162
1 163 162
2 163 162
3 163 162
0 164 162
1 164 162
2 164 162
3 164 162
0 165 162
1 165 162
2 165 162
3 165 162
0 166 162
1 166 162
2 166 162
3 166 162
0 167 162
1 167 162
2 167 162
3 167 162
0 168 162
1 168 162
2 168 162
3 168 162
0 169 162
1 169 162
2 169 162
3 169 162
0 170 162
1 170 162
2 170 162
3 170 162
0 171 162
1 171 162
2 171 162
3 171 162
0 172 162
1 172 162
2 172 162
3 172 162
0 173 162
1 173 162
2 173 162
3 173 162
0 174 162
1 174 162
2 174 162
3 174 162
0 175 162
1 175 162
2 175 162
3 175 162
0 176 162
1 176 162
2 176 162
3 176 162
0 177 162
1 177 162
2 177 162
3 177 162
0 178 162
1 178 162
2 178 162
3 178 162
0 179 162
1 179 162
2 179 162
3 179 162
0 180 162
1 180 162
2 180 162
3 180 162
0 181 162
1 181 162
2 181 162
3 181 162
0 182 162
1 182 162
2 182 162
3 182 162
0 183 162
1 183 162
2 183 162
3 183 162
0 184 162
1 184 162
2 184 162
3 184 162
0 185 162
1 185 162
2 185 162
3 185 162
0 186 162
1 186 162
2 186 162
3 186 162
0 187 162
1 187 162
2 187 162
3 187 162
0 188 162
1 188 162
2 188 162
3 188 162
0 189 162
1 189 162
2 189 162
3 189 162
0 190 162
1 190 162
2 190 162
3 190 162
0 191 162
1 191 162
2 191 162
3 191 162
0 192 162
1 192 162
2 192 162
3 192 162
0 193 162
1 193 162
2 193 162
3 193 162
0 194 162
1 194 162
2 194 162
3 194 162
0 195 162
1 195 162
2 195 162
3 195 162
0 196 162
1 196 162
2 196 162
3 196 162
0 197 162
1 197 162
2 197 162
3 197 162
0 198 162
1 198 162
2 198 162
3 198 162
0 199 162
1 199 162
2 199 162
3 199 162
0 132 163
1 132 163
2 132 163
3 132 163
0 133 163
1 133 163
2 133 163
3 133 163
0 134 163
1 134 163
2 134 163
3 134 163
0 135 163
1 135 163
2 135 163
3 135 163
0 136 163
1 136 163
2 136 163
3 136 163
0 137 163
1 137 163
2 137 163
3 137 163
0 138 163
1 138 163
2 138 163
3 138 163
0 139 163
1 139 163
2 139 163
3 139 163
0 140 163
1 140 163
2 140 163
3 140 163
0 141 163
1 141 163
2 141 163
3 141 163
0 142 163
1 142 163
2 142 163
3 142 163
0 143 163
1 143 163
2 143 163
3 143 163
0 144 163
1 144 163
2 144 163
3 144 163
0 145 163
1 145 163
2 145 163
3 145 163
0 146 163
1 146 163
2 146 163
3 146 163
0 147 163
1 147 163
2 147 163
3 147 163
0 148 163
1 148 163
2 148 163
3 148 163
0 149 163
1 149 163
2 149 163
3 149 163
0 150 163
1 150 163
2 150 163
3 150 163
0 151 163
1 151 163
2 151 163
3 151 163
0 152 163
1 152 163
2 152 163
3 152 163
0 153 163
1 153 163
2 153 163
3 153 163
0 154 163
1 154 163
2 154 163
3 154 163
0 155 163
1 155 163
2 155 163
3 155 163
0 156 163
1 156 163
2 156 163
3 156 163
0 157 163
1 157 163
2 157 163
3 157 163
0 158 163
1 158 163
2 158 163
3 158 163
0 159 163
1 159 163
2 159 163
3 159 163
0 160 163
1 160 163
2 160 163
3 160 163
0 161 163
1 161 163
2 161 163
3 161 163
0 162 163
1 162 163
2 162 163
3 162 163
0 163 163
1 163 163
2 163 163
3 163 163
0 164 163
1 164 163
2 164 163
3 164 163
0 165 163
1 165 163
2 165 163
3 165 163
0 166 163
1 166 163
2 166 163
3 166 163
0 167 163
1 167 163
2 167 163
3 167 163
0 168 163
1 168 163
2 168 163
3 168 163
0 169 163
1 169 163
2 169 163
3 169 163
0 170 163
1 170 163
2 170 163
3 170 163
0 171 163
1 171 163
2 171 163
3 171 163
0 172 163
1 172 163
2 172 163
3 172 163
0 173 163
1 173 163
2 173 163
3 173 163
0 174 163
1 174 163
2 174 163
3 174 163
0 175 163
1 175 163
2 175 163
3 175 163
0 176 163
1 176 163
2 176 163
3 176 163
0 177 163
1 177 163
2 177 163
3 177 163
0 178 163
1 178 163
2 178 163
3 178 163
0 179 163
1 179 163
2 179 163
3 179 163
0 180 163
1 180 163
2 180 163
3 180 163
0 181 163
1 181 163
2 181 163
3 181 163
0 182 163
1 182 163
2 182 163
3 182 163
0 183 163
1 183 163
2 183 163
3 183 163
0 184 163
1 184 163
2 184 163
3 184 163
0 185 163
1 185 163
2 185 163
3 185 163
0 186 163
1 186 163
2 186 163
3 186 163
0 187 163
1 187 163
2 187 163
3 187 163
0 188 163
1 188 163
2 188 163
3 188 163
0 189 163
1 189 163
2 189 163
3 189 163
0 190 163
1 190 163
2 190 163
3 190 163
0 191 163
1 191 163
2 191 163
3 191 163
0 192 163
1 192 163
2 192 163
3 192 163
0 193 163
1 193 163
2 193 163
3 193 163
0 194 163
1 194 163
2 194 163
3 194 163
0 195 163
1 195 163
2 195 163
3 195 163
0 196 163
1 196 163
2 196 163
3 196 163
0 197 163
1 197 163
2 197 163
3 197 163
0 198 163
1 198 163
2 198 163
3 198 163
0 199 163
1 199 163
2 199 163
3 199 163
0 132 164
1 132 164
2 132 164
3 132 164
0 133 164
1 133 164
2 133 164
3 133 164
0 134 164
1 134 164
2 134 164
3 134 164
0 135 164
1 135 164
2 135 164
3 135 164
0 136 164
1 136 164
2 136 164
3 136 164
0 137 164
1 137 164
2 137 164
3 137 164
0 138 164
1 138 164
2 138 164
3 138 164
0 139 164
1 139 164
2 139 164
3 139 164
0 140 164
1 140 164
2 140 164
3 140 164
0 141 164
1 141 164
2 141 164
3 141 164
0 142 164
1 142 164
2 142 164
3 142 164
0 143 164
1 143 164
2 143 164
3 143 164
0 144 164
1 144 164
2 144 164
3 144 164
0 145 164
1 145 164
2 145 164
3 145 164
0 146 164
1 146 164
2 146 164
3 146 164
0 147 164
1 147 164
2 147 164
3 147 164
0 148 164
1 148 164
2 148 164
3 148 164
0 149 164
1 149 164
2 149 164
3 149 164
0 150 164
1 150 164
2 150 164
3 150 164
0 151 164
1 151 164
2 151 164
3 151 164
0 152 164
1 152 164
2 152 164
3 152 164
0 153 164
1 153 164
2 153 164
3 153 164
0 154 164
1 154 164
2 154 164
3 154 164
0 155 164
1 155 164
2 155 164
3 155 164
0 156 164
1 156 164
2 156 164
3 156 164
0 157 164
1 157 164
2 157 164
3 157 164
0 158 164
1 158 164
2 158 164
3 158 164
0 159 164
1 159 164
2 159 164
3 159 164
0 160 164
1 160 164
2 160 164
3 160 164
0 161 164
1 161 164
2 161 164
3 161 164
0 162 164
1 162 164
2 162 164
3 162 164
0 163 164
1 163 164
2 163 164
3 163 164
0 164 164
1 164 164
2 164 164
3 164 164
0 165 164
1 165 164
2 165 164
3 165 164
0 166 164
1 166 164
2 166 164
3 166 164
0 167 164
1 167 164
2 167 164
3 167 164
0 168 164
1 168 164
2 168 164
3 168 164
0 169 164
1 169 164
2 169 164
3 169 164
0 170 164
1 170 164
2 170 164
3 170 164
0 171 164
1 171 164
2 171 164
3 171 164
0 172 164
1 172 164
2 172 164
3 172 164
0 173 164
1 173 164
2 173 164
3 173 164
0 174 164
1 174 164
2 174 164
3 174 164
0 175 164
1 175 164
2 175 164
3 175 164
0 176 164
1 176 164
2 176 164
3 176 164
0 177 164
1 177 164
2 177 164
3 177 164
0 178 164
1 178 164
2 178 164
3 178 164
0 179 164
1 179 164
2 179 164
3 179 164
0 180 164
1 180 164
2 180 164
3 180 164
0 181 164
1 181 164
2 181 164
3 181 164
0 182 164
1 182 164
2 182 164
3 182 164
0 183 164
1 183 164
2 183 164
3 183 164
0 184 164
1 184 164
2 184 164
3 184 164
0 185 164
1 185 164
2 185 164
3 185 164
0 186 164
1 186 164
2 186 164
3 186 164
0 187 164
1 187 164
2 187 164
3 187 164
0 188 164
1 188 164
2 188 164
3 188 164
0 189 164
1 189 164
2 189 164
3 189 164
0 190 164
1 190 164
2 190 164
3 190 164
0 191 164
1 191 164
2 191 164
3 191 164
0 192 164
1 192 164
2 192 164
3 192 164
0 193 164
1 193 164
2 193 164
3 193 164
0 194 164
1 194 164
2 194 164
3 194 164
0 195 164
1 195 164
2 195 164
3 195 164
0 196 164
1 196 164
2 196 164
3 196 164
0 197 164
1 197 164
2 197 164
3 197 164
0 198 164
1 198 164
2 198 164
3 198 164
0 199 164
1 199 164
2 199 164
3 199 164
0 132 165
1 132 165
2 132 165
3 132 165
0 133 165
1 133 165
2 133 165
3 133 165
0 134 165
1 134 165
2 134 165
3 134 165
0 135 165
1 135 165
2 135 165
3 135 165
0 136 165
1 136 165
2 136 165
3 136 165
0 137 165
1 137 165
2 137 165
3 137 165
0 138 165
1 138 165
2 138 165
3 138 165
0 139 165
1 139 165
2 139 165
3 139 165
0 140 165
1 140 165
2 140 165
3 140 165
0 141 165
1 141 165
2 141 165
3 141 165
0 142 165
1 142 165
2 142 165
3 142 165
0 143 165
1 143 165
2 143 165
3 143 165
0 144 165
1 144 165
2 144 165
3 144 165
0 145 165
1 145 165
2 145 165
3 145 165
0 146 165
1 146 165
2 146 165
3 146 165
0 147 165
1 147 165
2 147 165
3 147 165
0 148 165
1 148 165
2 148 165
3 148 165
0 149 165
1 149 165
2 149 165
3 149 165
0 150 165
1 150 165
2 150 165
3 150 165
0 151 165
1 151 165
2 151 165
3 151 165
0 152 165
1 152 165
2 152 165
3 152 165
0 153 165
1 153 165
2 153 165
3 153 165
0 154 165
1 154 165
2 154 165
3 154 165
0 155 165
1 155 165
2 155 165
3 155 165
0 156 165
1 156 165
2 156 165
3 156 165
0 157 165
1 157 165
2 157 165
3 157 165
0 158 165
1 158 165
2 158 165
3 158 165
0 159 165
1 159 165
2 159 165
3 159 165
0 160 165
1 160 165
2 160 165
3 160 165
0 161 165
1 161 165
2 161 165
3 161 165
0 162 165
1 162 165
2 162 165
3 162 165
0 163 165
1 163 165
2 163 165
3 163 165
0 164 165
1 164 165
2 164 165
3 164 165
0 165 165
1 165 165
2 165 165
3 165 165
0 166 165
1 166 165
2 166 165
3 166 165
0 167 165
1 167 165
2 167 165
3 167 165
0 168 165
1 168 165
2 168 165
3 168 165
0 169 165
1 169 165
2 169 165
3 169 165
0 170 165
1 170 165
2 170 165
3 170 165
0 171 165
1 171 165
2 171 165
3 171 165
0 172 165
1 172 165
2 172 165
3 172 165
0 173 165
1 173 165
2 173 165
3 173 165
0 174 165
1 174 165
2 174 165
3 174 165
0 175 165
1 175 165
2 175 165
3 175 165
0 176 165
1 176 165
2 176 165
3 176 165
0 177 165
1 177 165
2 177 165
3 177 165
0 178 165
1 178 165
2 178 165
3 178 165
0 179 165
1 179 165
2 179 165
3 179 165
0 180 165
1 180 165
2 180 165
3 180 165
0 181 165
1 181 165
2 181 165
3 181 165
0 182 165
1 182 165
2 182 165
3 182 165
0 183 165
1 183 165
2 183 165
3 183 165
0 184 165
1 184 165
2 184 165
3 184 165
0 185 165
1 185 165
2 185 165
3 185 165
0 186 165
1 186 165
2 186 165
3 186 165
0 187 165
1 187 165
2 187 165
3 187 165
0 188 165
1 188 165
2 188 165
3 188 165
0 189 165
1 189 165
2 189 165
3 189 165
0 190 165
1 190 165
2 190 165
3 190 165
0 191 165
1 191 165
2 191 165
3 191 165
0 192 165
1 192 165
2 192 165
3 192 165
0 193 165
1 193 165
2 193 165
3 193 165
0 194 165
1 194 165
2 194 165
3 194 165
0 195 165
1 195 165
2 195 165
3 195 165
0 196 165
1 196 165
2 196 165
3 196 165
0 197 165
1 197 165
2 197 165
3 197 165
0 198 165
1 198 165
2 198 165
3 198 165
0 199 165
1 199 165
2 199 165
3 199 165
0 132 166
1 132 166
2 132 166
3 132 166
0 133 166
1 133 166
2 133 166
3 133 166
0 134 166
1 134 166
2 134 166
3 134 166
0 135 166
1 135 166
2 135 166
3 135 166
0 136 166
1 136 166
2 136 166
3 136 166
0 137 166
1 137 166
2 137 166
3 137 166
0 138 166
1 138 166
2 138 166
3 138 166
0 139 166
1 139 166
2 139 166
3 139 166
0 140 166
1 140 166
2 140 166
3 140 166
0 141 166
1 141 166
2 141 166
3 141 166
0 142 166
1 142 166
2 142 166
3 142 166
0 143 166
1 143 166
2 143 166
3 143 166
0 144 166
1 144 166
2 144 166
3 144 166
0 145 166
1 145 166
2 145 166
3 145 166
0 146 166
1 146 166
2 146 166
3 146 166
0 147 166
1 147 166
2 147 166
3 147 166
0 148 166
1 148 166
2 148 166
3 148 166
0 149 166
1 149 166
2 149 166
3 149 166
0 150 166
1 150 166
2 150 166
3 150 166
0 151 166
1 151 166
2 151 166
3 151 166
0 152 166
1 152 166
2 152 166
3 152 166
0 153 166
1 153 166
2 153 166
3 153 166
0 154 166
1 154 166
2 154 166
3 154 166
0 155 166
1 155 166
2 155 166
3 155 166
0 156 166
1 156 166
2 156 166
3 156 166
0 157 166
1 157 166
2 157 166
3 157 166
0 158 166
1 158 166
2 158 166
3 158 166
0 159 166
1 159 166
2 159 166
3 159 166
0 160 166
1 160 166
2 160 166
3 160 166
0 161 166
1 161 166
2 161 166
3 161 166
0 162 166
1 162 166
2 162 166
3 162 166
0 163 166
1 163 166
2 163 166
3 163 166
0 164 166
1 164 166
2 164 166
3 164 166
0 165 166
1 165 166
2 165 166
3 165 166
0 166 166
1 166 166
2 166 166
3 166 166
0 167 166
1 167 166
2 167 166
3 167 166
0 168 166
1 168 166
2 168 166
3 168 166
0 169 166
1 169 166
2 169 166
3 169 166
0 170 166
1 170 166
2 170 166
3 170 166
0 171 166
1 171 166
2 171 166
3 171 166
0 172 166
1 172 166
2 172 166
3 172 166
0 173 166
1 173 166
2 173 166
3 173 166
0 174 166
1 174 166
2 174 166
3 174 166
0 175 166
1 175 166
2 175 166
3 175 166
0 176 166
1 176 166
2 176 166
3 176 166
0 177 166
1 177 166
2 177 166
3 177 166
0 178 166
1 178 166
2 178 166
3 178 166
0 179 166
1 179 166
2 179 166
3 179 166
0 180 166
1 180 166
2 180 166
3 180 166
0 181 166
1 181 166
2 181 166
3 181 166
0 182 166
1 182 166
2 182 166
3 182 166
0 183 166
1 183 166
2 183 166
3 183 166
0 184 166
1 184 166
2 184 166
3 184 166
0 185 166
1 185 166
2 185 166
3 185 166
0 186 166
1 186 166
2 186 166
3 186 166
0 187 166
1 187 166
2 187 166
3 187 166
0 188 166
1 188 166
2 188 166
3 188 166
0 189 166
1 189 166
2 189 166
3 189 166
0 190 166
1 190 166
2 190 166
3 190 166
0 191 166
1 191 166
2 191 166
3 191 166
0 192 166
1 192 166
2 192 166
3 192 166
0 193 166
1 193 166
2 193 166
3 193 166
0 194 166
1 194 166
2 194 166
3 194 166
0 195 166
1 195 166
2 195 166
3 195 166
0 196 166
1 196 166
2 196 166
3 196 166
0 197 166
1 197 166
2 197 166
3 197 166
0 198 166
1 198 166
2 198 166
3 198 166
0 199 166
1 199 166
2 199 166
3 199 166
0 132 167
1 132 167
2 132 167
3 132 167
0 133 167
1 133 167
2 133 167
3 133 167
0 134 167
1 134 167
2 134 167
3 134 167
0 135 167
1 135 167
2 135 167
3 135 167
0 136 167
1 136 167
2 136 167
3 136 167
0 137 167
1 137 167
2 137 167
3 137 167
0 138 167
1 138 167
2 138 167
3 138 167
0 139 167
1 139 167
2 139 167
3 139 167
0 140 167
1 140 167
2 140 167
3 140 167
0 141 167
1 141 167
2 141 167
3 141 167
0 142 167
1 142 167
2 142 167
3 142 167
0 143 167
1 143 167
2 143 167
3 143 167
0 144 167
1 144 167
2 144 167
3 144 167
0 145 167
1 145 167
2 145 167
3 145 167
0 146 167
1 146 167
2 146 167
3 146 167
0 147 167
1 147 167
2 147 167
3 147 167
0 148 167
1 148 167
2 148 167
3 148 167
0 149 167
1 149 167
2 149 167
3 149 167
0 150 167
1 150 167
2 150 167
3 150 167
0 151 167
1 151 167
2 151 167
3 151 167
0 152 167
1 152 167
2 152 167
3 152 167
0 153 167
1 153 167
2 153 167
3 153 167
0 154 167
1 154 167
2 154 167
3 154 167
0 155 167
1 155 167
2 155 167
3 155 167
0 156 167
1 156 167
2 156 167
3 156 167
0 157 167
1 157 167
2 157 167
3 157 167
0 158 167
1 158 167
2 158 167
3 158 167
0 159 167
1 159 167
2 159 167
3 159 167
0 160 167
1 160 167
2 160 167
3 160 167
0 161 167
1 161 167
2 161 167
3 161 167
0 162 167
1 162 167
2 162 167
3 162 167
0 163 167
1 163 167
2 163 167
3 163 167
0 164 167
1 164 167
2 164 167
3 164 167
0 165 167
1 165 167
2 165 167
3 165 167
0 166 167
1 166 167
2 166 167
3 166 167
0 167 167
1 167 167
2 167 167
3 167 167
0 168 167
1 168 167
2 168 167
3 168 167
0 169 167
1 169 167
2 169 167
3 169 167
0 170 167
1 170 167
2 170 167
3 170 167
0 171 167
1 171 167
2 171 167
3 171 167
0 172 167
1 172 167
2 172 167
3 172 167
0 173 167
1 173 167
2 173 167
3 173 167
0 174 167
1 174 167
2 174 167
3 174 167
0 175 167
1 175 167
2 175 167
3 175 167
0 176 167
1 176 167
2 176 167
3 176 167
0 177 167
1 177 167
2 177 167
3 177 167
0 178 167
1 178 167
2 178 167
3 178 167
0 179 167
1 179 167
2 179 167
3 179 167
0 180 167
1 180 167
2 180 167
3 180 167
0 181 167
1 181 167
2 181 167
3 181 167
0 182 167
1 182 167
2 182 167
3 182 167
0 183 167
1 183 167
2 183 167
3 183 167
0 184 167
1 184 167
2 184 167
3 184 167
0 185 167
1 185 167
2 185 167
3 185 167
0 186 167
1 186 167
2 186 167
3 186 167
0 187 167
1 187 167
2 187 167
3 187 167
0 188 167
1 188 167
2 188 167
3 188 167
0 189 167
1 189 167
2 189 167
3 189 167
0 190 167
1 190 167
2 190 167
3 190 167
0 191 167
1 191 167
2 191 167
3 191 167
0 192 167
1 192 167
2 192 167
3 192 167
0 193 167
1 193 167
2 193 167
3 193 167
0 194 167
1 194 167
2 194 167
3 194 167
0 195 167
1 195 167
2 195 167
3 195 167
0 196 167
1 196 167
2 196 167
3 196 167
0 197 167
1 197 167
2 197 167
3 197 167
0 198 167
1 198 167
2 198 167
3 198 167
0 199 167
1 199 167
2 199 167
3 199 167
0 132 168
1 132 168
2 132 168
3 132 168
0 133 168
1 133 168
2 133 168
3 133 168
0 134 168
1 134 168
2 134 168
3 134 168
0 135 168
1 135 168
2 135 168
3 135 168
0 136 168
1 136 168
2 136 168
3 136 168
0 137 168
1 137 168
2 137 168
3 137 168
0 138 168
1 138 168
2 138 168
3 138 168
0 139 168
1 139 168
2 139 168
3 139 168
0 140 168
1 140 168
2 140 168
3 140 168
0 141 168
1 141 168
2 141 168
3 141 168
0 142 168
1 142 168
2 142 168
3 142 168
0 143 168
1 143 168
2 143 168
3 143 168
0 144 168
1 144 168
2 144 168
3 144 168
0 145 168
1 145 168
2 145 168
3 145 168
0 146 168
1 146 168
2 146 168
3 146 168
0 147 168
1 147 168
2 147 168
3 147 168
0 148 168
1 148 168
2 148 168
3 148 168
0 149 168
1 149 168
2 149 168
3 149 168
0 150 168
1 150 168
2 150 168
3 150 168
0 151 168
1 151 168
2 151 168
3 151 168
0 152 168
1 152 168
2 152 168
3 152 168
0 153 168
1 153 168
2 153 168
3 153 168
0 154 168
1 154 168
2 154 168
3 154 168
0 155 168
1 155 168
2 155 168
3 155 168
0 156 168
1 156 168
2 156 168
3 156 168
0 157 168
1 157 168
2 157 168
3 157 168
0 158 168
1 158 168
2 158 168
3 158 168
0 159 168
1 159 168
2 159 168
3 159 168
0 160 168
1 160 168
2 160 168
3 160 168
0 161 168
1 161 168
2 161 168
3 161 168
0 162 168
1 162 168
2 162 168
3 162 168
0 163 168
1 163 168
2 163 168
3 163 168
0 164 168
1 164 168
2 164 168
3 164 168
0 165 168
1 165 168
2 165 168
3 165 168
0 166 168
1 166 168
2 166 168
3 166 168
0 167 168
1 167 168
2 167 168
3 167 168
0 168 168
1 168 168
2 168 168
3 168 168
0 169 168
1 169 168
2 169 168
3 169 168
0 170 168
1 170 168
2 170 168
3 170 168
0 171 168
1 171 168
2 171 168
3 171 168
0 172 168
1 172 168
2 172 168
3 172 168
0 173 168
1 173 168
2 173 168
3 173 168
0 174 168
1 174 168
2 174 168
3 174 168
0 175 168
1 175 168
2 175 168
3 175 168
0 176 168
1 176 168
2 176 168
3 176 168
0 177 168
1 177 168
2 177 168
3 177 168
0 178 168
1 178 168
2 178 168
3 178 168
0 179 168
1 179 168
2 179 168
3 179 168
0 180 168
1 180 168
2 180 168
3 180 168
0 181 168
1 181 168
2 181 168
3 181 168
0 182 168
1 182 168
2 182 168
3 182 168
0 183 168
1 183 168
2 183 168
3 183 168
0 184 168
1 184 168
2 184 168
3 184 168
0 185 168
1 185 168
2 185 168
3 185 168
0 186 168
1 186 168
2 186 168
3 186 168
0 187 168
1 187 168
2 187 168
3 187 168
0 188 168
1 188 168
2 188 168
3 188 168
0 189 168
1 189 168
2 189 168
3 189 168
0 190 168
1 190 168
2 190 168
3 190 168
0 191 168
1 191 168
2 191 168
3 191 168
0 192 168
1 192 168
2 192 168
3 192 168
0 193 168
1 193 168
2 193 168
3 193 168
0 194 168
1 194 168
2 194 168
3 194 168
0 195 168
1 195 168
2 195 168
3 195 168
0 196 168
1 196 168
2 196 168
3 196 168
0 197 168
1 197 168
2 197 168
3 197 168
0 198 168
1 198 168
2 198 168
3 198 168
0 199 168
1 199 168
2 199 168
3 199 168
0 132 169
1 132 169
2 132 169
3 132 169
0 133 169
1 133 169
2 133 169
3 133 169
0 134 169
1 134 169
2 134 169
3 134 169
0 135 169
1 135 169
2 135 169
3 135 169
0 136 169
1 136 169
2 136 169
3 136 169
0 137 169
1 137 169
2 137 169
3 137 169
0 138 169
1 138 169
2 138 169
3 138 169
0 139 169
1 139 169
2 139 169
3 139 169
0 140 169
1 140 169
2 140 169
3 140 169
0 141 169
1 141 169
2 141 169
3 141 169
0 142 169
1 142 169
2 142 169
3 142 169
0 143 169
1 143 169
2 143 169
3 143 169
0 144 169
1 144 169
2 144 169
3 144 169
0 145 169
1 145 169
2 145 169
3 145 169
0 146 169
1 146 169
2 146 169
3 146 169
0 147 169
1 147 169
2 147 169
3 147 169
0 148 169
1 148 169
2 148 169
3 148 169
0 149 169
1 149 169
2 149 169
3 149 169
0 150 169
1 150 169
2 150 169
3 150 169
0 151 169
1 151 169
2 151 169
3 151 169
0 152 169
1 152 169
2 152 169
3 152 169
0 153 169
1 153 169
2 153 169
3 153 169
0 154 169
1 154 169
2 154 169
3 154 169
0 155 169
1 155 169
2 155 169
3 155 169
0 156 169
1 156 169
2 156 169
3 156 169
0 157 169
1 157 169
2 157 169
3 157 169
0 158 169
1 158 169
2 158 169
3 158 169
0 159 169
1 159 169
2 159 169
3 159 169
0 160 169
1 160 169
2 160 169
3 160 169
0 161 169
1 161 169
2 161 169
3 161 169
0 162 169
1 162 169
2 162 169
3 162 169
0 163 169
1 163 169
2 163 169
3 163 169
0 164 169
1 164 169
2 164 169
3 164 169
0 165 169
1 165 169
2 165 169
3 165 169
0 166 169
1 166 169
2 166 169
3 166 169
0 167 169
1 167 169
2 167 169
3 167 169
0 168 169
1 168 169
2 168 169
3 168 169
0 169 169
1 169 169
2 169 169
3 169 169
0 170 169
1 170 169
2 170 169
3 170 169
0 171 169
1 171 169
2 171 169
3 171 169
0 172 169
1 172 169
2 172 169
3 172 169
0 173 169
1 173 169
2 173 169
3 173 169
0 174 169
1 174 169
2 174 169
3 174 169
0 175 169
1 175 169
2 175 169
3 175 169
0 176 169
1 176 169
2 176 169
3 176 169
0 177 169
1 177 169
2 177 169
3 177 169
0 178 169
1 178 169
2 178 169
3 178 169
0 179 169
1 179 169
2 179 169
3 179 169
0 180 169
1 180 169
2 180 169
3 180 169
0 181 169
1 181 169
2 181 169
3 181 169
0 182 169
1 182 169
2 182 169
3 182 169
0 183 169
1 183 169
2 183 169
3 183 169
0 184 169
1 184 169
2 184 169
3 184 169
0 185 169
1 185 169
2 185 169
3 185 169
0 186 169
1 186 169
2 186 169
3 186 169
0 187 169
1 187 169
2 187 169
3 187 169
0 188 169
1 188 169
2 188 169
3 188 169
0 189 169
1 189 169
2 189 169
3 189 169
0 190 169
1 190 169
2 190 169
3 190 169
0 191 169
1 191 169
2 191 169
3 191 169
0 192 169
1 192 169
2 192 169
3 192 169
0 193 169
1 193 169
2 193 169
3 193 169
0 194 169
1 194 169
2 194 169
3 194 169
0 195 169
1 195 169
2 195 169
3 195 169
0 196 169
1 196 169
2 196 169
3 196 169
0 197 169
1 197 169
2 197 169
3 197 169
0 198 169
1 198 169
2 198 169
3 198 169
0 199 169
1 199 169
2 199 169
3 199 169
0 132 170
1 132 170
2 132 170
3 132 170
0 133 170
1 133 170
2 133 170
3 133 170
0 134 170
1 134 170
2 134 170
3 134 170
0 135 170
1 135 170
2 135 170
3 135 170
0 136 170
1 136 170
2 136 170
3 136 170
0 137 170
1 137 170
2 137 170
3 137 170
0 138 170
1 138 170
2 138 170
3 138 170
0 139 170
1 139 170
2 139 170
3 139 170
0 140 170
1 140 170
2 140 170
3 140 170
0 141 170
1 141 170
2 141 170
3 141 170
0 142 170
1 142 170
2 142 170
3 142 170
0 143 170
1 143 170
2 143 170
3 143 170
0 144 170
1 144 170
2 144 170
3 144 170
0 145 170
1 145 170
2 145 170
3 145 170
0 146 170
1 146 170
2 146 170
3 146 170
0 147 170
1 147 170
2 147 170
3 147 170
0 148 170
1 148 170
2 148 170
3 148 170
0 149 170
1 149 170
2 149 170
3 149 170
0 150 170
1 150 170
2 150 170
3 150 170
0 151 170
1 151 170
2 151 170
3 151 170
0 152 170
1 152 170
2 152 170
3 152 170
0 153 170
1 153 170
2 153 170
3 153 170
0 154 170
1 154 170
2 154 170
3 154 170
0 155 170
1 155 170
2 155 170
3 155 170
0 156 170
1 156 170
2 156 170
3 156 170
0 157 170
1 157 170
2 157 170
3 157 170
0 158 170
1 158 170
2 158 170
3 158 170
0 159 170
1 159 170
2 159 170
3 159 170
0 160 170
1 160 170
2 160 170
3 160 170
0 161 170
1 161 170
2 161 170
3 161 170
0 162 170
1 162 170
2 162 170
3 162 170
0 163 170
1 163 170
2 163 170
3 163 170
0 164 170
1 164 170
2 164 170
3 164 170
0 165 170
1 165 170
2 165 170
3 165 170
0 166 170
1 166 170
2 166 170
3 166 170
0 167 170
1 167 170
2 167 170
3 167 170
0 168 170
1 168 170
2 168 170
3 168 170
0 169 170
1 169 170
2 169 170
3 169 170
0 170 170
1 170 170
2 170 170
3 170 170
0 171 170
1 171 170
2 171 170
3 171 170
0 172 170
1 172 170
2 172 170
3 172 170
0 173 170
1 173 170
2 173 170
3 173 170
0 174 170
1 174 170
2 174 170
3 174 170
0 175 170
1 175 170
2 175 170
3 175 170
0 176 170
1 176 170
2 176 170
3 176 170
0 177 170
1 177 170
2 177 170
3 177 170
0 178 170
1 178 170
2 178 170
3 178 170
0 179 170
1 179 170
2 179 170
3 179 170
0 180 170
1 180 170
2 180 170
3 180 170
0 181 170
1 181 170
2 181 170
3 181 170
0 182 170
1 182 170
2 182 170
3 182 170
0 183 170
1 183 170
2 183 170
3 183 170
0 184 170
1 184 170
2 184 170
3 184 170
0 185 170
1 185 170
2 185 170
3 185 170
0 186 170
1 186 170
2 186 170
3 186 170
0 187 170
1 187 170
2 187 170
3 187 170
0 188 170
1 188 170
2 188 170
3 188 170
0 189 170
1 189 170
2 189 170
3 189 170
0 190 170
1 190 170
2 190 170
3 190 170
0 191 170
1 191 170
2 191 170
3 191 170
0 192 170
1 192 170
2 192 170
3 192 170
0 193 170
1 193 170
2 193 170
3 193 170
0 194 170
1 194 170
2 194 170
3 194 170
0 195 170
1 195 170
2 195 170
3 195 170
0 196 170
1 196 170
2 196 170
3 196 170
0 197 170
1 197 170
2 197 170
3 197 170
0 198 170
1 198 170
2 198 170
3 198 170
0 199 170
1 199 170
2 199 170
3 199 170
0 132 171
1 132 171
2 132 171
3 132 171
0 133 171
1 133 171
2 133 171
3 133 171
0 134 171
1 134 171
2 134 171
3 134 171
0 135 171
1 135 171
2 135 171
3 135 171
0 136 171
1 136 171
2 136 171
3 136 171
0 137 171
1 137 171
2 137 171
3 137 171
0 138 171
1 138 171
2 138 171
3 138 171
0 139 171
1 139 171
2 139 171
3 139 171
0 140 171
1 140 171
2 140 171
3 140 171
0 141 171
1 141 171
2 141 171
3 141 171
0 142 171
1 142 171
2 142 171
3 142 171
0 143 171
1 143 171
2 143 171
3 143 171
0 144 171
1 144 171
2 144 171
3 144 171
0 145 171
1 145 171
2 145 171
3 145 171
0 146 171
1 146 171
2 146 171
3 146 171
0 147 171
1 147 171
2 147 171
3 147 171
0 148 171
1 148 171
2 148 171
3 148 171
0 149 171
1 149 171
2 149 171
3 149 171
0 150 171
1 150 171
2 150 171
3 150 171
0 151 171
1 151 171
2 151 171
3 151 171
0 152 171
1 152 171
2 152 171
3 152 171
0 153 171
1 153 171
2 153 171
3 153 171
0 154 171
1 154 171
2 154 171
3 154 171
0 155 171
1 155 171
2 155 171
3 155 171
0 156 171
1 156 171
2 156 171
3 156 171
0 157 171
1 157 171
2 157 171
3 157 171
0 158 171
1 158 171
2 158 171
3 158 171
0 159 171
1 159 171
2 159 171
3 159 171
0 160 171
1 160 171
2 160 171
3 160 171
0 161 171
1 161 171
2 161 171
3 161 171
0 162 171
1 162 171
2 162 171
3 162 171
0 163 171
1 163 171
2 163 171
3 163 171
0 164 171
1 164 171
2 164 171
3 164 171
0 165 171
1 165 171
2 165 171
3 165 171
0 166 171
1 166 171
2 166 171
3 166 171
0 167 171
1 167 171
2 167 171
3 167 171
0 168 171
1 168 171
2 168 171
3 168 171
0 169 171
1 169 171
2 169 171
3 169 171
0 170 171
1 170 171
2 170 171
3 170 171
0 171 171
1 171 171
2 171 171
3 171 171
0 172 171
1 172 171
2 172 171
3 172 171
0 173 171
1 173 171
2 173 171
3 173 171
0 174 171
1 174 171
2 174 171
3 174 171
0 175 171
1 175 171
2 175 171
3 175 171
0 176 171
1 176 171
2 176 171
3 176 171
0 177 171
1 177 171
2 177 171
3 177 171
0 178 171
1 178 171
2 178 171
3 178 171
0 179 171
1 179 171
2 179 171
3 179 171
0 180 171
1 180 171
2 180 171
3 180 171
0 181 171
1 181 171
2 181 171
3 181 171
0 182 171
1 182 171
2 182 171
3 182 171
0 183 171
1 183 171
2 183 171
3 183 171
0 184 171
1 184 171
2 184 171
3 184 171
0 185 171
1 185 171
2 185 171
3 185 171
0 186 171
1 186 171
2 186 171
3 186 171
0 187 171
1 187 171
2 187 171
3 187 171
0 188 171
1 188 171
2 188 171
3 188 171
0 189 171
1 189 171
2 189 171
3 189 171
0 190 171
1 190 171
2 190 171
3 190 171
0 191 171
1 191 171
2 191 171
3 191 171
0 192 171
1 192 171
2 192 171
3 192 171
0 193 171
1 193 171
2 193 171
3 193 171
0 194 171
1 194 171
2 194 171
3 194 171
0 195 171
1 195 171
2 195 171
3 195 171
0 196 171
1 196 171
2 196 171
3 196 171
0 197 171
1 197 171
2 197 171
3 197 171
0 198 171
1 198 171
2 198 171
3 198 171
0 199 171
1 199 171
2 199 171
3 199 171
0 132 172
1 132 172
2 132 172
3 132 172
0 133 172
1 133 172
2 133 172
3 133 172
0 134 172
1 134 172
2 134 172
3 134 172
0 135 172
1 135 172
2 135 172
3 135 172
0 136 172
1 136 172
2 136 172
3 136 172
0 137 172
1 137 172
2 137 172
3 137 172
0 138 172
1 138 172
2 138 172
3 138 172
0 139 172
1 139 172
2 139 172
3 139 172
0 140 172
1 140 172
2 140 172
3 140 172
0 141 172
1 141 172
2 141 172
3 141 172
0 142 172
1 142 172
2 142 172
3 142 172
0 143 172
1 143 172
2 143 172
3 143 172
0 144 172
1 144 172
2 144 172
3 144 172
0 145 172
1 145 172
2 145 172
3 145 172
0 146 172
1 146 172
2 146 172
3 146 172
0 147 172
1 147 172
2 147 172
3 147 172
0 148 172
1 148 172
2 148 172
3 148 172
0 149 172
1 149 172
2 149 172
3 149 172
0 150 172
1 150 172
2 150 172
3 150 172
0 151 172
1 151 172
2 151 172
3 151 172
0 152 172
1 152 172
2 152 172
3 152 172
0 153 172
1 153 172
2 153 172
3 153 172
0 154 172
1 154 172
2 154 172
3 154 172
0 155 172
1 155 172
2 155 172
3 155 172
0 156 172
1 156 172
2 156 172
3 156 172
0 157 172
1 157 172
2 157 172
3 157 172
0 158 172
1 158 172
2 158 172
3 158 172
0 159 172
1 159 172
2 159 172
3 159 172
0 160 172
1 160 172
2 160 172
3 160 172
0 161 172
1 161 172
2 161 172
3 161 172
0 162 172
1 162 172
2 162 172
3 162 172
0 163 172
1 163 172
2 163 172
3 163 172
0 164 172
1 164 172
2 164 172
3 164 172
0 165 172
1 165 172
2 165 172
3 165 172
0 166 172
1 166 172
2 166 172
3 166 172
0 167 172
1 167 172
2 167 172
3 167 172
0 168 172
1 168 172
2 168 172
3 168 172
0 169 172
1 169 172
2 169 172
3 169 172
0 170 172
1 170 172
2 170 172
3 170 172
0 171 172
1 171 172
2 171 172
3 171 172
0 172 172
1 172 172
2 172 172
3 172 172
0 173 172
1 173 172
2 173 172
3 173 172
0 174 172
1 174 172
2 174 172
3 174 172
0 175 172
1 175 172
2 175 172
3 175 172
0 176 172
1 176 172
2 176 172
3 176 172
0 177 172
1 177 172
2 177 172
3 177 172
0 178 172
1 178 172
2 178 172
3 178 172
0 179 172
1 179 172
2 179 172
3 179 172
0 180 172
1 180 172
2 180 172
3 180 172
0 181 172
1 181 172
2 181 172
3 181 172
0 182 172
1 182 172
2 182 172
3 182 172
0 183 172
1 183 172
2 183 172
3 183 172
0 184 172
1 184 172
2 184 172
3 184 172
0 185 172
1 185 172
2 185 172
3 185 172
0 186 172
1 186 172
2 186 172
3 186 172
0 187 172
1 187 172
2 187 172
3 187 172
0 188 172
1 188 172
2 188 172
3 188 172
0 189 172
1 189 172
2 189 172
3 189 172
0 190 172
1 190 172
2 190 172
3 190 172
0 191 172
1 191 172
2 191 172
3 191 172
0 192 172
1 192 172
2 192 172
3 192 172
0 193 172
1 193 172
2 193 172
3 193 172
0 194 172
1 194 172
2 194 172
3 194 172
0 195 172
1 195 172
2 195 172
3 195 172
0 196 172
1 196 172
2 196 172
3 196 172
0 197 172
1 197 172
2 197 172
3 197 172
0 198 172
1 198 172
2 198 172
3 198 172
0 199 172
1 199 172
2 199 172
3 199 172
0 132 173
1 132 173
2 132 173
3 132 173
0 133 173
1 133 173
2 133 173
3 133 173
0 134 173
1 134 173
2 134 173
3 134 173
0 135 173
1 135 173
2 135 173
3 135 173
0 136 173
1 136 173
2 136 173
3 136 173
0 137 173
1 137 173
2 137 173
3 137 173
0 138 173
1 138 173
2 138 173
3 138 173
0 139 173
1 139 173
2 139 173
3 139 173
0 140 173
1 140 173
2 140 173
3 140 173
0 141 173
1 141 173
2 141 173
3 141 173
0 142 173
1 142 173
2 142 173
3 142 173
0 143 173
1 143 173
2 143 173
3 143 173
0 144 173
1 144 173
2 144 173
3 144 173
0 145 173
1 145 173
2 145 173
3 145 173
0 146 173
1 146 173
2 146 173
3 146 173
0 147 173
1 147 173
2 147 173
3 147 173
0 148 173
1 148 173
2 148 173
3 148 173
0 149 173
1 149 173
2 149 173
3 149 173
0 150 173
1 150 173
2 150 173
3 150 173
0 151 173
1 151 173
2 151 173
3 151 173
0 152 173
1 152 173
2 152 173
3 152 173
0 153 173
1 153 173
2 153 173
3 153 173
0 154 173
1 154 173
2 154 173
3 154 173
0 155 173
1 155 173
2 155 173
3 155 173
0 156 173
1 156 173
2 156 173
3 156 173
0 157 173
1 157 173
2 157 173
3 157 173
0 158 173
1 158 173
2 158 173
3 158 173
0 159 173
1 159 173
2 159 173
3 159 173
0 160 173
1 160 173
2 160 173
3 160 173
0 161 173
1 161 173
2 161 173
3 161 173
0 162 173
1 162 173
2 162 173
3 162 173
0 163 173
1 163 173
2 163 173
3 163 173
0 164 173
1 164 173
2 164 173
3 164 173
0 165 173
1 165 173
2 165 173
3 165 173
0 166 173
1 166 173
2 166 173
3 166 173
0 167 173
1 167 173
2 167 173
3 167 173
0 168 173
1 168 173
2 168 173
3 168 173
0 169 173
1 169 173
2 169 173
3 169 173
0 170 173
1 170 173
2 170 173
3 170 173
0 171 173
1 171 173
2 171 173
3 171 173
0 172 173
1 172 173
2 172 173
3 172 173
0 173 173
1 173 173
2 173 173
3 173 173
0 174 173
1 174 173
2 174 173
3 174 173
0 175 173
1 175 173
2 175 173
3 175 173
0 176 173
1 176 173
2 176 173
3 176 173
0 177 173
1 177 173
2 177 173
3 177 173
0 178 173
1 178 173
2 178 173
3 178 173
0 179 173
1 179 173
2 179 173
3 179 173
0 180 173
1 180 173
2 180 173
3 180 173
0 181 173
1 181 173
2 181 173
3 181 173
0 182 173
1 182 173
2 182 173
3 182 173
0 183 173
1 183 173
2 183 173
3 183 173
0 184 173
1 184 173
2 184 173
3 184 173
0 185 173
1 185 173
2 185 173
3 185 173
0 186 173
1 186 173
2 186 173
3 186 173
0 187 173
1 187 173
2 187 173
3 187 173
0 188 173
1 188 173
2 188 173
3 188 173
0 189 173
1 189 173
2 189 173
3 189 173
0 190 173
1 190 173
2 190 173
3 190 173
0 191 173
1 191 173
2 191 173
3 191 173
0 192 173
1 192 173
2 192 173
3 192 173
0 193 173
1 193 173
2 193 173
3 193 173
0 194 173
1 194 173
2 194 173
3 194 173
0 195 173
1 195 173
2 195 173
3 195 173
0 196 173
1 196 173
2 196 173
3 196 173
0 197 173
1 197 173
2 197 173
3 197 173
0 198 173
1 198 173
2 198 173
3 198 173
0 199 173
1 199 173
2 199 173
3 199 173
0 132 174
1 132 174
2 132 174
3 132 174
0 133 174
1 133 174
2 133 174
3 133 174
0 134 174
1 134 174
2 134 174
3 134 174
0 135 174
1 135 174
2 135 174
3 135 174
0 136 174
1 136 174
2 136 174
3 136 174
0 137 174
1 137 174
2 137 174
3 137 174
0 138 174
1 138 174
2 138 174
3 138 174
0 139 174
1 139 174
2 139 174
3 139 174
0 140 174
1 140 174
2 140 174
3 140 174
0 141 174
1 141 174
2 141 174
3 141 174
0 142 174
1 142 174
2 142 174
3 142 174
0 143 174
1 143 174
2 143 174
3 143 174
0 144 174
1 144 174
2 144 174
3 144 174
0 145 174
1 145 174
2 145 174
3 145 174
0 146 174
1 146 174
2 146 174
3 146 174
0 147 174
1 147 174
2 147 174
3 147 174
0 148 174
1 148 174
2 148 174
3 148 174
0 149 174
1 149 174
2 149 174
3 149 174
0 150 174
1 150 174
2 150 174
3 150 174
0 151 174
1 151 174
2 151 174
3 151 174
0 152 174
1 152 174
2 152 174
3 152 174
0 153 174
1 153 174
2 153 174
3 153 174
0 154 174
1 154 174
2 154 174
3 154 174
0 155 174
1 155 174
2 155 174
3 155 174
0 156 174
1 156 174
2 156 174
3 156 174
0 157 174
1 157 174
2 157 174
3 157 174
0 158 174
1 158 174
2 158 174
3 158 174
0 159 174
1 159 174
2 159 174
3 159 174
0 160 174
1 160 174
2 160 174
3 160 174
0 161 174
1 161 174
2 161 174
3 161 174
0 162 174
1 162 174
2 162 174
3 162 174
0 163 174
1 163 174
2 163 174
3 163 174
0 164 174
1 164 174
2 164 174
3 164 174
0 165 174
1 165 174
2 165 174
3 165 174
0 166 174
1 166 174
2 166 174
3 166 174
0 167 174
1 167 174
2 167 174
3 167 174
0 168 174
1 168 174
2 168 174
3 168 174
0 169 174
1 169 174
2 169 174
3 169 174
0 170 174
1 170 174
2 170 174
3 170 174
0 171 174
1 171 174
2 171 174
3 171 174
0 172 174
1 172 174
2 172 174
3 172 174
0 173 174
1 173 174
2 173 174
3 173 174
0 174 174
1 174 174
2 174 174
3 174 174
0 175 174
1 175 174
2 175 174
3 175 174
0 176 174
1 176 174
2 176 174
3 176 174
0 177 174
1 177 174
2 177 174
3 177 174
0 178 174
1 178 174
2 178 174
3 178 174
0 179 174
1 179 174
2 179 174
3 179 174
0 180 174
1 180 174
2 180 174
3 180 174
0 181 174
1 181 174
2 181 174
3 181 174
0 182 174
1 182 174
2 182 174
3 182 174
0 183 174
1 183 174
2 183 174
3 183 174
0 184 174
1 184 174
2 184 174
3 184 174
0 185 174
1 185 174
2 185 174
3 185 174
0 186 174
1 186 174
2 186 174
3 186 174
0 187 174
1 187 174
2 187 174
3 187 174
0 188 174
1 188 174
2 188 174
3 188 174
0 189 174
1 189 174
2 189 174
3 189 174
0 190 174
1 190 174
2 190 174
3 190 174
0 191 174
1 191 174
2 191 174
3 191 174
0 192 174
1 192 174
2 192 174
3 192 174
0 193 174
1 193 174
2 193 174
3 193 174
0 194 174
1 194 174
2 194 174
3 194 174
0 195 174
1 195 174
2 195 174
3 195 174
0 196 174
1 196 174
2 196 174
3 196 174
0 197 174
1 197 174
2 197 174
3 197 174
0 198 174
1 198 174
2 198 174
3 198 174
0 199 174
1 199 174
2 199 174
3 199 174
0 132 175
1 132 175
2 132 175
3 132 175
0 133 175
1 133 175
2 133 175
3 133 175
0 134 175
1 134 175
2 134 175
3 134 175
0 135 175
1 135 175
2 135 175
3 135 175
0 136 175
1 136 175
2 136 175
3 136 175
0 137 175
1 137 175
2 137 175
3 137 175
0 138 175
1 138 175
2 138 175
3 138 175
0 139 175
1 139 175
2 139 175
3 139 175
0 140 175
1 140 175
2 140 175
3 140 175
0 141 175
1 141 175
2 141 175
3 141 175
0 142 175
1 142 175
2 142 175
3 142 175
0 143 175
1 143 175
2 143 175
3 143 175
0 144 175
1 144 175
2 144 175
3 144 175
0 145 175
1 145 175
2 145 175
3 145 175
0 146 175
1 146 175
2 146 175
3 146 175
0 147 175
1 147 175
2 147 175
3 147 175
0 148 175
1 148 175
2 148 175
3 148 175
0 149 175
1 149 175
2 149 175
3 149 175
0 150 175
1 150 175
2 150 175
3 150 175
0 151 175
1 151 175
2 151 175
3 151 175
0 152 175
1 152 175
2 152 175
3 152 175
0 153 175
1 153 175
2 153 175
3 153 175
0 154 175
1 154 175
2 154 175
3 154 175
0 155 175
1 155 175
2 155 175
3 155 175
0 156 175
1 156 175
2 156 175
3 156 175
0 157 175
1 157 175
2 157 175
3 157 175
0 158 175
1 158 175
2 158 175
3 158 175
0 159 175
1 159 175
2 159 175
3 159 175
0 160 175
1 160 175
2 160 175
3 160 175
0 161 175
1 161 175
2 161 175
3 161 175
0 162 175
1 162 175
2 162 175
3 162 175
0 163 175
1 163 175
2 163 175
3 163 175
0 164 175
1 164 175
2 164 175
3 164 175
0 165 175
1 165 175
2 165 175
3 165 175
0 166 175
1 166 175
2 166 175
3 166 175
0 167 175
1 167 175
2 167 175
3 167 175
0 168 175
1 168 175
2 168 175
3 168 175
0 169 175
1 169 175
2 169 175
3 169 175
0 170 175
1 170 175
2 170 175
3 170 175
0 171 175
1 171 175
2 171 175
3 171 175
0 172 175
1 172 175
2 172 175
3 172 175
0 173 175
1 173 175
2 173 175
3 173 175
0 174 175
1 174 175
2 174 175
3 174 175
0 175 175
1 175 175
2 175 175
3 175 175
0 176 175
1 176 175
2 176 175
3 176 175
0 177 175
1 177 175
2 177 175
3 177 175
0 178 175
1 178 175
2 178 175
3 178 175
0 179 175
1 179 175
2 179 175
3 179 175
0 180 175
1 180 175
2 180 175
3 180 175
0 181 175
1 181 175
2 181 175
3 181 175
0 182 175
1 182 175
2 182 175
3 182 175
0 183 175
1 183 175
2 183 175
3 183 175
0 184 175
1 184 175
2 184 175
3 184 175
0 185 175
1 185 175
2 185 175
3 185 175
0 186 175
1 186 175
2 186 175
3 186 175
0 187 175
1 187 175
2 187 175
3 187 175
0 188 175
1 188 175
2 188 175
3 188 175
0 189 175
1 189 175
2 189 175
3 189 175
0 190 175
1 190 175
2 190 175
3 190 175
0 191 175
1 191 175
2 191 175
3 191 175
0 192 175
1 192 175
2 192 175
3 192 175
0 193 175
1 193 175
2 193 175
3 193 175
0 194 175
1 194 175
2 194 175
3 194 175
0 195 175
1 195 175
2 195 175
3 195 175
0 196 175
1 196 175
2 196 175
3 196 175
0 197 175
1 197 175
2 197 175
3 197 175
0 198 175
1 198 175
2 198 175
3 198 175
0 199 175
1 199 175
2 199 175
3 199 175
0 132 176
1 132 176
2 132 176
3 132 176
0 133 176
1 133 176
2 133 176
3 133 176
0 134 176
1 134 176
2 134 176
3 134 176
0 135 176
1 135 176
2 135 176
3 135 176
0 136 176
1 136 176
2 136 176
3 136 176
0 137 176
1 137 176
2 137 176
3 137 176
0 138 176
1 138 176
2 138 176
3 138 176
0 139 176
1 139 176
2 139 176
3 139 176
0 140 176
1 140 176
2 140 176
3 140 176
0 141 176
1 141 176
2 141 176
3 141 176
0 142 176
1 142 176
2 142 176
3 142 176
0 143 176
1 143 176
2 143 176
3 143 176
0 144 176
1 144 176
2 144 176
3 144 176
0 145 176
1 145 176
2 145 176
3 145 176
0 146 176
1 146 176
2 146 176
3 146 176
0 147 176
1 147 176
2 147 176
3 147 176
0 148 176
1 148 176
2 148 176
3 148 176
0 149 176
1 149 176
2 149 176
3 149 176
0 150 176
1 150 176
2 150 176
3 150 176
0 151 176
1 151 176
2 151 176
3 151 176
0 152 176
1 152 176
2 152 176
3 152 176
0 153 176
1 153 176
2 153 176
3 153 176
0 154 176
1 154 176
2 154 176
3 154 176
0 155 176
1 155 176
2 155 176
3 155 176
0 156 176
1 156 176
2 156 176
3 156 176
0 157 176
1 157 176
2 157 176
3 157 176
0 158 176
1 158 176
2 158 176
3 158 176
0 159 176
1 159 176
2 159 176
3 159 176
0 160 176
1 160 176
2 160 176
3 160 176
0 161 176
1 161 176
2 161 176
3 161 176
0 162 176
1 162 176
2 162 176
3 162 176
0 163 176
1 163 176
2 163 176
3 163 176
0 164 176
1 164 176
2 164 176
3 164 176
0 165 176
1 165 176
2 165 176
3 165 176
0 166 176
1 166 176
2 166 176
3 166 176
0 167 176
1 167 176
2 167 176
3 167 176
0 168 176
1 168 176
2 168 176
3 168 176
0 169 176
1 169 176
2 169 176
3 169 176
0 170 176
1 170 176
2 170 176
3 170 176
0 171 176
1 171 176
2 171 176
3 171 176
0 172 176
1 172 176
2 172 176
3 172 176
0 173 176
1 173 176
2 173 176
3 173 176
0 174 176
1 174 176
2 174 176
3 174 176
0 175 176
1 175 176
2 175 176
3 175 176
0 176 176
1 176 176
2 176 176
3 176 176
0 177 176
1 177 176
2 177 176
3 177 176
0 178 176
1 178 176
2 178 176
3 178 176
0 179 176
1 179 176
2 179 176
3 179 176
0 180 176
1 180 176
2 180 176
3 180 176
0 181 176
1 181 176
2 181 176
3 181 176
0 182 176
1 182 176
2 182 176
3 182 176
0 183 176
1 183 176
2 183 176
3 183 176
0 184 176
1 184 176
2 184 176
3 184 176
0 185 176
1 185 176
2 185 176
3 185 176
0 186 176
1 186 176
2 186 176
3 186 176
0 187 176
1 187 176
2 187 176
3 187 176
0 188 176
1 188 176
2 188 176
3 188 176
0 189 176
1 189 176
2 189 176
3 189 176
0 190 176
1 190 176
2 190 176
3 190 176
0 191 176
1 191 176
2 191 176
3 191 176
0 192 176
1 192 176
2 192 176
3 192 176
0 193 176
1 193 176
2 193 176
3 193 176
0 194 176
1 194 176
2 194 176
3 194 176
0 195 176
1 195 176
2 195 176
3 195 176
0 196 176
1 196 176
2 196 176
3 196 176
0 197 176
1 197 176
2 197 176
3 197 176
0 198 176
1 198 176
2 198 176
3 198 176
0 199 176
1 199 176
2 199 176
3 199 176
0 132 177
1 132 177
2 132 177
3 132 177
0 133 177
1 133 177
2 133 177
3 133 177
0 134 177
1 134 177
2 134 177
3 134 177
0 135 177
1 135 177
2 135 177
3 135 177
0 136 177
1 136 177
2 136 177
3 136 177
0 137 177
1 137 177
2 137 177
3 137 177
0 138 177
1 138 177
2 138 177
3 138 177
0 139 177
1 139 177
2 139 177
3 139 177
0 140 177
1 140 177
2 140 177
3 140 177
0 141 177
1 141 177
2 141 177
3 141 177
0 142 177
1 142 177
2 142 177
3 142 177
0 143 177
1 143 177
2 143 177
3 143 177
0 144 177
1 144 177
2 144 177
3 144 177
0 145 177
1 145 177
2 145 177
3 145 177
0 146 177
1 146 177
2 146 177
3 146 177
0 147 177
1 147 177
2 147 177
3 147 177
0 148 177
1 148 177
2 148 177
3 148 177
0 149 177
1 149 177
2 149 177
3 149 177
0 150 177
1 150 177
2 150 177
3 150 177
0 151 177
1 151 177
2 151 177
3 151 177
0 152 177
1 152 177
2 152 177
3 152 177
0 153 177
1 153 177
2 153 177
3 153 177
0 154 177
1 154 177
2 154 177
3 154 177
0 155 177
1 155 177
2 155 177
3 155 177
0 156 177
1 156 177
2 156 177
3 156 177
0 157 177
1 157 177
2 157 177
3 157 177
0 158 177
1 158 177
2 158 177
3 158 177
0 159 177
1 159 177
2 159 177
3 159 177
0 160 177
1 160 177
2 160 177
3 160 177
0 161 177
1 161 177
2 161 177
3 161 177
0 162 177
1 162 177
2 162 177
3 162 177
0 163 177
1 163 177
2 163 177
3 163 177
0 164 177
1 164 177
2 164 177
3 164 177
0 165 177
1 165 177
2 165 177
3 165 177
0 166 177
1 166 177
2 166 177
3 166 177
0 167 177
1 167 177
2 167 177
3 167 177
0 168 177
1 168 177
2 168 177
3 168 177
0 169 177
1 169 177
2 169 177
3 169 177
0 170 177
1 170 177
2 170 177
3 170 177
0 171 177
1 171 177
2 171 177
3 171 177
0 172 177
1 172 177
2 172 177
3 172 177
0 173 177
1 173 177
2 173 177
3 173 177
0 174 177
1 174 177
2 174 177
3 174 177
0 175 177
1 175 177
2 175 177
3 175 177
0 176 177
1 176 177
2 176 177
3 176 177
0 177 177
1 177 177
2 177 177
3 177 177
0 178 177
1 178 177
2 178 177
3 178 177
0 179 177
1 179 177
2 179 177
3 179 177
0 180 177
1 180 177
2 180 177
3 180 177
0 181 177
1 181 177
2 181 177
3 181 177
0 182 177
1 182 177
2 182 177
3 182 177
0 183 177
1 183 177
2 183 177
3 183 177
0 184 177
1 184 177
2 184 177
3 184 177
0 185 177
1 185 177
2 185 177
3 185 177
0 186 177
1 186 177
2 186 177
3 186 177
0 187 177
1 187 177
2 187 177
3 187 177
0 188 177
1 188 177
2 188 177
3 188 177
0 189 177
1 189 177
2 189 177
3 189 177
0 190 177
1 190 177
2 190 177
3 190 177
0 191 177
1 191 177
2 191 177
3 191 177
0 192 177
1 192 177
2 192 177
3 192 177
0 193 177
1 193 177
2 193 177
3 193 177
0 194 177
1 194 177
2 194 177
3 194 177
0 195 177
1 195 177
2 195 177
3 195 177
0 196 177
1 196 177
2 196 177
3 196 177
0 197 177
1 197 177
2 197 177
3 197 177
0 198 177
1 198 177
2 198 177
3 198 177
0 199 177
1 199 177
2 199 177
3 199 177
0 132 178
1 132 178
2 132 178
3 132 178
0 133 178
1 133 178
2 133 178
3 133 178
0 134 178
1 134 178
2 134 178
3 134 178
0 135 178
1 135 178
2 135 178
3 135 178
0 136 178
1 136 178
2 136 178
3 136 178
0 137 178
1 137 178
2 137 178
3 137 178
0 138 178
1 138 178
2 138 178
3 138 178
0 139 178
1 139 178
2 139 178
3 139 178
0 140 178
1 140 178
2 140 178
3 140 178
0 141 178
1 141 178
2 141 178
3 141 178
0 142 178
1 142 178
2 142 178
3 142 178
0 143 178
1 143 178
2 143 178
3 143 178
0 144 178
1 144 178
2 144 178
3 144 178
0 145 178
1 145 178
2 145 178
3 145 178
0 146 178
1 146 178
2 146 178
3 146 178
0 147 178
1 147 178
2 147 178
3 147 178
0 148 178
1 148 178
2 148 178
3 148 178
0 149 178
1 149 178
2 149 178
3 149 178
0 150 178
1 150 178
2 150 178
3 150 178
0 151 178
1 151 178
2 151 178
3 151 178
0 152 178
1 152 178
2 152 178
3 152 178
0 153 178
1 153 178
2 153 178
3 153 178
0 154 178
1 154 178
2 154 178
3 154 178
0 155 178
1 155 178
2 155 178
3 155 178
0 156 178
1 156 178
2 156 178
3 156 178
0 157 178
1 157 178
2 157 178
3 157 178
0 158 178
1 158 178
2 158 178
3 158 178
0 159 178
1 159 178
2 159 178
3 159 178
0 160 178
1 160 178
2 160 178
3 160 178
0 161 178
1 161 178
2 161 178
3 161 178
0 162 178
1 162 178
2 162 178
3 162 178
0 163 178
1 163 178
2 163 178
3 163 178
0 164 178
1 164 178
2 164 178
3 164 178
0 165 178
1 165 178
2 165 178
3 165 178
0 166 178
1 166 178
2 166 178
3 166 178
0 167 178
1 167 178
2 167 178
3 167 178
0 168 178
1 168 178
2 168 178
3 168 178
0 169 178
1 169 178
2 169 178
3 169 178
0 170 178
1 170 178
2 170 178
3 170 178
0 171 178
1 171 178
2 171 178
3 171 178
0 172 178
1 172 178
2 172 178
3 172 178
0 173 178
1 173 178
2 173 178
3 173 178
0 174 178
1 174 178
2 174 178
3 174 178
0 175 178
1 175 178
2 175 178
3 175 178
0 176 178
1 176 178
2 176 178
3 176 178
0 177 178
1 177 178
2 177 178
3 177 178
0 178 178
1 178 178
2 178 178
3 178 178
0 179 178
1 179 178
2 179 178
3 179 178
0 180 178
1 180 178
2 180 178
3 180 178
0 181 178
1 181 178
2 181 178
3 181 178
0 182 178
1 182 178
2 182 178
3 182 178
0 183 178
1 183 178
2 183 178
3 183 178
0 184 178
1 184 178
2 184 178
3 184 178
0 185 178
1 185 178
2 185 178
3 185 178
0 186 178
1 186 178
2 186 178
3 186 178
0 187 178
1 187 178
2 187 178
3 187 178
0 188 178
1 188 178
2 188 178
3 188 178
0 189 178
1 189 178
2 189 178
3 189 178
0 190 178
1 190 178
2 190 178
3 190 178
0 191 178
1 191 178
2 191 178
3 191 178
0 192 178
1 192 178
2 192 178
3 192 178
0 193 178
1 193 178
2 193 178
3 193 178
0 194 178
1 194 178
2 194 178
3 194 178
0 195 178
1 195 178
2 195 178
3 195 178
0 196 178
1 196 178
2 196 178
3 196 178
0 197 178
1 197 178
2 197 178
3 197 178
0 198 178
1 198 178
2 198 178
3 198 178
0 199 178
1 199 178
2 199 178
3 199 178
0 132 179
1 132 179
2 132 179
3 132 179
0 133 179
1 133 179
2 133 179
3 133 179
0 134 179
1 134 179
2 134 179
3 134 179
0 135 179
1 135 179
2 135 179
3 135 179
0 136 179
1 136 179
2 136 179
3 136 179
0 137 179
1 137 179
2 137 179
3 137 179
0 138 179
1 138 179
2 138 179
3 138 179
0 139 179
1 139 179
2 139 179
3 139 179
0 140 179
1 140 179
2 140 179
3 140 179
0 141 179
1 141 179
2 141 179
3 141 179
0 142 179
1 142 179
2 142 179
3 142 179
0 143 179
1 143 179
2 143 179
3 143 179
0 144 179
1 144 179
2 144 179
3 144 179
0 145 179
1 145 179
2 145 179
3 145 179
0 146 179
1 146 179
2 146 179
3 146 179
0 147 179
1 147 179
2 147 179
3 147 179
0 148 179
1 148 179
2 148 179
3 148 179
0 149 179
1 149 179
2 149 179
3 149 179
0 150 179
1 150 179
2 150 179
3 150 179
0 151 179
1 151 179
2 151 179
3 151 179
0 152 179
1 152 179
2 152 179
3 152 179
0 153 179
1 153 179
2 153 179
3 153 179
0 154 179
1 154 179
2 154 179
3 154 179
0 155 179
1 155 179
2 155 179
3 155 179
0 156 179
1 156 179
2 156 179
3 156 179
0 157 179
1 157 179
2 157 179
3 157 179
0 158 179
1 158 179
2 158 179
3 158 179
0 159 179
1 159 179
2 159 179
3 159 179
0 160 179
1 160 179
2 160 179
3 160 179
0 161 179
1 161 179
2 161 179
3 161 179
0 162 179
1 162 179
2 162 179
3 162 179
0 163 179
1 163 179
2 163 179
3 163 179
0 164 179
1 164 179
2 164 179
3 164 179
0 165 179
1 165 179
2 165 179
3 165 179
0 166 179
1 166 179
2 166 179
3 166 179
0 167 179
1 167 179
2 167 179
3 167 179
0 168 179
1 168 179
2 168 179
3 168 179
0 169 179
1 169 179
2 169 179
3 169 179
0 170 179
1 170 179
2 170 179
3 170 179
0 171 179
1 171 179
2 171 179
3 171 179
0 172 179
1 172 179
2 172 179
3 172 179
0 173 179
1 173 179
2 173 179
3 173 179
0 174 179
1 174 179
2 174 179
3 174 179
0 175 179
1 175 179
2 175 179
3 175 179
0 176 179
1 176 179
2 176 179
3 176 179
0 177 179
1 177 179
2 177 179
3 177 179
0 178 179
1 178 179
2 178 179
3 178 179
0 179 179
1 179 179
2 179 179
3 179 179
0 180 179
1 180 179
2 180 179
3 180 179
0 181 179
1 181 179
2 181 179
3 181 179
0 182 179
1 182 179
2 182 179
3 182 179
0 183 179
1 183 179
2 183 179
3 183 179
0 184 179
1 184 179
2 184 179
3 184 179
0 185 179
1 185 179
2 185 179
3 185 179
0 186 179
1 186 179
2 186 179
3 186 179
0 187 179
1 187 179
2 187 179
3 187 179
0 188 179
1 188 179
2 188 179
3 188 179
0 189 179
1 189 179
2 189 179
3 189 179
0 190 179
1 190 179
2 190 179
3 190 179
0 191 179
1 191 179
2 191 179
3 191 179
0 192 179
1 192 179
2 192 179
3 192 179
0 193 179
1 193 179
2 193 179
3 193 179
0 194 179
1 194 179
2 194 179
3 194 179
0 195 179
1 195 179
2 195 179
3 195 179
0 196 179
1 196 179
2 196 179
3 196 179
0 197 179
1 197 179
2 197 179
3 197 179
0 198 179
1 198 179
2 198 179
3 198 179
0 199 179
1 199 179
2 199 179
3 199 179
0 132 180
1 132 180
2 132 180
3 132 180
0 133 180
1 133 180
2 133 180
3 133 180
0 134 180
1 134 180
2 134 180
3 134 180
0 135 180
1 135 180
2 135 180
3 135 180
0 136 180
1 136 180
2 136 180
3 136 180
0 137 180
1 137 180
2 137 180
3 137 180
0 138 180
1 138 180
2 138 180
3 138 180
0 139 180
1 139 180
2 139 180
3 139 180
0 140 180
1 140 180
2 140 180
3 140 180
0 141 180
1 141 180
2 141 180
3 141 180
0 142 180
1 142 180
2 142 180
3 142 180
0 143 180
1 143 180
2 143 180
3 143 180
0 144 180
1 144 180
2 144 180
3 144 180
0 145 180
1 145 180
2 145 180
3 145 180
0 146 180
1 146 180
2 146 180
3 146 180
0 147 180
1 147 180
2 147 180
3 147 180
0 148 180
1 148 180
2 148 180
3 148 180
0 149 180
1 149 180
2 149 180
3 149 180
0 150 180
1 150 180
2 150 180
3 150 180
0 151 180
1 151 180
2 151 180
3 151 180
0 152 180
1 152 180
2 152 180
3 152 180
0 153 180
1 153 180
2 153 180
3 153 180
0 154 180
1 154 180
2 154 180
3 154 180
0 155 180
1 155 180
2 155 180
3 155 180
0 156 180
1 156 180
2 156 180
3 156 180
0 157 180
1 157 180
2 157 180
3 157 180
0 158 180
1 158 180
2 158 180
3 158 180
0 159 180
1 159 180
2 159 180
3 159 180
0 160 180
1 160 180
2 160 180
3 160 180
0 161 180
1 161 180
2 161 180
3 161 180
0 162 180
1 162 180
2 162 180
3 162 180
0 163 180
1 163 180
2 163 180
3 163 180
0 164 180
1 164 180
2 164 180
3 164 180
0 165 180
1 165 180
2 165 180
3 165 180
0 166 180
1 166 180
2 166 180
3 166 180
0 167 180
1 167 180
2 167 180
3 167 180
0 168 180
1 168 180
2 168 180
3 168 180
0 169 180
1 169 180
2 169 180
3 169 180
0 170 180
1 170 180
2 170 180
3 170 180
0 171 180
1 171 180
2 171 180
3 171 180
0 172 180
1 172 180
2 172 180
3 172 180
0 173 180
1 173 180
2 173 180
3 173 180
0 174 180
1 174 180
2 174 180
3 174 180
0 175 180
1 175 180
2 175 180
3 175 180
0 176 180
1 176 180
2 176 180
3 176 180
0 177 180
1 177 180
2 177 180
3 177 180
0 178 180
1 178 180
2 178 180
3 178 180
0 179 180
1 179 180
2 179 180
3 179 180
0 180 180
1 180 180
2 180 180
3 180 180
0 181 180
1 181 180
2 181 180
3 181 180
0 182 180
1 182 180
2 182 180
3 182 180
0 183 180
1 183 180
2 183 180
3 183 180
0 184 180
1 184 180
2 184 180
3 184 180
0 185 180
1 185 180
2 185 180
3 185 180
0 186 180
1 186 180
2 186 180
3 186 180
0 187 180
1 187 180
2 187 180
3 187 180
0 188 180
1 188 180
2 188 180
3 188 180
0 189 180
1 189 180
2 189 180
3 189 180
0 190 180
1 190 180
2 190 180
3 190 180
0 191 180
1 191 180
2 191 180
3 191 180
0 192 180
1 192 180
2 192 180
3 192 180
0 193 180
1 193 180
2 193 180
3 193 180
0 194 180
1 194 180
2 194 180
3 194 180
0 195 180
1 195 180
2 195 180
3 195 180
0 196 180
1 196 180
2 196 180
3 196 180
0 197 180
1 197 180
2 197 180
3 197 180
0 198 180
1 198 180
2 198 180
3 198 180
0 199 180
1 199 180
2 199 180
3 199 180
0 132 181
1 132 181
2 132 181
3 132 181
0 133 181
1 133 181
2 133 181
3 133 181
0 134 181
1 134 181
2 134 181
3 134 181
0 135 181
1 135 181
2 135 181
3 135 181
0 136 181
1 136 181
2 136 181
3 136 181
0 137 181
1 137 181
2 137 181
3 137 181
0 138 181
1 138 181
2 138 181
3 138 181
0 139 181
1 139 181
2 139 181
3 139 181
0 140 181
1 140 181
2 140 181
3 140 181
0 141 181
1 141 181
2 141 181
3 141 181
0 142 181
1 142 181
2 142 181
3 142 181
0 143 181
1 143 181
2 143 181
3 143 181
0 144 181
1 144 181
2 144 181
3 144 181
0 145 181
1 145 181
2 145 181
3 145 181
0 146 181
1 146 181
2 146 181
3 146 181
0 147 181
1 147 181
2 147 181
3 147 181
0 148 181
1 148 181
2 148 181
3 148 181
0 149 181
1 149 181
2 149 181
3 149 181
0 150 181
1 150 181
2 150 181
3 150 181
0 151 181
1 151 181
2 151 181
3 151 181
0 152 181
1 152 181
2 152 181
3 152 181
0 153 181
1 153 181
2 153 181
3 153 181
0 154 181
1 154 181
2 154 181
3 154 181
0 155 181
1 155 181
2 155 181
3 155 181
0 156 181
1 156 181
2 156 181
3 156 181
0 157 181
1 157 181
2 157 181
3 157 181
0 158 181
1 158 181
2 158 181
3 158 181
0 159 181
1 159 181
2 159 181
3 159 181
0 160 181
1 160 181
2 160 181
3 160 181
0 161 181
1 161 181
2 161 181
3 161 181
0 162 181
1 162 181
2 162 181
3 162 181
0 163 181
1 163 181
2 163 181
3 163 181
0 164 181
1 164 181
2 164 181
3 164 181
0 165 181
1 165 181
2 165 181
3 165 181
0 166 181
1 166 181
2 166 181
3 166 181
0 167 181
1 167 181
2 167 181
3 167 181
0 168 181
1 168 181
2 168 181
3 168 181
0 169 181
1 169 181
2 169 181
3 169 181
0 170 181
1 170 181
2 170 181
3 170 181
0 171 181
1 171 181
2 171 181
3 171 181
0 172 181
1 172 181
2 172 181
3 172 181
0 173 181
1 173 181
2 173 181
3 173 181
0 174 181
1 174 181
2 174 181
3 174 181
0 175 181
1 175 181
2 175 181
3 175 181
0 176 181
1 176 181
2 176 181
3 176 181
0 177 181
1 177 181
2 177 181
3 177 181
0 178 181
1 178 181
2 178 181
3 178 181
0 179 181
1 179 181
2 179 181
3 179 181
0 180 181
1 180 181
2 180 181
3 180 181
0 181 181
1 181 181
2 181 181
3 181 181
0 182 181
1 182 181
2 182 181
3 182 181
0 183 181
1 183 181
2 183 181
3 183 181
0 184 181
1 184 181
2 184 181
3 184 181
0 185 181
1 185 181
2 185 181
3 185 181
0 186 181
1 186 181
2 186 181
3 186 181
0 187 181
1 187 181
2 187 181
3 187 181
0 188 181
1 188 181
2 188 181
3 188 181
0 189 181
1 189 181
2 189 181
3 189 181
0 190 181
1 190 181
2 190 181
3 190 181
0 191 181
1 191 181
2 191 181
3 191 181
0 192 181
1 192 181
2 192 181
3 192 181
0 193 181
1 193 181
2 193 181
3 193 181
0 194 181
1 194 181
2 194 181
3 194 181
0 195 181
1 195 181
2 195 181
3 195 181
0 196 181
1 196 181
2 196 181
3 196 181
0 197 181
1 197 181
2 197 181
3 197 181
0 198 181
1 198 181
2 198 181
3 198 181
0 199 181
1 199 181
2 199 181
3 199 181
0 132 182
1 132 182
2 132 182
3 132 182
0 133 182
1 133 182
2 133 182
3 133 182
0 134 182
1 134 182
2 134 182
3 134 182
0 135 182
1 135 182
2 135 182
3 135 182
0 136 182
1 136 182
2 136 182
3 136 182
0 137 182
1 137 182
2 137 182
3 137 182
0 138 182
1 138 182
2 138 182
3 138 182
0 139 182
1 139 182
2 139 182
3 139 182
0 140 182
1 140 182
2 140 182
3 140 182
0 141 182
1 141 182
2 141 182
3 141 182
0 142 182
1 142 182
2 142 182
3 142 182
0 143 182
1 143 182
2 143 182
3 143 182
0 144 182
1 144 182
2 144 182
3 144 182
0 145 182
1 145 182
2 145 182
3 145 182
0 146 182
1 146 182
2 146 182
3 146 182
0 147 182
1 147 182
2 147 182
3 147 182
0 148 182
1 148 182
2 148 182
3 148 182
0 149 182
1 149 182
2 149 182
3 149 182
0 150 182
1 150 182
2 150 182
3 150 182
0 151 182
1 151 182
2 151 182
3 151 182
0 152 182
1 152 182
2 152 182
3 152 182
0 153 182
1 153 182
2 153 182
3 153 182
0 154 182
1 154 182
2 154 182
3 154 182
0 155 182
1 155 182
2 155 182
3 155 182
0 156 182
1 156 182
2 156 182
3 156 182
0 157 182
1 157 182
2 157 182
3 157 182
0 158 182
1 158 182
2 158 182
3 158 182
0 159 182
1 159 182
2 159 182
3 159 182
0 160 182
1 160 182
2 160 182
3 160 182
0 161 182
1 161 182
2 161 182
3 161 182
0 162 182
1 162 182
2 162 182
3 162 182
0 163 182
1 163 182
2 163 182
3 163 182
0 164 182
1 164 182
2 164 182
3 164 182
0 165 182
1 165 182
2 165 182
3 165 182
0 166 182
1 166 182
2 166 182
3 166 182
0 167 182
1 167 182
2 167 182
3 167 182
0 168 182
1 168 182
2 168 182
3 168 182
0 169 182
1 169 182
2 169 182
3 169 182
0 170 182
1 170 182
2 170 182
3 170 182
0 171 182
1 171 182
2 171 182
3 171 182
0 172 182
1 172 182
2 172 182
3 172 182
0 173 182
1 173 182
2 173 182
3 173 182
0 174 182
1 174 182
2 174 182
3 174 182
0 175 182
1 175 182
2 175 182
3 175 182
0 176 182
1 176 182
2 176 182
3 176 182
0 177 182
1 177 182
2 177 182
3 177 182
0 178 182
1 178 182
2 178 182
3 178 182
0 179 182
1 179 182
2 179 182
3 179 182
0 180 182
1 180 182
2 180 182
3 180 182
0 181 182
1 181 182
2 181 182
3 181 182
0 182 182
1 182 182
2 182 182
3 182 182
0 183 182
1 183 182
2 183 182
3 183 182
0 184 182
1 184 182
2 184 182
3 184 182
0 185 182
1 185 182
2 185 182
3 185 182
0 186 182
1 186 182
2 186 182
3 186 182
0 187 182
1 187 182
2 187 182
3 187 182
0 188 182
1 188 182
2 188 182
3 188 182
0 189 182
1 189 182
2 189 182
3 189 182
0 190 182
1 190 182
2 190 182
3 190 182
0 191 182
1 191 182
2 191 182
3 191 182
0 192 182
1 192 182
2 192 182
3 192 182
0 193 182
1 193 182
2 193 182
3 193 182
0 194 182
1 194 182
2 194 182
3 194 182
0 195 182
1 195 182
2 195 182
3 195 182
0 196 182
1 196 182
2 196 182
3 196 182
0 197 182
1 197 182
2 197 182
3 197 182
0 198 182
1 198 182
2 198 182
3 198 182
0 199 182
1 199 182
2 199 182
3 199 182
0 132 183
1 132 183
2 132 183
3 132 183
0 133 183
1 133 183
2 133 183
3 133 183
0 134 183
1 134 183
2 134 183
3 134 183
0 135 183
1 135 183
2 135 183
3 135 183
0 136 183
1 136 183
2 136 183
3 136 183
0 137 183
1 137 183
2 137 183
3 137 183
0 138 183
1 138 183
2 138 183
3 138 183
0 139 183
1 139 183
2 139 183
3 139 183
0 140 183
1 140 183
2 140 183
3 140 183
0 141 183
1 141 183
2 141 183
3 141 183
0 142 183
1 142 183
2 142 183
3 142 183
0 143 183
1 143 183
2 143 183
3 143 183
0 144 183
1 144 183
2 144 183
3 144 183
0 145 183
1 145 183
2 145 183
3 145 183
0 146 183
1 146 183
2 146 183
3 146 183
0 147 183
1 147 183
2 147 183
3 147 183
0 148 183
1 148 183
2 148 183
3 148 183
0 149 183
1 149 183
2 149 183
3 149 183
0 150 183
1 150 183
2 150 183
3 150 183
0 151 183
1 151 183
2 151 183
3 151 183
0 152 183
1 152 183
2 152 183
3 152 183
0 153 183
1 153 183
2 153 183
3 153 183
0 154 183
1 154 183
2 154 183
3 154 183
0 155 183
1 155 183
2 155 183
3 155 183
0 156 183
1 156 183
2 156 183
3 156 183
0 157 183
1 157 183
2 157 183
3 157 183
0 158 183
1 158 183
2 158 183
3 158 183
0 159 183
1 159 183
2 159 183
3 159 183
0 160 183
1 160 183
2 160 183
3 160 183
0 161 183
1 161 183
2 161 183
3 161 183
0 162 183
1 162 183
2 162 183
3 162 183
0 163 183
1 163 183
2 163 183
3 163 183
0 164 183
1 164 183
2 164 183
3 164 183
0 165 183
1 165 183
2 165 183
3 165 183
0 166 183
1 166 183
2 166 183
3 166 183
0 167 183
1 167 183
2 167 183
3 167 183
0 168 183
1 168 183
2 168 183
3 168 183
0 169 183
1 169 183
2 169 183
3 169 183
0 170 183
1 170 183
2 170 183
3 170 183
0 171 183
1 171 183
2 171 183
3 171 183
0 172 183
1 172 183
2 172 183
3 172 183
0 173 183
1 173 183
2 173 183
3 173 183
0 174 183
1 174 183
2 174 183
3 174 183
0 175 183
1 175 183
2 175 183
3 175 183
0 176 183
1 176 183
2 176 183
3 176 183
0 177 183
1 177 183
2 177 183
3 177 183
0 178 183
1 178 183
2 178 183
3 178 183
0 179 183
1 179 183
2 179 183
3 179 183
0 180 183
1 180 183
2 180 183
3 180 183
0 181 183
1 181 183
2 181 183
3 181 183
0 182 183
1 182 183
2 182 183
3 182 183
0 183 183
1 183 183
2 183 183
3 183 183
0 184 183
1 184 183
2 184 183
3 184 183
0 185 183
1 185 183
2 185 183
3 185 183
0 186 183
1 186 183
2 186 183
3 186 183
0 187 183
1 187 183
2 187 183
3 187 183
0 188 183
1 188 183
2 188 183
3 188 183
0 189 183
1 189 183
2 189 183
3 189 183
0 190 183
1 190 183
2 190 183
3 190 183
0 191 183
1 191 183
2 191 183
3 191 183
0 192 183
1 192 183
2 192 183
3 192 183
0 193 183
1 193 183
2 193 183
3 193 183
0 194 183
1 194 183
2 194 183
3 194 183
0 195 183
1 195 183
2 195 183
3 195 183
0 196 183
1 196 183
2 196 183
3 196 183
0 197 183
1 197 183
2 197 183
3 197 183
0 198 183
1 198 183
2 198 183
3 198 183
0 199 183
1 199 183
2 199 183
3 199 183
0 132 184
1 132 184
2 132 184
3 132 184
0 133 184
1 133 184
2 133 184
3 133 184
0 134 184
1 134 184
2 134 184
3 134 184
0 135 184
1 135 184
2 135 184
3 135 184
0 136 184
1 136 184
2 136 184
3 136 184
0 137 184
1 137 184
2 137 184
3 137 184
0 138 184
1 138 184
2 138 184
3 138 184
0 139 184
1 139 184
2 139 184
3 139 184
0 140 184
1 140 184
2 140 184
3 140 184
0 141 184
1 141 184
2 141 184
3 141 184
0 142 184
1 142 184
2 142 184
3 142 184
0 143 184
1 143 184
2 143 184
3 143 184
0 144 184
1 144 184
2 144 184
3 144 184
0 145 184
1 145 184
2 145 184
3 145 184
0 146 184
1 146 184
2 146 184
3 146 184
0 147 184
1 147 184
2 147 184
3 147 184
0 148 184
1 148 184
2 148 184
3 148 184
0 149 184
1 149 184
2 149 184
3 149 184
0 150 184
1 150 184
2 150 184
3 150 184
0 151 184
1 151 184
2 151 184
3 151 184
0 152 184
1 152 184
2 152 184
3 152 184
0 153 184
1 153 184
2 153 184
3 153 184
0 154 184
1 154 184
2 154 184
3 154 184
0 155 184
1 155 184
2 155 184
3 155 184
0 156 184
1 156 184
2 156 184
3 156 184
0 157 184
1 157 184
2 157 184
3 157 184
0 158 184
1 158 184
2 158 184
3 158 184
0 159 184
1 159 184
2 159 184
3 159 184
0 160 184
1 160 184
2 160 184
3 160 184
0 161 184
1 161 184
2 161 184
3 161 184
0 162 184
1 162 184
2 162 184
3 162 184
0 163 184
1 163 184
2 163 184
3 163 184
0 164 184
1 164 184
2 164 184
3 164 184
0 165 184
1 165 184
2 165 184
3 165 184
0 166 184
1 166 184
2 166 184
3 166 184
0 167 184
1 167 184
2 167 184
3 167 184
0 168 184
1 168 184
2 168 184
3 168 184
0 169 184
1 169 184
2 169 184
3 169 184
0 170 184
1 170 184
2 170 184
3 170 184
0 171 184
1 171 184
2 171 184
3 171 184
0 172 184
1 172 184
2 172 184
3 172 184
0 173 184
1 173 184
2 173 184
3 173 184
0 174 184
1 174 184
2 174 184
3 174 184
0 175 184
1 175 184
2 175 184
3 175 184
0 176 184
1 176 184
2 176 184
3 176 184
0 177 184
1 177 184
2 177 184
3 177 184
0 178 184
1 178 184
2 178 184
3 178 184
0 179 184
1 179 184
2 179 184
3 179 184
0 180 184
1 180 184
2 180 184
3 180 184
0 181 184
1 181 184
2 181 184
3 181 184
0 182 184
1 182 184
2 182 184
3 182 184
0 183 184
1 183 184
2 183 184
3 183 184
0 184 184
1 184 184
2 184 184
3 184 184
0 185 184
1 185 184
2 185 184
3 185 184
0 186 184
1 186 184
2 186 184
3 186 184
0 187 184
1 187 184
2 187 184
3 187 184
0 188 184
1 188 184
2 188 184
3 188 184
0 189 184
1 189 184
2 189 184
3 189 184
0 190 184
1 190 184
2 190 184
3 190 184
0 191 184
1 191 184
2 191 184
3 191 184
0 192 184
1 192 184
2 192 184
3 192 184
0 193 184
1 193 184
2 193 184
3 193 184
0 194 184
1 194 184
2 194 184
3 194 184
0 195 184
1 195 184
2 195 184
3 195 184
0 196 184
1 196 184
2 196 184
3 196 184
0 197 184
1 197 184
2 197 184
3 197 184
0 198 184
1 198 184
2 198 184
3 198 184
0 199 184
1 199 184
2 199 184
3 199 184
0 132 185
1 132 185
2 132 185
3 132 185
0 133 185
1 133 185
2 133 185
3 133 185
0 134 185
1 134 185
2 134 185
3 134 185
0 135 185
1 135 185
2 135 185
3 135 185
0 136 185
1 136 185
2 136 185
3 136 185
0 137 185
1 137 185
2 137 185
3 137 185
0 138 185
1 138 185
2 138 185
3 138 185
0 139 185
1 139 185
2 139 185
3 139 185
0 140 185
1 140 185
2 140 185
3 140 185
0 141 185
1 141 185
2 141 185
3 141 185
0 142 185
1 142 185
2 142 185
3 142 185
0 143 185
1 143 185
2 143 185
3 143 185
0 144 185
1 144 185
2 144 185
3 144 185
0 145 185
1 145 185
2 145 185
3 145 185
0 146 185
1 146 185
2 146 185
3 146 185
0 147 185
1 147 185
2 147 185
3 147 185
0 148 185
1 148 185
2 148 185
3 148 185
0 149 185
1 149 185
2 149 185
3 149 185
0 150 185
1 150 185
2 150 185
3 150 185
0 151 185
1 151 185
2 151 185
3 151 185
0 152 185
1 152 185
2 152 185
3 152 185
0 153 185
1 153 185
2 153 185
3 153 185
0 154 185
1 154 185
2 154 185
3 154 185
0 155 185
1 155 185
2 155 185
3 155 185
0 156 185
1 156 185
2 156 185
3 156 185
0 157 185
1 157 185
2 157 185
3 157 185
0 158 185
1 158 185
2 158 185
3 158 185
0 159 185
1 159 185
2 159 185
3 159 185
0 160 185
1 160 185
2 160 185
3 160 185
0 161 185
1 161 185
2 161 185
3 161 185
0 162 185
1 162 185
2 162 185
3 162 185
0 163 185
1 163 185
2 163 185
3 163 185
0 164 185
1 164 185
2 164 185
3 164 185
0 165 185
1 165 185
2 165 185
3 165 185
0 166 185
1 166 185
2 166 185
3 166 185
0 167 185
1 167 185
2 167 185
3 167 185
0 168 185
1 168 185
2 168 185
3 168 185
0 169 185
1 169 185
2 169 185
3 169 185
0 170 185
1 170 185
2 170 185
3 170 185
0 171 185
1 171 185
2 171 185
3 171 185
0 172 185
1 172 185
2 172 185
3 172 185
0 173 185
1 173 185
2 173 185
3 173 185
0 174 185
1 174 185
2 174 185
3 174 185
0 175 185
1 175 185
2 175 185
3 175 185
0 176 185
1 176 185
2 176 185
3 176 185
0 177 185
1 177 185
2 177 185
3 177 185
0 178 185
1 178 185
2 178 185
3 178 185
0 179 185
1 179 185
2 179 185
3 179 185
0 180 185
1 180 185
2 180 185
3 180 185
0 181 185
1 181 185
2 181 185
3 181 185
0 182 185
1 182 185
2 182 185
3 182 185
0 183 185
1 183 185
2 183 185
3 183 185
0 184 185
1 184 185
2 184 185
3 184 185
0 185 185
1 185 185
2 185 185
3 185 185
0 186 185
1 186 185
2 186 185
3 186 185
0 187 185
1 187 185
2 187 185
3 187 185
0 188 185
1 188 185
2 188 185
3 188 185
0 189 185
1 189 185
2 189 185
3 189 185
0 190 185
1 190 185
2 190 185
3 190 185
0 191 185
1 191 185
2 191 185
3 191 185
0 192 185
1 192 185
2 192 185
3 192 185
0 193 185
1 193 185
2 193 185
3 193 185
0 194 185
1 194 185
2 194 185
3 194 185
0 195 185
1 195 185
2 195 185
3 195 185
0 196 185
1 196 185
2 196 185
3 196 185
0 197 185
1 197 185
2 197 185
3 197 185
0 198 185
1 198 185
2 198 185
3 198 185
0 199 185
1 199 185
2 199 185
3 199 185
0 132 186
1 132 186
2 132 186
3 132 186
0 133 186
1 133 186
2 133 186
3 133 186
0 134 186
1 134 186
2 134 186
3 134 186
0 135 186
1 135 186
2 135 186
3 135 186
0 136 186
1 136 186
2 136 186
3 136 186
0 137 186
1 137 186
2 137 186
3 137 186
0 138 186
1 138 186
2 138 186
3 138 186
0 139 186
1 139 186
2 139 186
3 139 186
0 140 186
1 140 186
2 140 186
3 140 186
0 141 186
1 141 186
2 141 186
3 141 186
0 142 186
1 142 186
2 142 186
3 142 186
0 143 186
1 143 186
2 143 186
3 143 186
0 144 186
1 144 186
2 144 186
3 144 186
0 145 186
1 145 186
2 145 186
3 145 186
0 146 186
1 146 186
2 146 186
3 146 186
0 147 186
1 147 186
2 147 186
3 147 186
0 148 186
1 148 186
2 148 186
3 148 186
0 149 186
1 149 186
2 149 186
3 149 186
0 150 186
1 150 186
2 150 186
3 150 186
0 151 186
1 151 186
2 151 186
3 151 186
0 152 186
1 152 186
2 152 186
3 152 186
0 153 186
1 153 186
2 153 186
3 153 186
0 154 186
1 154 186
2 154 186
3 154 186
0 155 186
1 155 186
2 155 186
3 155 186
0 156 186
1 156 186
2 156 186
3 156 186
0 157 186
1 157 186
2 157 186
3 157 186
0 158 186
1 158 186
2 158 186
3 158 186
0 159 186
1 159 186
2 159 186
3 159 186
0 160 186
1 160 186
2 160 186
3 160 186
0 161 186
1 161 186
2 161 186
3 161 186
0 162 186
1 162 186
2 162 186
3 162 186
0 163 186
1 163 186
2 163 186
3 163 186
0 164 186
1 164 186
2 164 186
3 164 186
0 165 186
1 165 186
2 165 186
3 165 186
0 166 186
1 166 186
2 166 186
3 166 186
0 167 186
1 167 186
2 167 186
3 167 186
0 168 186
1 168 186
2 168 186
3 168 186
0 169 186
1 169 186
2 169 186
3 169 186
0 170 186
1 170 186
2 170 186
3 170 186
0 171 186
1 171 186
2 171 186
3 171 186
0 172 186
1 172 186
2 172 186
3 172 186
0 173 186
1 173 186
2 173 186
3 173 186
0 174 186
1 174 186
2 174 186
3 174 186
0 175 186
1 175 186
2 175 186
3 175 186
0 176 186
1 176 186
2 176 186
3 176 186
0 177 186
1 177 186
2 177 186
3 177 186
0 178 186
1 178 186
2 178 186
3 178 186
0 179 186
1 179 186
2 179 186
3 179 186
0 180 186
1 180 186
2 180 186
3 180 186
0 181 186
1 181 186
2 181 186
3 181 186
0 182 186
1 182 186
2 182 186
3 182 186
0 183 186
1 183 186
2 183 186
3 183 186
0 184 186
1 184 186
2 184 186
3 184 186
0 185 186
1 185 186
2 185 186
3 185 186
0 186 186
1 186 186
2 186 186
3 186 186
0 187 186
1 187 186
2 187 186
3 187 186
0 188 186
1 188 186
2 188 186
3 188 186
0 189 186
1 189 186
2 189 186
3 189 186
0 190 186
1 190 186
2 190 186
3 190 186
0 191 186
1 191 186
2 191 186
3 191 186
0 192 186
1 192 186
2 192 186
3 192 186
0 193 186
1 193 186
2 193 186
3 193 186
0 194 186
1 194 186
2 194 186
3 194 186
0 195 186
1 195 186
2 195 186
3 195 186
0 196 186
1 196 186
2 196 186
3 196 186
0 197 186
1 197 186
2 197 186
3 197 186
0 198 186
1 198 186
2 198 186
3 198 186
0 199 186
1 199 186
2 199 186
3 199 186
0 132 187
1 132 187
2 132 187
3 132 187
0 133 187
1 133 187
2 133 187
3 133 187
0 134 187
1 134 187
2 134 187
3 134 187
0 135 187
1 135 187
2 135 187
3 135 187
0 136 187
1 136 187
2 136 187
3 136 187
0 137 187
1 137 187
2 137 187
3 137 187
0 138 187
1 138 187
2 138 187
3 138 187
0 139 187
1 139 187
2 139 187
3 139 187
0 140 187
1 140 187
2 140 187
3 140 187
0 141 187
1 141 187
2 141 187
3 141 187
0 142 187
1 142 187
2 142 187
3 142 187
0 143 187
1 143 187
2 143 187
3 143 187
0 144 187
1 144 187
2 144 187
3 144 187
0 145 187
1 145 187
2 145 187
3 145 187
0 146 187
1 146 187
2 146 187
3 146 187
0 147 187
1 147 187
2 147 187
3 147 187
0 148 187
1 148 187
2 148 187
3 148 187
0 149 187
1 149 187
2 149 187
3 149 187
0 150 187
1 150 187
2 150 187
3 150 187
0 151 187
1 151 187
2 151 187
3 151 187
0 152 187
1 152 187
2 152 187
3 152 187
0 153 187
1 153 187
2 153 187
3 153 187
0 154 187
1 154 187
2 154 187
3 154 187
0 155 187
1 155 187
2 155 187
3 155 187
0 156 187
1 156 187
2 156 187
3 156 187
0 157 187
1 157 187
2 157 187
3 157 187
0 158 187
1 158 187
2 158 187
3 158 187
0 159 187
1 159 187
2 159 187
3 159 187
0 160 187
1 160 187
2 160 187
3 160 187
0 161 187
1 161 187
2 161 187
3 161 187
0 162 187
1 162 187
2 162 187
3 162 187
0 163 187
1 163 187
2 163 187
3 163 187
0 164 187
1 164 187
2 164 187
3 164 187
0 165 187
1 165 187
2 165 187
3 165 187
0 166 187
1 166 187
2 166 187
3 166 187
0 167 187
1 167 187
2 167 187
3 167 187
0 168 187
1 168 187
2 168 187
3 168 187
0 169 187
1 169 187
2 169 187
3 169 187
0 170 187
1 170 187
2 170 187
3 170 187
0 171 187
1 171 187
2 171 187
3 171 187
0 172 187
1 172 187
2 172 187
3 172 187
0 173 187
1 173 187
2 173 187
3 173 187
0 174 187
1 174 187
2 174 187
3 174 187
0 175 187
1 175 187
2 175 187
3 175 187
0 176 187
1 176 187
2 176 187
3 176 187
0 177 187
1 177 187
2 177 187
3 177 187
0 178 187
1 178 187
2 178 187
3 178 187
0 179 187
1 179 187
2 179 187
3 179 187
0 180 187
1 180 187
2 180 187
3 180 187
0 181 187
1 181 187
2 181 187
3 181 187
0 182 187
1 182 187
2 182 187
3 182 187
0 183 187
1 183 187
2 183 187
3 183 187
0 184 187
1 184 187
2 184 187
3 184 187
0 185 187
1 185 187
2 185 187
3 185 187
0 186 187
1 186 187
2 186 187
3 186 187
0 187 187
1 187 187
2 187 187
3 187 187
0 188 187
1 188 187
2 188 187
3 188 187
0 189 187
1 189 187
2 189 187
3 189 187
0 190 187
1 190 187
2 190 187
3 190 187
0 191 187
1 191 187
2 191 187
3 191 187
0 192 187
1 192 187
2 192 187
3 192 187
0 193 187
1 193 187
2 193 187
3 193 187
0 194 187
1 194 187
2 194 187
3 194 187
0 195 187
1 195 187
2 195 187
3 195 187
0 196 187
1 196 187
2 196 187
3 196 187
0 197 187
1 197 187
2 197 187
3 197 187
0 198 187
1 198 187
2 198 187
3 198 187
0 199 187
1 199 187
2 199 187
3 199 187
0 132 188
1 132 188
2 132 188
3 132 188
0 133 188
1 133 188
2 133 188
3 133 188
0 134 188
1 134 188
2 134 188
3 134 188
0 135 188
1 135 188
2 135 188
3 135 188
0 136 188
1 136 188
2 136 188
3 136 188
0 137 188
1 137 188
2 137 188
3 137 188
0 138 188
1 138 188
2 138 188
3 138 188
0 139 188
1 139 188
2 139 188
3 139 188
0 140 188
1 140 188
2 140 188
3 140 188
0 141 188
1 141 188
2 141 188
3 141 188
0 142 188
1 142 188
2 142 188
3 142 188
0 143 188
1 143 188
2 143 188
3 143 188
0 144 188
1 144 188
2 144 188
3 144 188
0 145 188
1 145 188
2 145 188
3 145 188
0 146 188
1 146 188
2 146 188
3 146 188
0 147 188
1 147 188
2 147 188
3 147 188
0 148 188
1 148 188
2 148 188
3 148 188
0 149 188
1 149 188
2 149 188
3 149 188
0 150 188
1 150 188
2 150 188
3 150 188
0 151 188
1 151 188
2 151 188
3 151 188
0 152 188
1 152 188
2 152 188
3 152 188
0 153 188
1 153 188
2 153 188
3 153 188
0 154 188
1 154 188
2 154 188
3 154 188
0 155 188
1 155 188
2 155 188
3 155 188
0 156 188
1 156 188
2 156 188
3 156 188
0 157 188
1 157 188
2 157 188
3 157 188
0 158 188
1 158 188
2 158 188
3 158 188
0 159 188
1 159 188
2 159 188
3 159 188
0 160 188
1 160 188
2 160 188
3 160 188
0 161 188
1 161 188
2 161 188
3 161 188
0 162 188
1 162 188
2 162 188
3 162 188
0 163 188
1 163 188
2 163 188
3 163 188
0 164 188
1 164 188
2 164 188
3 164 188
0 165 188
1 165 188
2 165 188
3 165 188
0 166 188
1 166 188
2 166 188
3 166 188
0 167 188
1 167 188
2 167 188
3 167 188
0 168 188
1 168 188
2 168 188
3 168 188
0 169 188
1 169 188
2 169 188
3 169 188
0 170 188
1 170 188
2 170 188
3 170 188
0 171 188
1 171 188
2 171 188
3 171 188
0 172 188
1 172 188
2 172 188
3 172 188
0 173 188
1 173 188
2 173 188
3 173 188
0 174 188
1 174 188
2 174 188
3 174 188
0 175 188
1 175 188
2 175 188
3 175 188
0 176 188
1 176 188
2 176 188
3 176 188
0 177 188
1 177 188
2 177 188
3 177 188
0 178 188
1 178 188
2 178 188
3 178 188
0 179 188
1 179 188
2 179 188
3 179 188
0 180 188
1 180 188
2 180 188
3 180 188
0 181 188
1 181 188
2 181 188
3 181 188
0 182 188
1 182 188
2 182 188
3 182 188
0 183 188
1 183 188
2 183 188
3 183 188
0 184 188
1 184 188
2 184 188
3 184 188
0 185 188
1 185 188
2 185 188
3 185 188
0 186 188
1 186 188
2 186 188
3 186 188
0 187 188
1 187 188
2 187 188
3 187 188
0 188 188
1 188 188
2 188 188
3 188 188
0 189 188
1 189 188
2 189 188
3 189 188
0 190 188
1 190 188
2 190 188
3 190 188
0 191 188
1 191 188
2 191 188
3 191 188
0 192 188
1 192 188
2 192 188
3 192 188
0 193 188
1 193 188
2 193 188
3 193 188
0 194 188
1 194 188
2 194 188
3 194 188
0 195 188
1 195 188
2 195 188
3 195 188
0 196 188
1 196 188
2 196 188
3 196 188
0 197 188
1 197 188
2 197 188
3 197 188
0 198 188
1 198 188
2 198 188
3 198 188
0 199 188
1 199 188
2 199 188
3 199 188
0 132 189
1 132 189
2 132 189
3 132 189
0 133 189
1 133 189
2 133 189
3 133 189
0 134 189
1 134 189
2 134 189
3 134 189
0 135 189
1 135 189
2 135 189
3 135 189
0 136 189
1 136 189
2 136 189
3 136 189
0 137 189
1 137 189
2 137 189
3 137 189
0 138 189
1 138 189
2 138 189
3 138 189
0 139 189
1 139 189
2 139 189
3 139 189
0 140 189
1 140 189
2 140 189
3 140 189
0 141 189
1 141 189
2 141 189
3 141 189
0 142 189
1 142 189
2 142 189
3 142 189
0 143 189
1 143 189
2 143 189
3 143 189
0 144 189
1 144 189
2 144 189
3 144 189
0 145 189
1 145 189
2 145 189
3 145 189
0 146 189
1 146 189
2 146 189
3 146 189
0 147 189
1 147 189
2 147 189
3 147 189
0 148 189
1 148 189
2 148 189
3 148 189
0 149 189
1 149 189
2 149 189
3 149 189
0 150 189
1 150 189
2 150 189
3 150 189
0 151 189
1 151 189
2 151 189
3 151 189
0 152 189
1 152 189
2 152 189
3 152 189
0 153 189
1 153 189
2 153 189
3 153 189
0 154 189
1 154 189
2 154 189
3 154 189
0 155 189
1 155 189
2 155 189
3 155 189
0 156 189
1 156 189
2 156 189
3 156 189
0 157 189
1 157 189
2 157 189
3 157 189
0 158 189
1 158 189
2 158 189
3 158 189
0 159 189
1 159 189
2 159 189
3 159 189
0 160 189
1 160 189
2 160 189
3 160 189
0 161 189
1 161 189
2 161 189
3 161 189
0 162 189
1 162 189
2 162 189
3 162 189
0 163 189
1 163 189
2 163 189
3 163 189
0 164 189
1 164 189
2 164 189
3 164 189
0 165 189
1 165 189
2 165 189
3 165 189
0 166 189
1 166 189
2 166 189
3 166 189
0 167 189
1 167 189
2 167 189
3 167 189
0 168 189
1 168 189
2 168 189
3 168 189
0 169 189
1 169 189
2 169 189
3 169 189
0 170 189
1 170 189
2 170 189
3 170 189
0 171 189
1 171 189
2 171 189
3 171 189
0 172 189
1 172 189
2 172 189
3 172 189
0 173 189
1 173 189
2 173 189
3 173 189
0 174 189
1 174 189
2 174 189
3 174 189
0 175 189
1 175 189
2 175 189
3 175 189
0 176 189
1 176 189
2 176 189
3 176 189
0 177 189
1 177 189
2 177 189
3 177 189
0 178 189
1 178 189
2 178 189
3 178 189
0 179 189
1 179 189
2 179 189
3 179 189
0 180 189
1 180 189
2 180 189
3 180 189
0 181 189
1 181 189
2 181 189
3 181 189
0 182 189
1 182 189
2 182 189
3 182 189
0 183 189
1 183 189
2 183 189
3 183 189
0 184 189
1 184 189
2 184 189
3 184 189
0 185 189
1 185 189
2 185 189
3 185 189
0 186 189
1 186 189
2 186 189
3 186 189
0 187 189
1 187 189
2 187 189
3 187 189
0 188 189
1 188 189
2 188 189
3 188 189
0 189 189
1 189 189
2 189 189
3 189 189
0 190 189
1 190 189
2 190 189
3 190 189
0 191 189
1 191 189
2 191 189
3 191 189
0 192 189
1 192 189
2 192 189
3 192 189
0 193 189
1 193 189
2 193 189
3 193 189
0 194 189
1 194 189
2 194 189
3 194 189
0 195 189
1 195 189
2 195 189
3 195 189
0 196 189
1 196 189
2 196 189
3 196 189
0 197 189
1 197 189
2 197 189
3 197 189
0 198 189
1 198 189
2 198 189
3 198 189
0 199 189
1 199 189
2 199 189
3 199 189
0 132 190
1 132 190
2 132 190
3 132 190
0 133 190
1 133 190
2 133 190
3 133 190
0 134 190
1 134 190
2 134 190
3 134 190
0 135 190
1 135 190
2 135 190
3 135 190
0 136 190
1 136 190
2 136 190
3 136 190
0 137 190
1 137 190
2 137 190
3 137 190
0 138 190
1 138 190
2 138 190
3 138 190
0 139 190
1 139 190
2 139 190
3 139 190
0 140 190
1 140 190
2 140 190
3 140 190
0 141 190
1 141 190
2 141 190
3 141 190
0 142 190
1 142 190
2 142 190
3 142 190
0 143 190
1 143 190
2 143 190
3 143 190
0 144 190
1 144 190
2 144 190
3 144 190
0 145 190
1 145 190
2 145 190
3 145 190
0 146 190
1 146 190
2 146 190
3 146 190
0 147 190
1 147 190
2 147 190
3 147 190
0 148 190
1 148 190
2 148 190
3 148 190
0 149 190
1 149 190
2 149 190
3 149 190
0 150 190
1 150 190
2 150 190
3 150 190
0 151 190
1 151 190
2 151 190
3 151 190
0 152 190
1 152 190
2 152 190
3 152 190
0 153 190
1 153 190
2 153 190
3 153 190
0 154 190
1 154 190
2 154 190
3 154 190
0 155 190
1 155 190
2 155 190
3 155 190
0 156 190
1 156 190
2 156 190
3 156 190
0 157 190
1 157 190
2 157 190
3 157 190
0 158 190
1 158 190
2 158 190
3 158 190
0 159 190
1 159 190
2 159 190
3 159 190
0 160 190
1 160 190
2 160 190
3 160 190
0 161 190
1 161 190
2 161 190
3 161 190
0 162 190
1 162 190
2 162 190
3 162 190
0 163 190
1 163 190
2 163 190
3 163 190
0 164 190
1 164 190
2 164 190
3 164 190
0 165 190
1 165 190
2 165 190
3 165 190
0 166 190
1 166 190
2 166 190
3 166 190
0 167 190
1 167 190
2 167 190
3 167 190
0 168 190
1 168 190
2 168 190
3 168 190
0 169 190
1 169 190
2 169 190
3 169 190
0 170 190
1 170 190
2 170 190
3 170 190
0 171 190
1 171 190
2 171 190
3 171 190
0 172 190
1 172 190
2 172 190
3 172 190
0 173 190
1 173 190
2 173 190
3 173 190
0 174 190
1 174 190
2 174 190
3 174 190
0 175 190
1 175 190
2 175 190
3 175 190
0 176 190
1 176 190
2 176 190
3 176 190
0 177 190
1 177 190
2 177 190
3 177 190
0 178 190
1 178 190
2 178 190
3 178 190
0 179 190
1 179 190
2 179 190
3 179 190
0 180 190
1 180 190
2 180 190
3 180 190
0 181 190
1 181 190
2 181 190
3 181 190
0 182 190
1 182 190
2 182 190
3 182 190
0 183 190
1 183 190
2 183 190
3 183 190
0 184 190
1 184 190
2 184 190
3 184 190
0 185 190
1 185 190
2 185 190
3 185 190
0 186 190
1 186 190
2 186 190
3 186 190
0 187 190
1 187 190
2 187 190
3 187 190
0 188 190
1 188 190
2 188 190
3 188 190
0 189 190
1 189 190
2 189 190
3 189 190
0 190 190
1 190 190
2 190 190
3 190 190
0 191 190
1 191 190
2 191 190
3 191 190
0 192 190
1 192 190
2 192 190
3 192 190
0 193 190
1 193 190
2 193 190
3 193 190
0 194 190
1 194 190
2 194 190
3 194 190
0 195 190
1 195 190
2 195 190
3 195 190
0 196 190
1 196 190
2 196 190
3 196 190
0 197 190
1 197 190
2 197 190
3 197 190
0 198 190
1 198 190
2 198 190
3 198 190
0 199 190
1 199 190
2 199 190
3 199 190
0 132 191
1 132 191
2 132 191
3 132 191
0 133 191
1 133 191
2 133 191
3 133 191
0 134 191
1 134 191
2 134 191
3 134 191
0 135 191
1 135 191
2 135 191
3 135 191
0 136 191
1 136 191
2 136 191
3 136 191
0 137 191
1 137 191
2 137 191
3 137 191
0 138 191
1 138 191
2 138 191
3 138 191
0 139 191
1 139 191
2 139 191
3 139 191
0 140 191
1 140 191
2 140 191
3 140 191
0 141 191
1 141 191
2 141 191
3 141 191
0 142 191
1 142 191
2 142 191
3 142 191
0 143 191
1 143 191
2 143 191
3 143 191
0 144 191
1 144 191
2 144 191
3 144 191
0 145 191
1 145 191
2 145 191
3 145 191
0 146 191
1 146 191
2 146 191
3 146 191
0 147 191
1 147 191
2 147 191
3 147 191
0 148 191
1 148 191
2 148 191
3 148 191
0 149 191
1 149 191
2 149 191
3 149 191
0 150 191
1 150 191
2 150 191
3 150 191
0 151 191
1 151 191
2 151 191
3 151 191
0 152 191
1 152 191
2 152 191
3 152 191
0 153 191
1 153 191
2 153 191
3 153 191
0 154 191
1 154 191
2 154 191
3 154 191
0 155 191
1 155 191
2 155 191
3 155 191
0 156 191
1 156 191
2 156 191
3 156 191
0 157 191
1 157 191
2 157 191
3 157 191
0 158 191
1 158 191
2 158 191
3 158 191
0 159 191
1 159 191
2 159 191
3 159 191
0 160 191
1 160 191
2 160 191
3 160 191
0 161 191
1 161 191
2 161 191
3 161 191
0 162 191
1 162 191
2 162 191
3 162 191
0 163 191
1 163 191
2 163 191
3 163 191
0 164 191
1 164 191
2 164 191
3 164 191
0 165 191
1 165 191
2 165 191
3 165 191
0 166 191
1 166 191
2 166 191
3 166 191
0 167 191
1 167 191
2 167 191
3 167 191
0 168 191
1 168 191
2 168 191
3 168 191
0 169 191
1 169 191
2 169 191
3 169 191
0 170 191
1 170 191
2 170 191
3 170 191
0 171 191
1 171 191
2 171 191
3 171 191
0 172 191
1 172 191
2 172 191
3 172 191
0 173 191
1 173 191
2 173 191
3 173 191
0 174 191
1 174 191
2 174 191
3 174 191
0 175 191
1 175 191
2 175 191
3 175 191
0 176 191
1 176 191
2 176 191
3 176 191
0 177 191
1 177 191
2 177 191
3 177 191
0 178 191
1 178 191
2 178 191
3 178 191
0 179 191
1 179 191
2 179 191
3 179 191
0 180 191
1 180 191
2 180 191
3 180 191
0 181 191
1 181 191
2 181 191
3 181 191
0 182 191
1 182 191
2 182 191
3 182 191
0 183 191
1 183 191
2 183 191
3 183 191
0 184 191
1 184 191
2 184 191
3 184 191
0 185 191
1 185 191
2 185 191
3 185 191
0 186 191
1 186 191
2 186 191
3 186 191
0 187 191
1 187 191
2 187 191
3 187 191
0 188 191
1 188 191
2 188 191
3 188 191
0 189 191
1 189 191
2 189 191
3 189 191
0 190 191
1 190 191
2 190 191
3 190 191
0 191 191
1 191 191
2 191 191
3 191 191
0 192 191
1 192 191
2 192 191
3 192 191
0 193 191
1 193 191
2 193 191
3 193 191
0 194 191
1 194 191
2 194 191
3 194 191
0 195 191
1 195 191
2 195 191
3 195 191
0 196 191
1 196 191
2 196 191
3 196 191
0 197 191
1 197 191
2 197 191
3 197 191
0 198 191
1 198 191
2 198 191
3 198 191
0 199 191
1 199 191
2 199 191
3 199 191
0 132 192
1 132 192
2 132 192
3 132 192
0 133 192
1 133 192
2 133 192
3 133 192
0 134 192
1 134 192
2 134 192
3 134 192
0 135 192
1 135 192
2 135 192
3 135 192
0 136 192
1 136 192
2 136 192
3 136 192
0 137 192
1 137 192
2 137 192
3 137 192
0 138 192
1 138 192
2 138 192
3 138 192
0 139 192
1 139 192
2 139 192
3 139 192
0 140 192
1 140 192
2 140 192
3 140 192
0 141 192
1 141 192
2 141 192
3 141 192
0 142 192
1 142 192
2 142 192
3 142 192
0 143 192
1 143 192
2 143 192
3 143 192
0 144 192
1 144 192
2 144 192
3 144 192
0 145 192
1 145 192
2 145 192
3 145 192
0 146 192
1 146 192
2 146 192
3 146 192
0 147 192
1 147 192
2 147 192
3 147 192
0 148 192
1 148 192
2 148 192
3 148 192
0 149 192
1 149 192
2 149 192
3 149 192
0 150 192
1 150 192
2 150 192
3 150 192
0 151 192
1 151 192
2 151 192
3 151 192
0 152 192
1 152 192
2 152 192
3 152 192
0 153 192
1 153 192
2 153 192
3 153 192
0 154 192
1 154 192
2 154 192
3 154 192
0 155 192
1 155 192
2 155 192
3 155 192
0 156 192
1 156 192
2 156 192
3 156 192
0 157 192
1 157 192
2 157 192
3 157 192
0 158 192
1 158 192
2 158 192
3 158 192
0 159 192
1 159 192
2 159 192
3 159 192
0 160 192
1 160 192
2 160 192
3 160 192
0 161 192
1 161 192
2 161 192
3 161 192
0 162 192
1 162 192
2 162 192
3 162 192
0 163 192
1 163 192
2 163 192
3 163 192
0 164 192
1 164 192
2 164 192
3 164 192
0 165 192
1 165 192
2 165 192
3 165 192
0 166 192
1 166 192
2 166 192
3 166 192
0 167 192
1 167 192
2 167 192
3 167 192
0 168 192
1 168 192
2 168 192
3 168 192
0 169 192
1 169 192
2 169 192
3 169 192
0 170 192
1 170 192
2 170 192
3 170 192
0 171 192
1 171 192
2 171 192
3 171 192
0 172 192
1 172 192
2 172 192
3 172 192
0 173 192
1 173 192
2 173 192
3 173 192
0 174 192
1 174 192
2 174 192
3 174 192
0 175 192
1 175 192
2 175 192
3 175 192
0 176 192
1 176 192
2 176 192
3 176 192
0 177 192
1 177 192
2 177 192
3 177 192
0 178 192
1 178 192
2 178 192
3 178 192
0 179 192
1 179 192
2 179 192
3 179 192
0 180 192
1 180 192
2 180 192
3 180 192
0 181 192
1 181 192
2 181 192
3 181 192
0 182 192
1 182 192
2 182 192
3 182 192
0 183 192
1 183 192
2 183 192
3 183 192
0 184 192
1 184 192
2 184 192
3 184 192
0 185 192
1 185 192
2 185 192
3 185 192
0 186 192
1 186 192
2 186 192
3 186 192
0 187 192
1 187 192
2 187 192
3 187 192
0 188 192
1 188 192
2 188 192
3 188 192
0 189 192
1 189 192
2 189 192
3 189 192
0 190 192
1 190 192
2 190 192
3 190 192
0 191 192
1 191 192
2 191 192
3 191 192
0 192 192
1 192 192
2 192 192
3 192 192
0 193 192
1 193 192
2 193 192
3 193 192
0 194 192
1 194 192
2 194 192
3 194 192
0 195 192
1 195 192
2 195 192
3 195 192
0 196 192
1 196 192
2 196 192
3 196 192
0 197 192
1 197 192
2 197 192
3 197 192
0 198 192
1 198 192
2 198 192
3 198 192
0 199 192
1 199 192
2 199 192
3 199 192
0 132 193
1 132 193
2 132 193
3 132 193
0 133 193
1 133 193
2 133 193
3 133 193
0 134 193
1 134 193
2 134 193
3 134 193
0 135 193
1 135 193
2 135 193
3 135 193
0 136 193
1 136 193
2 136 193
3 136 193
0 137 193
1 137 193
2 137 193
3 137 193
0 138 193
1 138 193
2 138 193
3 138 193
0 139 193
1 139 193
2 139 193
3 139 193
0 140 193
1 140 193
2 140 193
3 140 193
0 141 193
1 141 193
2 141 193
3 141 193
0 142 193
1 142 193
2 142 193
3 142 193
0 143 193
1 143 193
2 143 193
3 143 193
0 144 193
1 144 193
2 144 193
3 144 193
0 145 193
1 145 193
2 145 193
3 145 193
0 146 193
1 146 193
2 146 193
3 146 193
0 147 193
1 147 193
2 147 193
3 147 193
0 148 193
1 148 193
2 148 193
3 148 193
0 149 193
1 149 193
2 149 193
3 149 193
0 150 193
1 150 193
2 150 193
3 150 193
0 151 193
1 151 193
2 151 193
3 151 193
0 152 193
1 152 193
2 152 193
3 152 193
0 153 193
1 153 193
2 153 193
3 153 193
0 154 193
1 154 193
2 154 193
3 154 193
0 155 193
1 155 193
2 155 193
3 155 193
0 156 193
1 156 193
2 156 193
3 156 193
0 157 193
1 157 193
2 157 193
3 157 193
0 158 193
1 158 193
2 158 193
3 158 193
0 159 193
1 159 193
2 159 193
3 159 193
0 160 193
1 160 193
2 160 193
3 160 193
0 161 193
1 161 193
2 161 193
3 161 193
0 162 193
1 162 193
2 162 193
3 162 193
0 163 193
1 163 193
2 163 193
3 163 193
0 164 193
1 164 193
2 164 193
3 164 193
0 165 193
1 165 193
2 165 193
3 165 193
0 166 193
1 166 193
2 166 193
3 166 193
0 167 193
1 167 193
2 167 193
3 167 193
0 168 193
1 168 193
2 168 193
3 168 193
0 169 193
1 169 193
2 169 193
3 169 193
0 170 193
1 170 193
2 170 193
3 170 193
0 171 193
1 171 193
2 171 193
3 171 193
0 172 193
1 172 193
2 172 193
3 172 193
0 173 193
1 173 193
2 173 193
3 173 193
0 174 193
1 174 193
2 174 193
3 174 193
0 175 193
1 175 193
2 175 193
3 175 193
0 176 193
1 176 193
2 176 193
3 176 193
0 177 193
1 177 193
2 177 193
3 177 193
0 178 193
1 178 193
2 178 193
3 178 193
0 179 193
1 179 193
2 179 193
3 179 193
0 180 193
1 180 193
2 180 193
3 180 193
0 181 193
1 181 193
2 181 193
3 181 193
0 182 193
1 182 193
2 182 193
3 182 193
0 183 193
1 183 193
2 183 193
3 183 193
0 184 193
1 184 193
2 184 193
3 184 193
0 185 193
1 185 193
2 185 193
3 185 193
0 186 193
1 186 193
2 186 193
3 186 193
0 187 193
1 187 193
2 187 193
3 187 193
0 188 193
1 188 193
2 188 193
3 188 193
0 189 193
1 189 193
2 189 193
3 189 193
0 190 193
1 190 193
2 190 193
3 190 193
0 191 193
1 191 193
2 191 193
3 191 193
0 192 193
1 192 193
2 192 193
3 192 193
0 193 193
1 193 193
2 193 193
3 193 193
0 194 193
1 194 193
2 194 193
3 194 193
0 195 193
1 195 193
2 195 193
3 195 193
0 196 193
1 196 193
2 196 193
3 196 193
0 197 193
1 197 193
2 197 193
3 197 193
0 198 193
1 198 193
2 198 193
3 198 193
0 199 193
1 199 193
2 199 193
3 199 193
0 132 194
1 132 194
2 132 194
3 132 194
0 133 194
1 133 194
2 133 194
3 133 194
0 134 194
1 134 194
2 134 194
3 134 194
0 135 194
1 135 194
2 135 194
3 135 194
0 136 194
1 136 194
2 136 194
3 136 194
0 137 194
1 137 194
2 137 194
3 137 194
0 138 194
1 138 194
2 138 194
3 138 194
0 139 194
1 139 194
2 139 194
3 139 194
0 140 194
1 140 194
2 140 194
3 140 194
0 141 194
1 141 194
2 141 194
3 141 194
0 142 194
1 142 194
2 142 194
3 142 194
0 143 194
1 143 194
2 143 194
3 143 194
0 144 194
1 144 194
2 144 194
3 144 194
0 145 194
1 145 194
2 145 194
3 145 194
0 146 194
1 146 194
2 146 194
3 146 194
0 147 194
1 147 194
2 147 194
3 147 194
0 148 194
1 148 194
2 148 194
3 148 194
0 149 194
1 149 194
2 149 194
3 149 194
0 150 194
1 150 194
2 150 194
3 150 194
0 151 194
1 151 194
2 151 194
3 151 194
0 152 194
1 152 194
2 152 194
3 152 194
0 153 194
1 153 194
2 153 194
3 153 194
0 154 194
1 154 194
2 154 194
3 154 194
0 155 194
1 155 194
2 155 194
3 155 194
0 156 194
1 156 194
2 156 194
3 156 194
0 157 194
1 157 194
2 157 194
3 157 194
0 158 194
1 158 194
2 158 194
3 158 194
0 159 194
1 159 194
2 159 194
3 159 194
0 160 194
1 160 194
2 160 194
3 160 194
0 161 194
1 161 194
2 161 194
3 161 194
0 162 194
1 162 194
2 162 194
3 162 194
0 163 194
1 163 194
2 163 194
3 163 194
0 164 194
1 164 194
2 164 194
3 164 194
0 165 194
1 165 194
2 165 194
3 165 194
0 166 194
1 166 194
2 166 194
3 166 194
0 167 194
1 167 194
2 167 194
3 167 194
0 168 194
1 168 194
2 168 194
3 168 194
0 169 194
1 169 194
2 169 194
3 169 194
0 170 194
1 170 194
2 170 194
3 170 194
0 171 194
1 171 194
2 171 194
3 171 194
0 172 194
1 172 194
2 172 194
3 172 194
0 173 194
1 173 194
2 173 194
3 173 194
0 174 194
1 174 194
2 174 194
3 174 194
0 175 194
1 175 194
2 175 194
3 175 194
0 176 194
1 176 194
2 176 194
3 176 194
0 177 194
1 177 194
2 177 194
3 177 194
0 178 194
1 178 194
2 178 194
3 178 194
0 179 194
1 179 194
2 179 194
3 179 194
0 180 194
1 180 194
2 180 194
3 180 194
0 181 194
1 181 194
2 181 194
3 181 194
0 182 194
1 182 194
2 182 194
3 182 194
0 183 194
1 183 194
2 183 194
3 183 194
0 184 194
1 184 194
2 184 194
3 184 194
0 185 194
1 185 194
2 185 194
3 185 194
0 186 194
1 186 194
2 186 194
3 186 194
0 187 194
1 187 194
2 187 194
3 187 194
0 188 194
1 188 194
2 188 194
3 188 194
0 189 194
1 189 194
2 189 194
3 189 194
0 190 194
1 190 194
2 190 194
3 190 194
0 191 194
1 191 194
2 191 194
3 191 194
0 192 194
1 192 194
2 192 194
3 192 194
0 193 194
1 193 194
2 193 194
3 193 194
0 194 194
1 194 194
2 194 194
3 194 194
0 195 194
1 195 194
2 195 194
3 195 194
0 196 194
1 196 194
2 196 194
3 196 194
0 197 194
1 197 194
2 197 194
3 197 194
0 198 194
1 198 194
2 198 194
3 198 194
0 199 194
1 199 194
2 199 194
3 199 194
0 132 195
1 132 195
2 132 195
3 132 195
0 133 195
1 133 195
2 133 195
3 133 195
0 134 195
1 134 195
2 134 195
3 134 195
0 135 195
1 135 195
2 135 195
3 135 195
0 136 195
1 136 195
2 136 195
3 136 195
0 137 195
1 137 195
2 137 195
3 137 195
0 138 195
1 138 195
2 138 195
3 138 195
0 139 195
1 139 195
2 139 195
3 139 195
0 140 195
1 140 195
2 140 195
3 140 195
0 141 195
1 141 195
2 141 195
3 141 195
0 142 195
1 142 195
2 142 195
3 142 195
0 143 195
1 143 195
2 143 195
3 143 195
0 144 195
1 144 195
2 144 195
3 144 195
0 145 195
1 145 195
2 145 195
3 145 195
0 146 195
1 146 195
2 146 195
3 146 195
0 147 195
1 147 195
2 147 195
3 147 195
0 148 195
1 148 195
2 148 195
3 148 195
0 149 195
1 149 195
2 149 195
3 149 195
0 150 195
1 150 195
2 150 195
3 150 195
0 151 195
1 151 195
2 151 195
3 151 195
0 152 195
1 152 195
2 152 195
3 152 195
0 153 195
1 153 195
2 153 195
3 153 195
0 154 195
1 154 195
2 154 195
3 154 195
0 155 195
1 155 195
2 155 195
3 155 195
0 156 195
1 156 195
2 156 195
3 156 195
0 157 195
1 157 195
2 157 195
3 157 195
0 158 195
1 158 195
2 158 195
3 158 195
0 159 195
1 159 195
2 159 195
3 159 195
0 160 195
1 160 195
2 160 195
3 160 195
0 161 195
1 161 195
2 161 195
3 161 195
0 162 195
1 162 195
2 162 195
3 162 195
0 163 195
1 163 195
2 163 195
3 163 195
0 164 195
1 164 195
2 164 195
3 164 195
0 165 195
1 165 195
2 165 195
3 165 195
0 166 195
1 166 195
2 166 195
3 166 195
0 167 195
1 167 195
2 167 195
3 167 195
0 168 195
1 168 195
2 168 195
3 168 195
0 169 195
1 169 195
2 169 195
3 169 195
0 170 195
1 170 195
2 170 195
3 170 195
0 171 195
1 171 195
2 171 195
3 171 195
0 172 195
1 172 195
2 172 195
3 172 195
0 173 195
1 173 195
2 173 195
3 173 195
0 174 195
1 174 195
2 174 195
3 174 195
0 175 195
1 175 195
2 175 195
3 175 195
0 176 195
1 176 195
2 176 195
3 176 195
0 177 195
1 177 195
2 177 195
3 177 195
0 178 195
1 178 195
2 178 195
3 178 195
0 179 195
1 179 195
2 179 195
3 179 195
0 180 195
1 180 195
2 180 195
3 180 195
0 181 195
1 181 195
2 181 195
3 181 195
0 182 195
1 182 195
2 182 195
3 182 195
0 183 195
1 183 195
2 183 195
3 183 195
0 184 195
1 184 195
2 184 195
3 184 195
0 185 195
1 185 195
2 185 195
3 185 195
0 186 195
1 186 195
2 186 195
3 186 195
0 187 195
1 187 195
2 187 195
3 187 195
0 188 195
1 188 195
2 188 195
3 188 195
0 189 195
1 189 195
2 189 195
3 189 195
0 190 195
1 190 195
2 190 195
3 190 195
0 191 195
1 191 195
2 191 195
3 191 195
0 192 195
1 192 195
2 192 195
3 192 195
0 193 195
1 193 195
2 193 195
3 193 195
0 194 195
1 194 195
2 194 195
3 194 195
0 195 195
1 195 195
2 195 195
3 195 195
0 196 195
1 196 195
2 196 195
3 196 195
0 197 195
1 197 195
2 197 195
3 197 195
0 198 195
1 198 195
2 198 195
3 198 195
0 199 195
1 199 195
2 199 195
3 199 195
0 132 196
1 132 196
2 132 196
3 132 196
0 133 196
1 133 196
2 133 196
3 133 196
0 134 196
1 134 196
2 134 196
3 134 196
0 135 196
1 135 196
2 135 196
3 135 196
0 136 196
1 136 196
2 136 196
3 136 196
0 137 196
1 137 196
2 137 196
3 137 196
0 138 196
1 138 196
2 138 196
3 138 196
0 139 196
1 139 196
2 139 196
3 139 196
0 140 196
1 140 196
2 140 196
3 140 196
0 141 196
1 141 196
2 141 196
3 141 196
0 142 196
1 142 196
2 142 196
3 142 196
0 143 196
1 143 196
2 143 196
3 143 196
0 144 196
1 144 196
2 144 196
3 144 196
0 145 196
1 145 196
2 145 196
3 145 196
0 146 196
1 146 196
2 146 196
3 146 196
0 147 196
1 147 196
2 147 196
3 147 196
0 148 196
1 148 196
2 148 196
3 148 196
0 149 196
1 149 196
2 149 196
3 149 196
0 150 196
1 150 196
2 150 196
3 150 196
0 151 196
1 151 196
2 151 196
3 151 196
0 152 196
1 152 196
2 152 196
3 152 196
0 153 196
1 153 196
2 153 196
3 153 196
0 154 196
1 154 196
2 154 196
3 154 196
0 155 196
1 155 196
2 155 196
3 155 196
0 156 196
1 156 196
2 156 196
3 156 196
0 157 196
1 157 196
2 157 196
3 157 196
0 158 196
1 158 196
2 158 196
3 158 196
0 159 196
1 159 196
2 159 196
3 159 196
0 160 196
1 160 196
2 160 196
3 160 196
0 161 196
1 161 196
2 161 196
3 161 196
0 162 196
1 162 196
2 162 196
3 162 196
0 163 196
1 163 196
2 163 196
3 163 196
0 164 196
1 164 196
2 164 196
3 164 196
0 165 196
1 165 196
2 165 196
3 165 196
0 166 196
1 166 196
2 166 196
3 166 196
0 167 196
1 167 196
2 167 196
3 167 196
0 168 196
1 168 196
2 168 196
3 168 196
0 169 196
1 169 196
2 169 196
3 169 196
0 170 196
1 170 196
2 170 196
3 170 196
0 171 196
1 171 196
2 171 196
3 171 196
0 172 196
1 172 196
2 172 196
3 172 196
0 173 196
1 173 196
2 173 196
3 173 196
0 174 196
1 174 196
2 174 196
3 174 196
0 175 196
1 175 196
2 175 196
3 175 196
0 176 196
1 176 196
2 176 196
3 176 196
0 177 196
1 177 196
2 177 196
3 177 196
0 178 196
1 178 196
2 178 196
3 178 196
0 179 196
1 179 196
2 179 196
3 179 196
0 180 196
1 180 196
2 180 196
3 180 196
0 181 196
1 181 196
2 181 196
3 181 196
0 182 196
1 182 196
2 182 196
3 182 196
0 183 196
1 183 196
2 183 196
3 183 196
0 184 196
1 184 196
2 184 196
3 184 196
0 185 196
1 185 196
2 185 196
3 185 196
0 186 196
1 186 196
2 186 196
3 186 196
0 187 196
1 187 196
2 187 196
3 187 196
0 188 196
1 188 196
2 188 196
3 188 196
0 189 196
1 189 196
2 189 196
3 189 196
0 190 196
1 190 196
2 190 196
3 190 196
0 191 196
1 191 196
2 191 196
3 191 196
0 192 196
1 192 196
2 192 196
3 192 196
0 193 196
1 193 196
2 193 196
3 193 196
0 194 196
1 194 196
2 194 196
3 194 196
0 195 196
1 195 196
2 195 196
3 195 196
0 196 196
1 196 196
2 196 196
3 196 196
0 197 196
1 197 196
2 197 196
3 197 196
0 198 196
1 198 196
2 198 196
3 198 196
0 199 196
1 199 196
2 199 196
3 199 196
0 132 197
1 132 197
2 132 197
3 132 197
0 133 197
1 133 197
2 133 197
3 133 197
0 134 197
1 134 197
2 134 197
3 134 197
0 135 197
1 135 197
2 135 197
3 135 197
0 136 197
1 136 197
2 136 197
3 136 197
0 137 197
1 137 197
2 137 197
3 137 197
0 138 197
1 138 197
2 138 197
3 138 197
0 139 197
1 139 197
2 139 197
3 139 197
0 140 197
1 140 197
2 140 197
3 140 197
0 141 197
1 141 197
2 141 197
3 141 197
0 142 197
1 142 197
2 142 197
3 142 197
0 143 197
1 143 197
2 143 197
3 143 197
0 144 197
1 144 197
2 144 197
3 144 197
0 145 197
1 145 197
2 145 197
3 145 197
0 146 197
1 146 197
2 146 197
3 146 197
0 147 197
1 147 197
2 147 197
3 147 197
0 148 197
1 148 197
2 148 197
3 148 197
0 149 197
1 149 197
2 149 197
3 149 197
0 150 197
1 150 197
2 150 197
3 150 197
0 151 197
1 151 197
2 151 197
3 151 197
0 152 197
1 152 197
2 152 197
3 152 197
0 153 197
1 153 197
2 153 197
3 153 197
0 154 197
1 154 197
2 154 197
3 154 197
0 155 197
1 155 197
2 155 197
3 155 197
0 156 197
1 156 197
2 156 197
3 156 197
0 157 197
1 157 197
2 157 197
3 157 197
0 158 197
1 158 197
2 158 197
3 158 197
0 159 197
1 159 197
2 159 197
3 159 197
0 160 197
1 160 197
2 160 197
3 160 197
0 161 197
1 161 197
2 161 197
3 161 197
0 162 197
1 162 197
2 162 197
3 162 197
0 163 197
1 163 197
2 163 197
3 163 197
0 164 197
1 164 197
2 164 197
3 164 197
0 165 197
1 165 197
2 165 197
3 165 197
0 166 197
1 166 197
2 166 197
3 166 197
0 167 197
1 167 197
2 167 197
3 167 197
0 168 197
1 168 197
2 168 197
3 168 197
0 169 197
1 169 197
2 169 197
3 169 197
0 170 197
1 170 197
2 170 197
3 170 197
0 171 197
1 171 197
2 171 197
3 171 197
0 172 197
1 172 197
2 172 197
3 172 197
0 173 197
1 173 197
2 173 197
3 173 197
0 174 197
1 174 197
2 174 197
3 174 197
0 175 197
1 175 197
2 175 197
3 175 197
0 176 197
1 176 197
2 176 197
3 176 197
0 177 197
1 177 197
2 177 197
3 177 197
0 178 197
1 178 197
2 178 197
3 178 197
0 179 197
1 179 197
2 179 197
3 179 197
0 180 197
1 180 197
2 180 197
3 180 197
0 181 197
1 181 197
2 181 197
3 181 197
0 182 197
1 182 197
2 182 197
3 182 197
0 183 197
1 183 197
2 183 197
3 183 197
0 184 197
1 184 197
2 184 197
3 184 197
0 185 197
1 185 197
2 185 197
3 185 197
0 186 197
1 186 197
2 186 197
3 186 197
0 187 197
1 187 197
2 187 197
3 187 197
0 188 197
1 188 197
2 188 197
3 188 197
0 189 197
1 189 197
2 189 197
3 189 197
0 190 197
1 190 197
2 190 197
3 190 197
0 191 197
1 191 197
2 191 197
3 191 197
0 192 197
1 192 197
2 192 197
3 192 197
0 193 197
1 193 197
2 193 197
3 193 197
0 194 197
1 194 197
2 194 197
3 194 197
0 195 197
1 195 197
2 195 197
3 195 197
0 196 197
1 196 197
2 196 197
3 196 197
0 197 197
1 197 197
2 197 197
3 197 197
0 198 197
1 198 197
2 198 197
3 198 197
0 199 197
1 199 197
2 199 197
3 199 197
0 132 198
1 132 198
2 132 198
3 132 198
0 133 198
1 133 198
2 133 198
3 133 198
0 134 198
1 134 198
2 134 198
3 134 198
0 135 198
1 135 198
2 135 198
3 135 198
0 136 198
1 136 198
2 136 198
3 136 198
0 137 198
1 137 198
2 137 198
3 137 198
0 138 198
1 138 198
2 138 198
3 138 198
0 139 198
1 139 198
2 139 198
3 139 198
0 140 198
1 140 198
2 140 198
3 140 198
0 141 198
1 141 198
2 141 198
3 141 198
0 142 198
1 142 198
2 142 198
3 142 198
0 143 198
1 143 198
2 143 198
3 143 198
0 144 198
1 144 198
2 144 198
3 144 198
0 145 198
1 145 198
2 145 198
3 145 198
0 146 198
1 146 198
2 146 198
3 146 198
0 147 198
1 147 198
2 147 198
3 147 198
0 148 198
1 148 198
2 148 198
3 148 198
0 149 198
1 149 198
2 149 198
3 149 198
0 150 198
1 150 198
2 150 198
3 150 198
0 151 198
1 151 198
2 151 198
3 151 198
0 152 198
1 152 198
2 152 198
3 152 198
0 153 198
1 153 198
2 153 198
3 153 198
0 154 198
1 154 198
2 154 198
3 154 198
0 155 198
1 155 198
2 155 198
3 155 198
0 156 198
1 156 198
2 156 198
3 156 198
0 157 198
1 157 198
2 157 198
3 157 198
0 158 198
1 158 198
2 158 198
3 158 198
0 159 198
1 159 198
2 159 198
3 159 198
0 160 198
1 160 198
2 160 198
3 160 198
0 161 198
1 161 198
2 161 198
3 161 198
0 162 198
1 162 198
2 162 198
3 162 198
0 163 198
1 163 198
2 163 198
3 163 198
0 164 198
1 164 198
2 164 198
3 164 198
0 165 198
1 165 198
2 165 198
3 165 198
0 166 198
1 166 198
2 166 198
3 166 198
0 167 198
1 167 198
2 167 198
3 167 198
0 168 198
1 168 198
2 168 198
3 168 198
0 169 198
1 169 198
2 169 198
3 169 198
0 170 198
1 170 198
2 170 198
3 170 198
0 171 198
1 171 198
2 171 198
3 171 198
0 172 198
1 172 198
2 172 198
3 172 198
0 173 198
1 173 198
2 173 198
3 173 198
0 174 198
1 174 198
2 174 198
3 174 198
0 175 198
1 175 198
2 175 198
3 175 198
0 176 198
1 176 198
2 176 198
3 176 198
0 177 198
1 177 198
2 177 198
3 177 198
0 178 198
1 178 198
2 178 198
3 178 198
0 179 198
1 179 198
2 179 198
3 179 198
0 180 198
1 180 198
2 180 198
3 180 198
0 181 198
1 181 198
2 181 198
3 181 198
0 182 198
1 182 198
2 182 198
3 182 198
0 183 198
1 183 198
2 183 198
3 183 198
0 184 198
1 184 198
2 184 198
3 184 198
0 185 198
1 185 198
2 185 198
3 185 198
0 186 198
1 186 198
2 186 198
3 186 198
0 187 198
1 187 198
2 187 198
3 187 198
0 188 198
1 188 198
2 188 198
3 188 198
0 189 198
1 189 198
2 189 198
3 189 198
0 190 198
1 190 198
2 190 198
3 190 198
0 191 198
1 191 198
2 191 198
3 191 198
0 192 198
1 192 198
2 192 198
3 192 198
0 193 198
1 193 198
2 193 198
3 193 198
0 194 198
1 194 198
2 194 198
3 194 198
0 195 198
1 195 198
2 195 198
3 195 198
0 196 198
1 196 198
2 196 198
3 196 198
0 197 198
1 197 198
2 197 198
3 197 198
0 198 198
1 198 198
2 198 198
3 198 198
0 199 198
1 199 198
2 199 198
3 199 198
0 132 199
1 132 199
2 132 199
3 132 199
0 133 199
1 133 199
2 133 199
3 133 199
0 134 199
1 134 199
2 134 199
3 134 199
0 135 199
1 135 199
2 135 199
3 135 199
0 136 199
1 136 199
2 136 199
3 136 199
0 137 199
1 137 199
2 137 199
3 137 199
0 138 199
1 138 199
2 138 199
3 138 199
0 139 199
1 139 199
2 139 199
3 139 199
0 140 199
1 140 199
2 140 199
3 140 199
0 141 199
1 141 199
2 141 199
3 141 199
0 142 199
1 142 199
2 142 199
3 142 199
0 143 199
1 143 199
2 143 199
3 143 199
0 144 199
1 144 199
2 144 199
3 144 199
0 145 199
1 145 199
2 145 199
3 145 199
0 146 199
1 146 199
2 146 199
3 146 199
0 147 199
1 147 199
2 147 199
3 147 199
0 148 199
1 148 199
2 148 199
3 148 199
0 149 199
1 149 199
2 149 199
3 149 199
0 150 199
1 150 199
2 150 199
3 150 199
0 151 199
1 151 199
2 151 199
3 151 199
0 152 199
1 152 199
2 152 199
3 152 199
0 153 199
1 153 199
2 153 199
3 153 199
0 154 199
1 154 199
2 154 199
3 154 199
0 155 199
1 155 199
2 155 199
3 155 199
0 156 199
1 156 199
2 156 199
3 156 199
0 157 199
1 157 199
2 157 199
3 157 199
0 158 199
1 158 199
2 158 199
3 158 199
0 159 199
1 159 199
2 159 199
3 159 199
0 160 199
1 160 199
2 160 199
3 160 199
0 161 199
1 161 199
2 161 199
3 161 199
0 162 199
1 162 199
2 162 199
3 162 199
0 163 199
1 163 199
2 163 199
3 163 199
0 164 199
1 164 199
2 164 199
3 164 199
0 165 199
1 165 199
2 165 199
3 165 199
0 166 199
1 166 199
2 166 199
3 166 199
0 167 199
1 167 199
2 167 199
3 167 199
0 168 199
1 168 199
2 168 199
3 168 199
0 169 199
1 169 199
2 169 199
3 169 199
0 170 199
1 170 199
2 170 199
3 170 199
0 171 199
1 171 199
2 171 199
3 171 199
0 172 199
1 172 199
2 172 199
3 172 199
0 173 199
1 173 199
2 173 199
3 173 199
0 174 199
1 174 199
2 174 199
3 174 199
0 175 199
1 175 199
2 175 199
3 175 199
0 176 199
1 176 199
2 176 199
3 176 199
0 177 199
1 177 199
2 177 199
3 177 199
0 178 199
1 178 199
2 178 199
3 178 199
0 179 199
1 179 199
2 179 199
3 179 199
0 180 199
1 180 199
2 180 199
3 180 199
0 181 199
1 181 199
2 181 199
3 181 199
0 182 199
1 182 199
2 182 199
3 182 199
0 183 199
1 183 199
2 183 199
3 183 199
0 184 199
1 184 199
2 184 199
3 184 199
0 185 199
1 185 199
2 185 199
3 185 199
0 186 199
1 186 199
2 186 199
3 186 199
0 187 199
1 187 199
2 187 199
3 187 199
0 188 199
1 188 199
2 188 199
3 188 199
0 189 199
1 189 199
2 189 199
3 189 199
0 190 199
1 190 199
2 190 199
3 190 199
0 191 199
1 191 199
2 191 199
3 191 199
0 192 199
1 192 199
2 192 199
3 192 199
0 193 199
1 193 199
2 193 199
3 193 199
0 194 199
1 194 199
2 194 199
3 194 199
0 195 199
1 195 199
2 195 199
3 195 199
0 196 199
1 196 199
2 196 199
3 196 199
0 197 199
1 197 199
2 197 199
3 197 199
0 198 199
1 198 199
2 198 199
3 198 199
0 199 199
1 199 199
2 199 199
3 199 199
        </DataArray>
      </Points>
      <PointData Scalars="scalar">
        <DataArray Name="scalar" type="Float32" format="ascii">
5
5
5
5
4
4
4
4
4
4
4
4
4
4
4
4
4
4
4
4
4
4
4
4
4
4
4
4
4
4
4
4
4
4
4
4
4
4
4
4
4
4
4
4
4
4
4
4
4
4
4
4
4
4
4
4
4
4
4
4
4
4
4
4
4
4
4
4
4
4
4
4
4
4
4
4
4
4
4
4
4
4
4
4
4
4
4
4
4
4
4
4
4
4
4
4
4
4
4
4
4
4
4
4
4
4
4
4
4
4
4
4
4
4
4
4
4
4
4
4
4
4
4
4
4
4
4
4
4
4
4
4
4
4
4
4
4
4
4
4
4
4
4
4
4
4
4
4
4
4
4
4
4
4
4
4
4
4
4
4
4
4
4
4
4
4
4
4
4
4
4
4
4
4
4
4
4
4
4
4
4
4
4
4
4
4
4
4
4
4
4
4
4
4
4
4
4
4
4
4
4
4
4
4
4
4
4
4
4
4
4
4
4
4
4
4
4
4
4
4
4
4
4
4
4
4
4
4
4
4
4
4
4
4
4
4
4
4
4
4
4
4
4
4
4
4
4
4
4
4
4
4
4
4
4
4
4
4
4
4
4
4
4
4
4
4
4
4
5
5
5
5
5
5
5
5
5
5
5
5
5
5
5
5
5
5
5
5
5
5
5
5
5
5
5
5
5
5
5
5
5
5
5
5
5
5
5
5
5
5
5
5
5
5
5
5
5
5
5
5
5
5
5
5
5
5
5
5
5
5
5
5
5
5
5
5
5
5
5
5
5
5
5
5
5
5
5
5
5
5
5
5
5
5
5
5
5
5
5
5
5
5
5
5
5
5
5
5
5
5
5
5
5
5
5
5
5
5
5
5
5
5
5
5
5
5
5
5
5
5
5
5
5
5
5
5
5
5
5
5
5
5
5
5
5
5
5
5
5
5
5
5
5
5
5
5
5
5
5
5
5
5
5
5
5
5
5
5
5
5
5
5
5
5
5
5
5
5
5
5
5
5
5
5
5
5
5
5
5
5
5
5
5
5
5
5
5
5
5
5
5
5
5
5
5
5
5
5
5
5
5
5
5
5
5
5
5
5
5
5
5
5
5
5
5
5
5
5
5
5
5
5
5
5
5
5
5
5
5
5
5
5
5
5
5
5
5
5
5
5
5
5
5
5
5
5
5
5
5
5
5
5
5
5
5
5
5
5
5
5
5
5
5
5
5
5
5
5
5
5
3
3
3
3
5
5
5
5
5
5
5
5
5
5
5
5
5
5
5
5
5
5
5
5
5
5
5
5
5
5
5
5
5
5
5
5
5
5
5
5
5
5
5
5
5
5
5
5
5
5
5
5
5
5
5
5
5
5
5
5
5
5
5
5
5
5
5
5
5
5
5
5
5
5
5
5
5
5
5
5
5
5
5
5
5
5
5
5
5
5
5
5
5
5
5
5
5
5
5
5
5
5
5
5
5
5
5
5
5
5
5
5
5
5
5
5
5
5
5
5
5
5
5
5
5
5
5
5
5
5
5
5
5
5
5
5
5
5
5
5
5
5
5
5
5
5
5
5
5
5
5
5
5
5
5
5
5
5
5
5
5
5
5
5
5
5
5
5
5
5
5
5
5
5
5
5
5
5
5
5
5
5
5
5
5
5
5
5
5
5
5
5
5
5
5
5
5
5
5
5
5
5
5
5
5
5
5
5
5
5
5
5
5
5
5
5
5
5
5
5
5
5
5
5
5
5
5
5
5
5
5
5
5
5
5
5
5
5
5
5
5
5
5
5
5
5
5
5
5
5
5
5
5
5
5
5
5
5
5
5
5
5
5
5
5
5
5
5
5
5
5
5
3
3
3
3
5
5
5
5
5
5
5
5
5
5
5
5
5
5
5
5
5
5
5
5
5
5
5
5
5
5
5
5
5
5
5
5
5
5
5
5
5
5
5
5
5
5
5
5
5
5
5
5
5
5
5
5
5
5
5
5
5
5
5
5
5
5
5
5
5
5
5
5
5
5
5
5
5
5
5
5
5
5
5
5
5
5
5
5
5
5
5
5
5
5
5
5
5
5
5
5
5
5
5
5
5
5
5
5
5
5
5
5
5
5
5
5
5
5
5
5
5
5
5
5
5
5
5
5
5
5
5
5
5
5
5
5
5
5
5
5
5
5
5
5
5
5
5
5
5
5
5
5
5
5
5
5
5
5
5
5
5
5
5
5
5
5
5
5
5
5
5
5
5
5
5
5
5
5
5
5
5
5
5
5
5
5
5
5
5
5
5
5
5
5
5
5
5
5
5
5
5
5
5
5
5
5
5
5
5
5
5
5
5
5
5
5
5
5
5
5
5
5
5
5
5
5
5
5
5
5
5
5
5
5
5
5
5
5
5
5
5
5
5
5
5
5
5
5
5
5
5
5
5
5
5
5
5
5
5
5
5
5
5
5
5
5
5
5
5
5
5
5
3
3
3
3
5
5
5
5
5
5
5
5
5
5
5
5
5
5
5
5
5
5
5
5
5
5
5
5
5
5
5
5
5
5
5
5
5
5
5
5
5
5
5
5
5
5
5
5
5
5
5
5
5
5
5
5
5
5
5
5
5
5
5
5
5
5
5
5
5
5
5
5
5
5
5
5
5
5
5
5
5
5
5
5
5
5
5
5
5
5
5
5
5
5
5
5
5
5
5
5
5
5
5
5
5
5
5
5
5
5
5
5
5
5
5
5
5
5
5
5
5
5
5
5
5
5
5
5
5
5
5
5
5
5
5
5
5
5
5
5
5
5
5
5
5
5
5
5
5
5
5
5
5
5
5
5
5
5
5
5
5
5
5
5
5
5
5
5
5
5
5
5
5
5
5
5
5
5
5
5
5
5
5
5
5
5
5
5
5
5
5
5
5
5
5
5
5
5
5
5
5
5
5
5
5
5
5
5
5
5
5
5
5
5
5
5
5
5
5
5
5
5
5
5
5
5
5
5
5
5
5
5
5
5
5
5
5
5
5
5
5
5
5
5
5
5
5
5
5
5
5
5
5
5
5
5
5
5
5
5
5
5
5
5
5
5
5
5
5
5
5
5
3
3
3
3
5
5
5
5
5
5
5
5
5
5
5
5
5
5
5
5
5
5
5
5
5
5
5
5
5
5
5
5
5
5
5
5
5
5
5
5
5
5
5
5
5
5
5
5
5
5
5
5
5
5
5
5
5
5
5
5
5
5
5
5
5
5
5
5
5
5
5
5
5
5
5
5
5
5
5
5
5
5
5
5
5
5
5
5
5
5
5
5
5
5
5
5
5
5
5
5
5
5
5
5
5
5
5
5
5
5
5
5
5
5
5
5
5
5
5
5
5
5
5
5
5
5
5
5
5
5
5
5
5
5
5
5
5
5
5
5
5
5
5
5
5
5
5
5
5
5
5
5
5
5
5
5
5
5
5
5
5
5
5
5
5
5
5
5
5
5
5
5
5
5
5
5
5
5
5
5
5
5
5
5
5
5
5
5
5
5
5
5
5
5
5
5
5
5
5
5
5
5
5
5
5
5
5
5
5
5
5
5
5
5
5
5
5
5
5
5
5
5
5
5
5
5
5
5
5
5
5
5
5
5
5
5
5
5
5
5
5
5
5
5
5
5
5
5
5
5
5
5
5
5
5
5
5
5
5
5
5
5
5
5
5
5
5
5
5
5
5
5
3
3
3
3
5
5
5
5
5
5
5
5
5
5
5
5
5
5
5
5
5
5
5
5
5
5
5
5
5
5
5
5
5
5
5
5
5
5
5
5
5
5
5
5
5
5
5
5
5
5
5
5
5
5
5
5
5
5
5
5
5
5
5
5
5
5
5
5
5
5
5
5
5
5
5
5
5
5
5
5
5
5
5
5
5
5
5
5
5
5
5
5
5
5
5
5
5
5
5
5
5
5
5
5
5
5
5
5
5
5
5
5
5
5
5
5
5
5
5
5
5
5
5
5
5
5
5
5
5
5
5
5
5
5
5
5
5
5
5
5
5
5
5
5
5
5
5
5
5
5
5
5
5
5
5
5
5
5
5
5
5
5
5
5
5
5
5
5
5
5
5
5
5
5
5
5
5
5
5
5
5
5
5
5
5
5
5
5
5
5
5
5
5
5
5
5
5
5
5
5
5
5
5
5
5
5
5
5
5
5
5
5
5
5
5
5
5
5
5
5
5
5
5
5
5
5
5
5
5
5
5
5
5
5
5
5
5
5
5
5
5
5
5
5
5
5
5
5
5
5
5
5
5
5
5
5
5
5
5
5
5
5
5
5
5
5
5
5
5
5
5
5
3
3
3
3
5
5
5
5
5
5
5
5
5
5
5
5
5
5
5
5
5
5
5
5
5
5
5
5
5
5
5
5
5
5
5
5
5
5
5
5
5
5
5
5
5
5
5
5
5
5
5
5
5
5
5
5
5
5
5
5
5
5
5
5
5
5
5
5
5
5
5
5
5
5
5
5
5
5
5
5
5
5
5
5
5
5
5
5
5
5
5
5
5
5
5
5
5
5
5
5
5
5
5
5
5
5
5
5
5
5
5
5
5
5
5
5
5
5
5
5
5
5
5
5
5
5
5
5
5
5
5
5
5
5
5
5
5
5
5
5
5
5
5
5
5
5
5
5
5
5
5
5
5
5
5
5
5
5
5
5
5
5
5
5
5
5
5
5
5
5
5
5
5
5
5
5
5
5
5
5
5
5
5
5
5
5
5
5
5
5
5
5
5
5
5
5
5
5
5
5
5
5
5
5
5
5
5
5
5
5
5
5
5
5
5
5
5
5
5
5
5
5
5
5
5
5
5
5
5
5
5
5
5
5
5
5
5
5
5
5
5
5
5
5
5
5
5
5
5
5
5
5
5
5
5
5
5
5
5
5
5
5
5
5
5
5
5
5
5
5
5
5
3
3
3
3
5
5
5
5
5
5
5
5
5
5
5
5
5
5
5
5
5
5
5
5
5
5
5
5
5
5
5
5
5
5
5
5
5
5
5
5
5
5
5
5
5
5
5
5
5
5
5
5
5
5
5
5
5
5
5
5
5
5
5
5
5
5
5
5
5
5
5
5
5
5
5
5
5
5
5
5
5
5
5
5
5
5
5
5
5
5
5
5
5
5
5
5
5
5
5
5
5
5
5
5
5
5
5
5
5
5
5
5
5
5
5
5
5
5
5
5
5
5
5
5
5
5
5
5
5
5
5
5
5
5
5
5
5
5
5
5
5
5
5
5
5
5
5
5
5
5
5
5
5
5
5
5
5
5
5
5
5
5
5
5
5
5
5
5
5
5
5
5
5
5
5
5
5
5
5
5
5
5
5
5
5
5
5
5
5
5
5
5
5
5
5
5
5
5
5
5
5
5
5
5
5
5
5
5
5
5
5
5
5
5
5
5
5
5
5
5
5
5
5
5
5
5
5
5
5
5
5
5
5
5
5
5
5
5
5
5
5
5
5
5
5
5
5
5
5
5
5
5
5
5
5
5
5
5
5
5
5
5
5
5
5
5
5
5
5
5
5
5
3
3
3
3
5
5
5
5
5
5
5
5
5
5
5
5
5
5
5
5
5
5
5
5
5
5
5
5
5
5
5
5
5
5
5
5
5
5
5
5
5
5
5
5
5
5
5
5
5
5
5
5
5
5
5
5
5
5
5
5
5
5
5
5
5
5
5
5
5
5
5
5
5
5
5
5
5
5
5
5
5
5
5
5
5
5
5
5
5
5
5
5
5
5
5
5
5
5
5
5
5
5
5
5
5
5
5
5
5
5
5
5
5
5
5
5
5
5
5
5
5
5
5
5
5
5
5
5
5
5
5
5
5
5
5
5
5
5
5
5
5
5
5
5
5
5
5
5
5
5
5
5
5
5
5
5
5
5
5
5
5
5
5
5
5
5
5
5
5
5
5
5
5
5
5
5
5
5
5
5
5
5
5
5
5
5
5
5
5
5
5
5
5
5
5
5
5
5
5
5
5
5
5
5
5
5
5
5
5
5
5
5
5
5
5
5
5
5
5
5
5
5
5
5
5
5
5
5
5
5
5
5
5
5
5
5
5
5
5
5
5
5
5
5
5
5
5
5
5
5
5
5
5
5
5
5
5
5
5
5
5
5
5
5
5
5
5
5
5
5
5
5
3
3
3
3
5
5
5
5
5
5
5
5
5
5
5
5
5
5
5
5
5
5
5
5
5
5
5
5
5
5
5
5
5
5
5
5
5
5
5
5
5
5
5
5
5
5
5
5
5
5
5
5
5
5
5
5
5
5
5
5
5
5
5
5
5
5
5
5
5
5
5
5
5
5
5
5
5
5
5
5
5
5
5
5
5
5
5
5
5
5
5
5
5
5
5
5
5
5
5
5
5
5
5
5
5
5
5
5
5
5
5
5
5
5
5
5
5
5
5
5
5
5
5
5
5
5
5
5
5
5
5
5
5
5
5
5
5
5
5
5
5
5
5
5
5
5
5
5
5
5
5
5
5
5
5
5
5
5
5
5
5
5
5
5
5
5
5
5
5
5
5
5
5
5
5
5
5
5
5
5
5
5
5
5
5
5
5
5
5
5
5
5
5
5
5
5
5
5
5
5
5
5
5
5
5
5
5
5
5
5
5
5
5
5
5
5
5
5
5
5
5
5
5
5
5
5
5
5
5
5
5
5
5
5
5
5
5
5
5
5
5
5
5
5
5
5
5
5
5
5
5
5
5
5
5
5
5
5
5
5
5
5
5
5
5
5
5
5
5
5
5
5
3
3
3
3
5
5
5
5
5
5
5
5
5
5
5
5
5
5
5
5
5
5
5
5
5
5
5
5
5
5
5
5
5
5
5
5
5
5
5
5
5
5
5
5
5
5
5
5
5
5
5
5
5
5
5
5
5
5
5
5
5
5
5
5
5
5
5
5
5
5
5
5
5
5
5
5
5
5
5
5
5
5
5
5
5
5
5
5
5
5
5
5
5
5
5
5
5
5
5
5
5
5
5
5
5
5
5
5
5
5
5
5
5
5
5
5
5
5
5
5
5
5
5
5
5
5
5
5
5
5
5
5
5
5
5
5
5
5
5
5
5
5
5
5
5
5
5
5
5
5
5
5
5
5
5
5
5
5
5
5
5
5
5
5
5
5
5
5
5
5
5
5
5
5
5
5
5
5
5
5
5
5
5
5
5
5
5
5
5
5
5
5
5
5
5
5
5
5
5
5
5
5
5
5
5
5
5
5
5
5
5
5
5
5
5
5
5
5
5
5
5
5
5
5
5
5
5
5
5
5
5
5
5
5
5
5
5
5
5
5
5
5
5
5
5
5
5
5
5
5
5
5
5
5
5
5
5
5
5
5
5
5
5
5
5
5
5
5
5
5
5
5
3
3
3
3
5
5
5
5
5
5
5
5
5
5
5
5
5
5
5
5
5
5
5
5
5
5
5
5
5
5
5
5
5
5
5
5
5
5
5
5
5
5
5
5
5
5
5
5
5
5
5
5
5
5
5
5
5
5
5
5
5
5
5
5
5
5
5
5
5
5
5
5
5
5
5
5
5
5
5
5
5
5
5
5
5
5
5
5
5
5
5
5
5
5
5
5
5
5
5
5
5
5
5
5
5
5
5
5
5
5
5
5
5
5
5
5
5
5
5
5
5
5
5
5
5
5
5
5
5
5
5
5
5
5
5
5
5
5
5
5
5
5
5
5
5
5
5
5
5
5
5
5
5
5
5
5
5
5
5
5
5
5
5
5
5
5
5
5
5
5
5
5
5
5
5
5
5
5
5
5
5
5
5
5
5
5
5
5
5
5
5
5
5
5
5
5
5
5
5
5
5
5
5
5
5
5
5
5
5
5
5
5
5
5
5
5
5
5
5
5
5
5
5
5
5
5
5
5
5
5
5
5
5
5
5
5
5
5
5
5
5
5
5
5
5
5
5
5
5
5
5
5
5
5
5
5
5
5
5
5
5
5
5
5
5
5
5
5
5
5
5
5
3
3
3
3
5
5
5
5
5
5
5
5
5
5
5
5
5
5
5
5
5
5
5
5
5
5
5
5
5
5
5
5
5
5
5
5
5
5
5
5
5
5
5
5
5
5
5
5
5
5
5
5
5
5
5
5
5
5
5
5
5
5
5
5
5
5
5
5
5
5
5
5
5
5
5
5
5
5
5
5
5
5
5
5
5
5
5
5
5
5
5
5
5
5
5
5
5
5
5
5
5
5
5
5
5
5
5
5
5
5
5
5
5
5
5
5
5
5
5
5
5
5
5
5
5
5
5
5
5
5
5
5
5
5
5
5
5
5
5
5
5
5
5
5
5
5
5
5
5
5
5
5
5
5
5
5
5
5
5
5
5
5
5
5
5
5
5
5
5
5
5
5
5
5
5
5
5
5
5
5
5
5
5
5
5
5
5
5
5
5
5
5
5
5
5
5
5
5
5
5
5
5
5
5
5
5
5
5
5
5
5
5
5
5
5
5
5
5
5
5
5
5
5
5
5
5
5
5
5
5
5
5
5
5
5
5
5
5
5
5
5
5
5
5
5
5
5
5
5
5
5
5
5
5
5
5
5
5
5
5
5
5
5
5
5
5
5
5
5
5
5
5
3
3
3
3
5
5
5
5
5
5
5
5
5
5
5
5
5
5
5
5
5
5
5
5
5
5
5
5
5
5
5
5
5
5
5
5
5
5
5
5
5
5
5
5
5
5
5
5
5
5
5
5
5
5
5
5
5
5
5
5
5
5
5
5
5
5
5
5
5
5
5
5
5
5
5
5
5
5
5
5
5
5
5
5
5
5
5
5
5
5
5
5
5
5
5
5
5
5
5
5
5
5
5
5
5
5
5
5
5
5
5
5
5
5
5
5
5
5
5
5
5
5
5
5
5
5
5
5
5
5
5
5
5
5
5
5
5
5
5
5
5
5
5
5
5
5
5
5
5
5
5
5
5
5
5
5
5
5
5
5
5
5
5
5
5
5
5
5
5
5
5
5
5
5
5
5
5
5
5
5
5
5
5
5
5
5
5
5
5
5
5
5
5
5
5
5
5
5
5
5
5
5
5
5
5
5
5
5
5
5
5
5
5
5
5
5
5
5
5
5
5
5
5
5
5
5
5
5
5
5
5
5
5
5
5
5
5
5
5
5
5
5
5
5
5
5
5
5
5
5
5
5
5
5
5
5
5
5
5
5
5
5
5
5
5
5
5
5
5
5
5
5
3
3
3
3
5
5
5
5
5
5
5
5
5
5
5
5
5
5
5
5
5
5
5
5
5
5
5
5
5
5
5
5
5
5
5
5
5
5
5
5
5
5
5
5
5
5
5
5
5
5
5
5
5
5
5
5
5
5
5
5
5
5
5
5
5
5
5
5
5
5
5
5
5
5
5
5
5
5
5
5
5
5
5
5
5
5
5
5
5
5
5
5
5
5
5
5
5
5
5
5
5
5
5
5
5
5
5
5
5
5
5
5
5
5
5
5
5
5
5
5
5
5
5
5
5
5
5
5
5
5
5
5
5
5
5
5
5
5
5
5
5
5
5
5
5
5
5
5
5
5
5
5
5
5
5
5
5
5
5
5
5
5
5
5
5
5
5
5
5
5
5
5
5
5
5
5
5
5
5
5
5
5
5
5
5
5
5
5
5
5
5
5
5
5
5
5
5
5
5
5
5
5
5
5
5
5
5
5
5
5
5
5
5
5
5
5
5
5
5
5
5
5
5
5
5
5
5
5
5
5
5
5
5
5
5
5
5
5
5
5
5
5
5
5
5
5
5
5
5
5
5
5
5
5
5
5
5
5
5
5
5
5
5
5
5
5
5
5
5
5
5
5
3
3
3
3
5
5
5
5
5
5
5
5
5
5
5
5
5
5
5
5
5
5
5
5
5
5
5
5
5
5
5
5
5
5
5
5
5
5
5
5
5
5
5
5
5
5
5
5
5
5
5
5
5
5
5
5
5
5
5
5
5
5
5
5
5
5
5
5
5
5
5
5
5
5
5
5
5
5
5
5
5
5
5
5
5
5
5
5
5
5
5
5
5
5
5
5
5
5
5
5
5
5
5
5
5
5
5
5
5
5
5
5
5
5
5
5
5
5
5
5
5
5
5
5
5
5
5
5
5
5
5
5
5
5
5
5
5
5
5
5
5
5
5
5
5
5
5
5
5
5
5
5
5
5
5
5
5
5
5
5
5
5
5
5
5
5
5
5
5
5
5
5
5
5
5
5
5
5
5
5
5
5
5
5
5
5
5
5
5
5
5
5
5
5
5
5
5
5
5
5
5
5
5
5
5
5
5
5
5
5
5
5
5
5
5
5
5
5
5
5
5
5
5
5
5
5
5
5
5
5
5
5
5
5
5
5
5
5
5
5
5
5
5
5
5
5
5
5
5
5
5
5
5
5
5
5
5
5
5
5
5
5
5
5
5
5
5
5
5
5
5
5
3
3
3
3
5
5
5
5
5
5
5
5
5
5
5
5
5
5
5
5
5
5
5
5
5
5
5
5
5
5
5
5
5
5
5
5
5
5
5
5
5
5
5
5
5
5
5
5
5
5
5
5
5
5
5
5
5
5
5
5
5
5
5
5
5
5
5
5
5
5
5
5
5
5
5
5
5
5
5
5
5
5
5
5
5
5
5
5
5
5
5
5
5
5
5
5
5
5
5
5
5
5
5
5
5
5
5
5
5
5
5
5
5
5
5
5
5
5
5
5
5
5
5
5
5
5
5
5
5
5
5
5
5
5
5
5
5
5
5
5
5
5
5
5
5
5
5
5
5
5
5
5
5
5
5
5
5
5
5
5
5
5
5
5
5
5
5
5
5
5
5
5
5
5
5
5
5
5
5
5
5
5
5
5
5
5
5
5
5
5
5
5
5
5
5
5
5
5
5
5
5
5
5
5
5
5
5
5
5
5
5
5
5
5
5
5
5
5
5
5
5
5
5
5
5
5
5
5
5
5
5
5
5
5
5
5
5
5
5
5
5
5
5
5
5
5
5
5
5
5
5
5
5
5
5
5
5
5
5
5
5
5
5
5
5
5
5
5
5
5
5
5
3
3
3
3
5
5
5
5
5
5
5
5
5
5
5
5
5
5
5
5
5
5
5
5
5
5
5
5
5
5
5
5
5
5
5
5
5
5
5
5
5
5
5
5
5
5
5
5
5
5
5
5
5
5
5
5
5
5
5
5
5
5
5
5
5
5
5
5
5
5
5
5
5
5
5
5
5
5
5
5
5
5
5
5
5
5
5
5
5
5
5
5
5
5
5
5
5
5
5
5
5
5
5
5
5
5
5
5
5
5
5
5
5
5
5
5
5
5
5
5
5
5
5
5
5
5
5
5
5
5
5
5
5
5
5
5
5
5
5
5
5
5
5
5
5
5
5
5
5
5
5
5
5
5
5
5
5
5
5
5
5
5
5
5
5
5
5
5
5
5
5
5
5
5
5
5
5
5
5
5
5
5
5
5
5
5
5
5
5
5
5
5
5
5
5
5
5
5
5
5
5
5
5
5
5
5
5
5
5
5
5
5
5
5
5
5
5
5
5
5
5
5
5
5
5
5
5
5
5
5
5
5
5
5
5
5
5
5
5
5
5
5
5
5
5
5
5
5
5
5
5
5
5
5
5
5
5
5
5
5
5
5
5
5
5
5
5
5
5
5
5
5
3
3
3
3
5
5
5
5
5
5
5
5
5
5
5
5
5
5
5
5
5
5
5
5
5
5
5
5
5
5
5
5
5
5
5
5
5
5
5
5
5
5
5
5
5
5
5
5
5
5
5
5
5
5
5
5
5
5
5
5
5
5
5
5
5
5
5
5
5
5
5
5
5
5
5
5
5
5
5
5
5
5
5
5
5
5
5
5
5
5
5
5
5
5
5
5
5
5
5
5
5
5
5
5
5
5
5
5
5
5
5
5
5
5
5
5
5
5
5
5
5
5
5
5
5
5
5
5
5
5
5
5
5
5
5
5
5
5
5
5
5
5
5
5
5
5
5
5
5
5
5
5
5
5
5
5
5
5
5
5
5
5
5
5
5
5
5
5
5
5
5
5
5
5
5
5
5
5
5
5
5
5
5
5
5
5
5
5
5
5
5
5
5
5
5
5
5
5
5
5
5
5
5
5
5
5
5
5
5
5
5
5
5
5
5
5
5
5
5
5
5
5
5
5
5
5
5
5
5
5
5
5
5
5
5
5
5
5
5
5
5
5
5
5
5
5
5
5
5
5
5
5
5
5
5
5
5
5
5
5
5
5
5
5
5
5
5
5
5
5
5
5
3
3
3
3
5
5
5
5
5
5
5
5
5
5
5
5
5
5
5
5
5
5
5
5
5
5
5
5
5
5
5
5
5
5
5
5
5
5
5
5
5
5
5
5
5
5
5
5
5
5
5
5
5
5
5
5
5
5
5
5
5
5
5
5
5
5
5
5
5
5
5
5
5
5
5
5
5
5
5
5
5
5
5
5
5
5
5
5
5
5
5
5
5
5
5
5
5
5
5
5
5
5
5
5
5
5
5
5
5
5
5
5
5
5
5
5
5
5
5
5
5
5
5
5
5
5
5
5
5
5
5
5
5
5
5
5
5
5
5
5
5
5
5
5
5
5
5
5
5
5
5
5
5
5
5
5
5
5
5
5
5
5
5
5
5
5
5
5
5
5
5
5
5
5
5
5
5
5
5
5
5
5
5
5
5
5
5
5
5
5
5
5
5
5
5
5
5
5
5
5
5
5
5
5
5
5
5
5
5
5
5
5
5
5
5
5
5
5
5
5
5
5
5
5
5
5
5
5
5
5
5
5
5
5
5
5
5
5
5
5
5
5
5
5
5
5
5
5
5
5
5
5
5
5
5
5
5
5
5
5
5
5
5
5
5
5
5
5
5
5
5
5
3
3
3
3
5
5
5
5
5
5
5
5
5
5
5
5
5
5
5
5
5
5
5
5
5
5
5
5
5
5
5
5
5
5
5
5
5
5
5
5
5
5
5
5
5
5
5
5
5
5
5
5
5
5
5
5
5
5
5
5
5
5
5
5
5
5
5
5
5
5
5
5
5
5
5
5
5
5
5
5
5
5
5
5
5
5
5
5
5
5
5
5
5
5
5
5
5
5
5
5
5
5
5
5
5
5
5
5
5
5
5
5
5
5
5
5
5
5
5
5
5
5
5
5
5
5
5
5
5
5
5
5
5
5
5
5
5
5
5
5
5
5
5
5
5
5
5
5
5
5
5
5
5
5
5
5
5
5
5
5
5
5
5
5
5
5
5
5
5
5
5
5
5
5
5
5
5
5
5
5
5
5
5
5
5
5
5
5
5
5
5
5
5
5
5
5
5
5
5
5
5
5
5
5
5
5
5
5
5
5
5
5
5
5
5
5
5
5
5
5
5
5
5
5
5
5
5
5
5
5
5
5
5
5
5
5
5
5
5
5
5
5
5
5
5
5
5
5
5
5
5
5
5
5
5
5
5
5
5
5
5
5
5
5
5
5
5
5
5
5
5
5
3
3
3
3
5
5
5
5
5
5
5
5
5
5
5
5
5
5
5
5
5
5
5
5
5
5
5
5
5
5
5
5
5
5
5
5
5
5
5
5
5
5
5
5
5
5
5
5
5
5
5
5
5
5
5
5
5
5
5
5
5
5
5
5
5
5
5
5
5
5
5
5
5
5
5
5
5
5
5
5
5
5
5
5
5
5
5
5
5
5
5
5
5
5
5
5
5
5
5
5
5
5
5
5
5
5
5
5
5
5
5
5
5
5
5
5
5
5
5
5
5
5
5
5
5
5
5
5
5
5
5
5
5
5
5
5
5
5
5
5
5
5
5
5
5
5
5
5
5
5
5
5
5
5
5
5
5
5
5
5
5
5
5
5
5
5
5
5
5
5
5
5
5
5
5
5
5
5
5
5
5
5
5
5
5
5
5
5
5
5
5
5
5
5
5
5
5
5
5
5
5
5
5
5
5
5
5
5
5
5
5
5
5
5
5
5
5
5
5
5
5
5
5
5
5
5
5
5
5
5
5
5
5
5
5
5
5
5
5
5
5
5
5
5
5
5
5
5
5
5
5
5
5
5
5
5
5
5
5
5
5
5
5
5
5
5
5
5
5
5
5
5
3
3
3
3
5
5
5
5
5
5
5
5
5
5
5
5
5
5
5
5
5
5
5
5
5
5
5
5
5
5
5
5
5
5
5
5
5
5
5
5
5
5
5
5
5
5
5
5
5
5
5
5
5
5
5
5
5
5
5
5
5
5
5
5
5
5
5
5
5
5
5
5
5
5
5
5
5
5
5
5
5
5
5
5
5
5
5
5
5
5
5
5
5
5
5
5
5
5
5
5
5
5
5
5
5
5
5
5
5
5
5
5
5
5
5
5
5
5
5
5
5
5
5
5
5
5
5
5
5
5
5
5
5
5
5
5
5
5
5
5
5
5
5
5
5
5
5
5
5
5
5
5
5
5
5
5
5
5
5
5
5
5
5
5
5
5
5
5
5
5
5
5
5
5
5
5
5
5
5
5
5
5
5
5
5
5
5
5
5
5
5
5
5
5
5
5
5
5
5
5
5
5
5
5
5
5
5
5
5
5
5
5
5
5
5
5
5
5
5
5
5
5
5
5
5
5
5
5
5
5
5
5
5
5
5
5
5
5
5
5
5
5
5
5
5
5
5
5
5
5
5
5
5
5
5
5
5
5
5
5
5
5
5
5
5
5
5
5
5
5
5
5
3
3
3
3
5
5
5
5
5
5
5
5
5
5
5
5
5
5
5
5
5
5
5
5
5
5
5
5
5
5
5
5
5
5
5
5
5
5
5
5
5
5
5
5
5
5
5
5
5
5
5
5
5
5
5
5
5
5
5
5
5
5
5
5
5
5
5
5
5
5
5
5
5
5
5
5
5
5
5
5
5
5
5
5
5
5
5
5
5
5
5
5
5
5
5
5
5
5
5
5
5
5
5
5
5
5
5
5
5
5
5
5
5
5
5
5
5
5
5
5
5
5
5
5
5
5
5
5
5
5
5
5
5
5
5
5
5
5
5
5
5
5
5
5
5
5
5
5
5
5
5
5
5
5
5
5
5
5
5
5
5
5
5
5
5
5
5
5
5
5
5
5
5
5
5
5
5
5
5
5
5
5
5
5
5
5
5
5
5
5
5
5
5
5
5
5
5
5
5
5
5
5
5
5
5
5
5
5
5
5
5
5
5
5
5
5
5
5
5
5
5
5
5
5
5
5
5
5
5
5
5
5
5
5
5
5
5
5
5
5
5
5
5
5
5
5
5
5
5
5
5
5
5
5
5
5
5
5
5
5
5
5
5
5
5
5
5
5
5
5
5
5
3
3
3
3
5
5
5
5
5
5
5
5
5
5
5
5
5
5
5
5
5
5
5
5
5
5
5
5
5
5
5
5
5
5
5
5
5
5
5
5
5
5
5
5
5
5
5
5
5
5
5
5
5
5
5
5
5
5
5
5
5
5
5
5
5
5
5
5
5
5
5
5
5
5
5
5
5
5
5
5
5
5
5
5
5
5
5
5
5
5
5
5
5
5
5
5
5
5
5
5
5
5
5
5
5
5
5
5
5
5
5
5
5
5
5
5
5
5
5
5
5
5
5
5
5
5
5
5
5
5
5
5
5
5
5
5
5
5
5
5
5
5
5
5
5
5
5
5
5
5
5
5
5
5
5
5
5
5
5
5
5
5
5
5
5
5
5
5
5
5
5
5
5
5
5
5
5
5
5
5
5
5
5
5
5
5
5
5
5
5
5
5
5
5
5
5
5
5
5
5
5
5
5
5
5
5
5
5
5
5
5
5
5
5
5
5
5
5
5
5
5
5
5
5
5
5
5
5
5
5
5
5
5
5
5
5
5
5
5
5
5
5
5
5
5
5
5
5
5
5
5
5
5
5
5
5
5
5
5
5
5
5
5
5
5
5
5
5
5
5
5
5
3
3
3
3
5
5
5
5
5
5
5
5
5
5
5
5
5
5
5
5
5
5
5
5
5
5
5
5
5
5
5
5
5
5
5
5
5
5
5
5
5
5
5
5
5
5
5
5
5
5
5
5
5
5
5
5
5
5
5
5
5
5
5
5
5
5
5
5
5
5
5
5
5
5
5
5
5
5
5
5
5
5
5
5
5
5
5
5
5
5
5
5
5
5
5
5
5
5
5
5
5
5
5
5
5
5
5
5
5
5
5
5
5
5
5
5
5
5
5
5
5
5
5
5
5
5
5
5
5
5
5
5
5
5
5
5
5
5
5
5
5
5
5
5
5
5
5
5
5
5
5
5
5
5
5
5
5
5
5
5
5
5
5
5
5
5
5
5
5
5
5
5
5
5
5
5
5
5
5
5
5
5
5
5
5
5
5
5
5
5
5
5
5
5
5
5
5
5
5
5
5
5
5
5
5
5
5
5
5
5
5
5
5
5
5
5
5
5
5
5
5
5
5
5
5
5
5
5
5
5
5
5
5
5
5
5
5
5
5
5
5
5
5
5
5
5
5
5
5
5
5
5
5
5
5
5
5
5
5
5
5
5
5
5
5
5
5
5
5
5
5
5
3
3
3
3
5
5
5
5
5
5
5
5
5
5
5
5
5
5
5
5
5
5
5
5
5
5
5
5
5
5
5
5
5
5
5
5
5
5
5
5
5
5
5
5
5
5
5
5
5
5
5
5
5
5
5
5
5
5
5
5
5
5
5
5
5
5
5
5
5
5
5
5
5
5
5
5
5
5
5
5
5
5
5
5
5
5
5
5
5
5
5
5
5
5
5
5
5
5
5
5
5
5
5
5
5
5
5
5
5
5
5
5
5
5
5
5
5
5
5
5
5
5
5
5
5
5
5
5
5
5
5
5
5
5
5
5
5
5
5
5
5
5
5
5
5
5
5
5
5
5
5
5
5
5
5
5
5
5
5
5
5
5
5
5
5
5
5
5
5
5
5
5
5
5
5
5
5
5
5
5
5
5
5
5
5
5
5
5
5
5
5
5
5
5
5
5
5
5
5
5
5
5
5
5
5
5
5
5
5
5
5
5
5
5
5
5
5
5
5
5
5
5
5
5
5
5
5
5
5
5
5
5
5
5
5
5
5
5
5
5
5
5
5
5
5
5
5
5
5
5
5
5
5
5
5
5
5
5
5
5
5
5
5
5
5
5
5
5
5
5
5
5
3
3
3
3
5
5
5
5
5
5
5
5
5
5
5
5
5
5
5
5
5
5
5
5
5
5
5
5
5
5
5
5
5
5
5
5
5
5
5
5
5
5
5
5
5
5
5
5
5
5
5
5
5
5
5
5
5
5
5
5
5
5
5
5
5
5
5
5
5
5
5
5
5
5
5
5
5
5
5
5
5
5
5
5
5
5
5
5
5
5
5
5
5
5
5
5
5
5
5
5
5
5
5
5
5
5
5
5
5
5
5
5
5
5
5
5
5
5
5
5
5
5
5
5
5
5
5
5
5
5
5
5
5
5
5
5
5
5
5
5
5
5
5
5
5
5
5
5
5
5
5
5
5
5
5
5
5
5
5
5
5
5
5
5
5
5
5
5
5
5
5
5
5
5
5
5
5
5
5
5
5
5
5
5
5
5
5
5
5
5
5
5
5
5
5
5
5
5
5
5
5
5
5
5
5
5
5
5
5
5
5
5
5
5
5
5
5
5
5
5
5
5
5
5
5
5
5
5
5
5
5
5
5
5
5
5
5
5
5
5
5
5
5
5
5
5
5
5
5
5
5
5
5
5
5
5
5
5
5
5
5
5
5
5
5
5
5
5
5
5
5
5
3
3
3
3
5
5
5
5
5
5
5
5
5
5
5
5
5
5
5
5
5
5
5
5
5
5
5
5
5
5
5
5
5
5
5
5
5
5
5
5
5
5
5
5
5
5
5
5
5
5
5
5
5
5
5
5
5
5
5
5
5
5
5
5
5
5
5
5
5
5
5
5
5
5
5
5
5
5
5
5
5
5
5
5
5
5
5
5
5
5
5
5
5
5
5
5
5
5
5
5
5
5
5
5
5
5
5
5
5
5
5
5
5
5
5
5
5
5
5
5
5
5
5
5
5
5
5
5
5
5
5
5
5
5
5
5
5
5
5
5
5
5
5
5
5
5
5
5
5
5
5
5
5
5
5
5
5
5
5
5
5
5
5
5
5
5
5
5
5
5
5
5
5
5
5
5
5
5
5
5
5
5
5
5
5
5
5
5
5
5
5
5
5
5
5
5
5
5
5
5
5
5
5
5
5
5
5
5
5
5
5
5
5
5
5
5
5
5
5
5
5
5
5
5
5
5
5
5
5
5
5
5
5
5
5
5
5
5
5
5
5
5
5
5
5
5
5
5
5
5
5
5
5
5
5
5
5
5
5
5
5
5
5
5
5
5
5
5
5
5
5
5
3
3
3
3
5
5
5
5
5
5
5
5
5
5
5
5
5
5
5
5
5
5
5
5
5
5
5
5
5
5
5
5
5
5
5
5
5
5
5
5
5
5
5
5
5
5
5
5
5
5
5
5
5
5
5
5
5
5
5
5
5
5
5
5
5
5
5
5
5
5
5
5
5
5
5
5
5
5
5
5
5
5
5
5
5
5
5
5
5
5
5
5
5
5
5
5
5
5
5
5
5
5
5
5
5
5
5
5
5
5
5
5
5
5
5
5
5
5
5
5
5
5
5
5
5
5
5
5
5
5
5
5
5
5
5
5
5
5
5
5
5
5
5
5
5
5
5
5
5
5
5
5
5
5
5
5
5
5
5
5
5
5
5
5
5
5
5
5
5
5
5
5
5
5
5
5
5
5
5
5
5
5
5
5
5
5
5
5
5
5
5
5
5
5
5
5
5
5
5
5
5
5
5
5
5
5
5
5
5
5
5
5
5
5
5
5
5
5
5
5
5
5
5
5
5
5
5
5
5
5
5
5
5
5
5
5
5
5
5
5
5
5
5
5
5
5
5
5
5
5
5
5
5
5
5
5
5
5
5
5
5
5
5
5
5
5
5
5
5
5
5
5
3
3
3
3
5
5
5
5
5
5
5
5
5
5
5
5
5
5
5
5
5
5
5
5
5
5
5
5
5
5
5
5
5
5
5
5
5
5
5
5
5
5
5
5
5
5
5
5
5
5
5
5
5
5
5
5
5
5
5
5
5
5
5
5
5
5
5
5
5
5
5
5
5
5
5
5
5
5
5
5
5
5
5
5
5
5
5
5
5
5
5
5
5
5
5
5
5
5
5
5
5
5
5
5
5
5
5
5
5
5
5
5
5
5
5
5
5
5
5
5
5
5
5
5
5
5
5
5
5
5
5
5
5
5
5
5
5
5
5
5
5
5
5
5
5
5
5
5
5
5
5
5
5
5
5
5
5
5
5
5
5
5
5
5
5
5
5
5
5
5
5
5
5
5
5
5
5
5
5
5
5
5
5
5
5
5
5
5
5
5
5
5
5
5
5
5
5
5
5
5
5
5
5
5
5
5
5
5
5
5
5
5
5
5
5
5
5
5
5
5
5
5
5
5
5
5
5
5
5
5
5
5
5
5
5
5
5
5
5
5
5
5
5
5
5
5
5
5
5
5
5
5
5
5
5
5
5
5
5
5
5
5
5
5
5
5
5
5
5
5
5
5
3
3
3
3
5
5
5
5
5
5
5
5
5
5
5
5
5
5
5
5
5
5
5
5
5
5
5
5
5
5
5
5
5
5
5
5
5
5
5
5
5
5
5
5
5
5
5
5
5
5
5
5
5
5
5
5
5
5
5
5
5
5
5
5
5
5
5
5
5
5
5
5
5
5
5
5
5
5
5
5
5
5
5
5
5
5
5
5
5
5
5
5
5
5
5
5
5
5
5
5
5
5
5
5
5
5
5
5
5
5
5
5
5
5
5
5
5
5
5
5
5
5
5
5
5
5
5
5
5
5
5
5
5
5
5
5
5
5
5
5
5
5
5
5
5
5
5
5
5
5
5
5
5
5
5
5
5
5
5
5
5
5
5
5
5
5
5
5
5
5
5
5
5
5
5
5
5
5
5
5
5
5
5
5
5
5
5
5
5
5
5
5
5
5
5
5
5
5
5
5
5
5
5
5
5
5
5
5
5
5
5
5
5
5
5
5
5
5
5
5
5
5
5
5
5
5
5
5
5
5
5
5
5
5
5
5
5
5
5
5
5
5
5
5
5
5
5
5
5
5
5
5
5
5
5
5
5
5
5
5
5
5
5
5
5
5
5
5
5
5
5
5
3
3
3
3
5
5
5
5
5
5
5
5
5
5
5
5
5
5
5
5
5
5
5
5
5
5
5
5
5
5
5
5
5
5
5
5
5
5
5
5
5
5
5
5
5
5
5
5
5
5
5
5
5
5
5
5
5
5
5
5
5
5
5
5
5
5
5
5
5
5
5
5
5
5
5
5
5
5
5
5
5
5
5
5
5
5
5
5
5
5
5
5
5
5
5
5
5
5
5
5
5
5
5
5
5
5
5
5
5
5
5
5
5
5
5
5
5
5
5
5
5
5
5
5
5
5
5
5
5
5
5
5
5
5
5
5
5
5
5
5
5
5
5
5
5
5
5
5
5
5
5
5
5
5
5
5
5
5
5
5
5
5
5
5
5
5
5
5
5
5
5
5
5
5
5
5
5
5
5
5
5
5
5
5
5
5
5
5
5
5
5
5
5
5
5
5
5
5
5
5
5
5
5
5
5
5
5
5
5
5
5
5
5
5
5
5
5
5
5
5
5
5
5
5
5
5
5
5
5
5
5
5
5
5
5
5
5
5
5
5
5
5
5
5
5
5
5
5
5
5
5
5
5
5
5
5
5
5
5
5
5
5
5
5
5
5
5
5
5
5
5
5
3
3
3
3
5
5
5
5
5
5
5
5
5
5
5
5
5
5
5
5
5
5
5
5
5
5
5
5
5
5
5
5
5
5
5
5
5
5
5
5
5
5
5
5
5
5
5
5
5
5
5
5
5
5
5
5
5
5
5
5
5
5
5
5
5
5
5
5
5
5
5
5
5
5
5
5
5
5
5
5
5
5
5
5
5
5
5
5
5
5
5
5
5
5
5
5
5
5
5
5
5
5
5
5
5
5
5
5
5
5
5
5
5
5
5
5
5
5
5
5
5
5
5
5
5
5
5
5
5
5
5
5
5
5
5
5
5
5
5
5
5
5
5
5
5
5
5
5
5
5
5
5
5
5
5
5
5
5
5
5
5
5
5
5
5
5
5
5
5
5
5
5
5
5
5
5
5
5
5
5
5
5
5
5
5
5
5
5
5
5
5
5
5
5
5
5
5
5
5
5
5
5
5
5
5
5
5
5
5
5
5
5
5
5
5
5
5
5
5
5
5
5
5
5
5
5
5
5
5
5
5
5
5
5
5
5
5
5
5
5
5
5
5
5
5
5
5
5
5
5
5
5
5
5
5
5
5
5
5
5
5
5
5
5
5
5
5
5
5
5
5
5
3
3
3
3
5
5
5
5
5
5
5
5
5
5
5
5
5
5
5
5
5
5
5
5
5
5
5
5
5
5
5
5
5
5
5
5
5
5
5
5
5
5
5
5
5
5
5
5
5
5
5
5
5
5
5
5
5
5
5
5
5
5
5
5
5
5
5
5
5
5
5
5
5
5
5
5
5
5
5
5
5
5
5
5
5
5
5
5
5
5
5
5
5
5
5
5
5
5
5
5
5
5
5
5
5
5
5
5
5
5
5
5
5
5
5
5
5
5
5
5
5
5
5
5
5
5
5
5
5
5
5
5
5
5
5
5
5
5
5
5
5
5
5
5
5
5
5
5
5
5
5
5
5
5
5
5
5
5
5
5
5
5
5
5
5
5
5
5
5
5
5
5
5
5
5
5
5
5
5
5
5
5
5
5
5
5
5
5
5
5
5
5
5
5
5
5
5
5
5
5
5
5
5
5
5
5
5
5
5
5
5
5
5
5
5
5
5
5
5
5
5
5
5
5
5
5
5
5
5
5
5
5
5
5
5
5
5
5
5
5
5
5
5
5
5
5
5
5
5
5
5
5
5
5
5
5
5
5
5
5
5
5
5
5
5
5
5
5
5
5
5
5
3
3
3
3
5
5
5
5
5
5
5
5
5
5
5
5
5
5
5
5
5
5
5
5
5
5
5
5
5
5
5
5
5
5
5
5
5
5
5
5
5
5
5
5
5
5
5
5
5
5
5
5
5
5
5
5
5
5
5
5
5
5
5
5
5
5
5
5
5
5
5
5
5
5
5
5
5
5
5
5
5
5
5
5
5
5
5
5
5
5
5
5
5
5
5
5
5
5
5
5
5
5
5
5
5
5
5
5
5
5
5
5
5
5
5
5
5
5
5
5
5
5
5
5
5
5
5
5
5
5
5
5
5
5
5
5
5
5
5
5
5
5
5
5
5
5
5
5
5
5
5
5
5
5
5
5
5
5
5
5
5
5
5
5
5
5
5
5
5
5
5
5
5
5
5
5
5
5
5
5
5
5
5
5
5
5
5
5
5
5
5
5
5
5
5
5
5
5
5
5
5
5
5
5
5
5
5
5
5
5
5
5
5
5
5
5
5
5
5
5
5
5
5
5
5
5
5
5
5
5
5
5
5
5
5
5
5
5
5
5
5
5
5
5
5
5
5
5
5
5
5
5
5
5
5
5
5
5
5
5
5
5
5
5
5
5
5
5
5
5
5
5
3
3
3
3
5
5
5
5
5
5
5
5
5
5
5
5
5
5
5
5
5
5
5
5
5
5
5
5
5
5
5
5
5
5
5
5
5
5
5
5
5
5
5
5
5
5
5
5
5
5
5
5
5
5
5
5
5
5
5
5
5
5
5
5
5
5
5
5
5
5
5
5
5
5
5
5
5
5
5
5
5
5
5
5
5
5
5
5
5
5
5
5
5
5
5
5
5
5
5
5
5
5
5
5
5
5
5
5
5
5
5
5
5
5
5
5
5
5
5
5
5
5
5
5
5
5
5
5
5
5
5
5
5
5
5
5
5
5
5
5
5
5
5
5
5
5
5
5
5
5
5
5
5
5
5
5
5
5
5
5
5
5
5
5
5
5
5
5
5
5
5
5
5
5
5
5
5
5
5
5
5
5
5
5
5
5
5
5
5
5
5
5
5
5
5
5
5
5
5
5
5
5
5
5
5
5
5
5
5
5
5
5
5
5
5
5
5
5
5
5
5
5
5
5
5
5
5
5
5
5
5
5
5
5
5
5
5
5
5
5
5
5
5
5
5
5
5
5
5
5
5
5
5
5
5
5
5
5
5
5
5
5
5
5
5
5
5
5
5
5
5
5
3
3
3
3
5
5
5
5
5
5
5
5
5
5
5
5
5
5
5
5
5
5
5
5
5
5
5
5
5
5
5
5
5
5
5
5
5
5
5
5
5
5
5
5
5
5
5
5
5
5
5
5
5
5
5
5
5
5
5
5
5
5
5
5
5
5
5
5
5
5
5
5
5
5
5
5
5
5
5
5
5
5
5
5
5
5
5
5
5
5
5
5
5
5
5
5
5
5
5
5
5
5
5
5
5
5
5
5
5
5
5
5
5
5
5
5
5
5
5
5
5
5
5
5
5
5
5
5
5
5
5
5
5
5
5
5
5
5
5
5
5
5
5
5
5
5
5
5
5
5
5
5
5
5
5
5
5
5
5
5
5
5
5
5
5
5
5
5
5
5
5
5
5
5
5
5
5
5
5
5
5
5
5
5
5
5
5
5
5
5
5
5
5
5
5
5
5
5
5
5
5
5
5
5
5
5
5
5
5
5
5
5
5
5
5
5
5
5
5
5
5
5
5
5
5
5
5
5
5
5
5
5
5
5
5
5
5
5
5
5
5
5
5
5
5
5
5
5
5
5
5
5
5
5
5
5
5
5
5
5
5
5
5
5
5
5
5
5
5
5
5
5
3
3
3
3
5
5
5
5
5
5
5
5
5
5
5
5
5
5
5
5
5
5
5
5
5
5
5
5
5
5
5
5
5
5
5
5
5
5
5
5
5
5
5
5
5
5
5
5
5
5
5
5
5
5
5
5
5
5
5
5
5
5
5
5
5
5
5
5
5
5
5
5
5
5
5
5
5
5
5
5
5
5
5
5
5
5
5
5
5
5
5
5
5
5
5
5
5
5
5
5
5
5
5
5
5
5
5
5
5
5
5
5
5
5
5
5
5
5
5
5
5
5
5
5
5
5
5
5
5
5
5
5
5
5
5
5
5
5
5
5
5
5
5
5
5
5
5
5
5
5
5
5
5
5
5
5
5
5
5
5
5
5
5
5
5
5
5
5
5
5
5
5
5
5
5
5
5
5
5
5
5
5
5
5
5
5
5
5
5
5
5
5
5
5
5
5
5
5
5
5
5
5
5
5
5
5
5
5
5
5
5
5
5
5
5
5
5
5
5
5
5
5
5
5
5
5
5
5
5
5
5
5
5
5
5
5
5
5
5
5
5
5
5
5
5
5
5
5
5
5
5
5
5
5
5
5
5
5
5
5
5
5
5
5
5
5
5
5
5
5
5
5
3
3
3
3
5
5
5
5
5
5
5
5
5
5
5
5
5
5
5
5
5
5
5
5
5
5
5
5
5
5
5
5
5
5
5
5
5
5
5
5
5
5
5
5
5
5
5
5
5
5
5
5
5
5
5
5
5
5
5
5
5
5
5
5
5
5
5
5
5
5
5
5
5
5
5
5
5
5
5
5
5
5
5
5
5
5
5
5
5
5
5
5
5
5
5
5
5
5
5
5
5
5
5
5
5
5
5
5
5
5
5
5
5
5
5
5
5
5
5
5
5
5
5
5
5
5
5
5
5
5
5
5
5
5
5
5
5
5
5
5
5
5
5
5
5
5
5
5
5
5
5
5
5
5
5
5
5
5
5
5
5
5
5
5
5
5
5
5
5
5
5
5
5
5
5
5
5
5
5
5
5
5
5
5
5
5
5
5
5
5
5
5
5
5
5
5
5
5
5
5
5
5
5
5
5
5
5
5
5
5
5
5
5
5
5
5
5
5
5
5
5
5
5
5
5
5
5
5
5
5
5
5
5
5
5
5
5
5
5
5
5
5
5
5
5
5
5
5
5
5
5
5
5
5
5
5
5
5
5
5
5
5
5
5
5
5
5
5
5
5
5
5
3
3
3
3
5
5
5
5
5
5
5
5
5
5
5
5
5
5
5
5
5
5
5
5
5
5
5
5
5
5
5
5
5
5
5
5
5
5
5
5
5
5
5
5
5
5
5
5
5
5
5
5
5
5
5
5
5
5
5
5
5
5
5
5
5
5
5
5
5
5
5
5
5
5
5
5
5
5
5
5
5
5
5
5
5
5
5
5
5
5
5
5
5
5
5
5
5
5
5
5
5
5
5
5
5
5
5
5
5
5
5
5
5
5
5
5
5
5
5
5
5
5
5
5
5
5
5
5
5
5
5
5
5
5
5
5
5
5
5
5
5
5
5
5
5
5
5
5
5
5
5
5
5
5
5
5
5
5
5
5
5
5
5
5
5
5
5
5
5
5
5
5
5
5
5
5
5
5
5
5
5
5
5
5
5
5
5
5
5
5
5
5
5
5
5
5
5
5
5
5
5
5
5
5
5
5
5
5
5
5
5
5
5
5
5
5
5
5
5
5
5
5
5
5
5
5
5
5
5
5
5
5
5
5
5
5
5
5
5
5
5
5
5
5
5
5
5
5
5
5
5
5
5
5
5
5
5
5
5
5
5
5
5
5
5
5
5
5
5
5
5
5
3
3
3
3
5
5
5
5
5
5
5
5
5
5
5
5
5
5
5
5
5
5
5
5
5
5
5
5
5
5
5
5
5
5
5
5
5
5
5
5
5
5
5
5
5
5
5
5
5
5
5
5
5
5
5
5
5
5
5
5
5
5
5
5
5
5
5
5
5
5
5
5
5
5
5
5
5
5
5
5
5
5
5
5
5
5
5
5
5
5
5
5
5
5
5
5
5
5
5
5
5
5
5
5
5
5
5
5
5
5
5
5
5
5
5
5
5
5
5
5
5
5
5
5
5
5
5
5
5
5
5
5
5
5
5
5
5
5
5
5
5
5
5
5
5
5
5
5
5
5
5
5
5
5
5
5
5
5
5
5
5
5
5
5
5
5
5
5
5
5
5
5
5
5
5
5
5
5
5
5
5
5
5
5
5
5
5
5
5
5
5
5
5
5
5
5
5
5
5
5
5
5
5
5
5
5
5
5
5
5
5
5
5
5
5
5
5
5
5
5
5
5
5
5
5
5
5
5
5
5
5
5
5
5
5
5
5
5
5
5
5
5
5
5
5
5
5
5
5
5
5
5
5
5
5
5
5
5
5
5
5
5
5
5
5
5
5
5
5
5
5
5
3
3
3
3
5
5
5
5
5
5
5
5
5
5
5
5
5
5
5
5
5
5
5
5
5
5
5
5
5
5
5
5
5
5
5
5
5
5
5
5
5
5
5
5
5
5
5
5
5
5
5
5
5
5
5
5
5
5
5
5
5
5
5
5
5
5
5
5
5
5
5
5
5
5
5
5
5
5
5
5
5
5
5
5
5
5
5
5
5
5
5
5
5
5
5
5
5
5
5
5
5
5
5
5
5
5
5
5
5
5
5
5
5
5
5
5
5
5
5
5
5
5
5
5
5
5
5
5
5
5
5
5
5
5
5
5
5
5
5
5
5
5
5
5
5
5
5
5
5
5
5
5
5
5
5
5
5
5
5
5
5
5
5
5
5
5
5
5
5
5
5
5
5
5
5
5
5
5
5
5
5
5
5
5
5
5
5
5
5
5
5
5
5
5
5
5
5
5
5
5
5
5
5
5
5
5
5
5
5
5
5
5
5
5
5
5
5
5
5
5
5
5
5
5
5
5
5
5
5
5
5
5
5
5
5
5
5
5
5
5
5
5
5
5
5
5
5
5
5
5
5
5
5
5
5
5
5
5
5
5
5
5
5
5
5
5
5
5
5
5
5
5
3
3
3
3
5
5
5
5
5
5
5
5
5
5
5
5
5
5
5
5
5
5
5
5
5
5
5
5
5
5
5
5
5
5
5
5
5
5
5
5
5
5
5
5
5
5
5
5
5
5
5
5
5
5
5
5
5
5
5
5
5
5
5
5
5
5
5
5
5
5
5
5
5
5
5
5
5
5
5
5
5
5
5
5
5
5
5
5
5
5
5
5
5
5
5
5
5
5
5
5
5
5
5
5
5
5
5
5
5
5
5
5
5
5
5
5
5
5
5
5
5
5
5
5
5
5
5
5
5
5
5
5
5
5
5
5
5
5
5
5
5
5
5
5
5
5
5
5
5
5
5
5
5
5
5
5
5
5
5
5
5
5
5
5
5
5
5
5
5
5
5
5
5
5
5
5
5
5
5
5
5
5
5
5
5
5
5
5
5
5
5
5
5
5
5
5
5
5
5
5
5
5
5
5
5
5
5
5
5
5
5
5
5
5
5
5
5
5
5
5
5
5
5
5
5
5
5
5
5
5
5
5
5
5
5
5
5
5
5
5
5
5
5
5
5
5
5
5
5
5
5
5
5
5
5
5
5
5
5
5
5
5
5
5
5
5
5
5
5
5
5
5
3
3
3
3
5
5
5
5
5
5
5
5
5
5
5
5
5
5
5
5
5
5
5
5
5
5
5
5
5
5
5
5
5
5
5
5
5
5
5
5
5
5
5
5
5
5
5
5
5
5
5
5
5
5
5
5
5
5
5
5
5
5
5
5
5
5
5
5
5
5
5
5
5
5
5
5
5
5
5
5
5
5
5
5
5
5
5
5
5
5
5
5
5
5
5
5
5
5
5
5
5
5
5
5
5
5
5
5
5
5
5
5
5
5
5
5
5
5
5
5
5
5
5
5
5
5
5
5
5
5
5
5
5
5
5
5
5
5
5
5
5
5
5
5
5
5
5
5
5
5
5
5
5
5
5
5
5
5
5
5
5
5
5
5
5
5
5
5
5
5
5
5
5
5
5
5
5
5
5
5
5
5
5
5
5
5
5
5
5
5
5
5
5
5
5
5
5
5
5
5
5
5
5
5
5
5
5
5
5
5
5
5
5
5
5
5
5
5
5
5
5
5
5
5
5
5
5
5
5
5
5
5
5
5
5
5
5
5
5
5
5
5
5
5
5
5
5
5
5
5
5
5
5
5
5
5
5
5
5
5
5
5
5
5
5
5
5
5
5
5
5
5
3
3
3
3
5
5
5
5
5
5
5
5
5
5
5
5
5
5
5
5
5
5
5
5
5
5
5
5
5
5
5
5
5
5
5
5
5
5
5
5
5
5
5
5
5
5
5
5
5
5
5
5
5
5
5
5
5
5
5
5
5
5
5
5
5
5
5
5
5
5
5
5
5
5
5
5
5
5
5
5
5
5
5
5
5
5
5
5
5
5
5
5
5
5
5
5
5
5
5
5
5
5
5
5
5
5
5
5
5
5
5
5
5
5
5
5
5
5
5
5
5
5
5
5
5
5
5
5
5
5
5
5
5
5
5
5
5
5
5
5
5
5
5
5
5
5
5
5
5
5
5
5
5
5
5
5
5
5
5
5
5
5
5
5
5
5
5
5
5
5
5
5
5
5
5
5
5
5
5
5
5
5
5
5
5
5
5
5
5
5
5
5
5
5
5
5
5
5
5
5
5
5
5
5
5
5
5
5
5
5
5
5
5
5
5
5
5
5
5
5
5
5
5
5
5
5
5
5
5
5
5
5
5
5
5
5
5
5
5
5
5
5
5
5
5
5
5
5
5
5
5
5
5
5
5
5
5
5
5
5
5
5
5
5
5
5
5
5
5
5
5
5
3
3
3
3
5
5
5
5
5
5
5
5
5
5
5
5
5
5
5
5
5
5
5
5
5
5
5
5
5
5
5
5
5
5
5
5
5
5
5
5
5
5
5
5
5
5
5
5
5
5
5
5
5
5
5
5
5
5
5
5
5
5
5
5
5
5
5
5
5
5
5
5
5
5
5
5
5
5
5
5
5
5
5
5
5
5
5
5
5
5
5
5
5
5
5
5
5
5
5
5
5
5
5
5
5
5
5
5
5
5
5
5
5
5
5
5
5
5
5
5
5
5
5
5
5
5
5
5
5
5
5
5
5
5
5
5
5
5
5
5
5
5
5
5
5
5
5
5
5
5
5
5
5
5
5
5
5
5
5
5
5
5
5
5
5
5
5
5
5
5
5
5
5
5
5
5
5
5
5
5
5
5
5
5
5
5
5
5
5
5
5
5
5
5
5
5
5
5
5
5
5
5
5
5
5
5
5
5
5
5
5
5
5
5
5
5
5
5
5
5
5
5
5
5
5
5
5
5
5
5
5
5
5
5
5
5
5
5
5
5
5
5
5
5
5
5
5
5
5
5
5
5
5
5
5
5
5
5
5
5
5
5
5
5
5
5
5
5
5
5
5
5
3
3
3
3
5
5
5
5
5
5
5
5
5
5
5
5
5
5
5
5
5
5
5
5
5
5
5
5
5
5
5
5
5
5
5
5
5
5
5
5
5
5
5
5
5
5
5
5
5
5
5
5
5
5
5
5
5
5
5
5
5
5
5
5
5
5
5
5
5
5
5
5
5
5
5
5
5
5
5
5
5
5
5
5
5
5
5
5
5
5
5
5
5
5
5
5
5
5
5
5
5
5
5
5
5
5
5
5
5
5
5
5
5
5
5
5
5
5
5
5
5
5
5
5
5
5
5
5
5
5
5
5
5
5
5
5
5
5
5
5
5
5
5
5
5
5
5
5
5
5
5
5
5
5
5
5
5
5
5
5
5
5
5
5
5
5
5
5
5
5
5
5
5
5
5
5
5
5
5
5
5
5
5
5
5
5
5
5
5
5
5
5
5
5
5
5
5
5
5
5
5
5
5
5
5
5
5
5
5
5
5
5
5
5
5
5
5
5
5
5
5
5
5
5
5
5
5
5
5
5
5
5
5
5
5
5
5
5
5
5
5
5
5
5
5
5
5
5
5
5
5
5
5
5
5
5
5
5
5
5
5
5
5
5
5
5
5
5
5
5
5
5
3
3
3
3
5
5
5
5
5
5
5
5
5
5
5
5
5
5
5
5
5
5
5
5
5
5
5
5
5
5
5
5
5
5
5
5
5
5
5
5
5
5
5
5
5
5
5
5
5
5
5
5
5
5
5
5
5
5
5
5
5
5
5
5
5
5
5
5
5
5
5
5
5
5
5
5
5
5
5
5
5
5
5
5
5
5
5
5
5
5
5
5
5
5
5
5
5
5
5
5
5
5
5
5
5
5
5
5
5
5
5
5
5
5
5
5
5
5
5
5
5
5
5
5
5
5
5
5
5
5
5
5
5
5
5
5
5
5
5
5
5
5
5
5
5
5
5
5
5
5
5
5
5
5
5
5
5
5
5
5
5
5
5
5
5
5
5
5
5
5
5
5
5
5
5
5
5
5
5
5
5
5
5
5
5
5
5
5
5
5
5
5
5
5
5
5
5
5
5
5
5
5
5
5
5
5
5
5
5
5
5
5
5
5
5
5
5
5
5
5
5
5
5
5
5
5
5
5
5
5
5
5
5
5
5
5
5
5
5
5
5
5
5
5
5
5
5
5
5
5
5
5
5
5
5
5
5
5
5
5
5
5
5
5
5
5
5
5
5
5
5
5
3
3
3
3
5
5
5
5
5
5
5
5
5
5
5
5
5
5
5
5
5
5
5
5
5
5
5
5
5
5
5
5
5
5
5
5
5
5
5
5
5
5
5
5
5
5
5
5
5
5
5
5
5
5
5
5
5
5
5
5
5
5
5
5
5
5
5
5
5
5
5
5
5
5
5
5
5
5
5
5
5
5
5
5
5
5
5
5
5
5
5
5
5
5
5
5
5
5
5
5
5
5
5
5
5
5
5
5
5
5
5
5
5
5
5
5
5
5
5
5
5
5
5
5
5
5
5
5
5
5
5
5
5
5
5
5
5
5
5
5
5
5
5
5
5
5
5
5
5
5
5
5
5
5
5
5
5
5
5
5
5
5
5
5
5
5
5
5
5
5
5
5
5
5
5
5
5
5
5
5
5
5
5
5
5
5
5
5
5
5
5
5
5
5
5
5
5
5
5
5
5
5
5
5
5
5
5
5
5
5
5
5
5
5
5
5
5
5
5
5
5
5
5
5
5
5
5
5
5
5
5
5
5
5
5
5
5
5
5
5
5
5
5
5
5
5
5
5
5
5
5
5
5
5
5
5
5
5
5
5
5
5
5
5
5
5
5
5
5
5
5
5
3
3
3
3
5
5
5
5
5
5
5
5
5
5
5
5
5
5
5
5
5
5
5
5
5
5
5
5
5
5
5
5
5
5
5
5
5
5
5
5
5
5
5
5
5
5
5
5
5
5
5
5
5
5
5
5
5
5
5
5
5
5
5
5
5
5
5
5
5
5
5
5
5
5
5
5
5
5
5
5
5
5
5
5
5
5
5
5
5
5
5
5
5
5
5
5
5
5
5
5
5
5
5
5
5
5
5
5
5
5
5
5
5
5
5
5
5
5
5
5
5
5
5
5
5
5
5
5
5
5
5
5
5
5
5
5
5
5
5
5
5
5
5
5
5
5
5
5
5
5
5
5
5
5
5
5
5
5
5
5
5
5
5
5
5
5
5
5
5
5
5
5
5
5
5
5
5
5
5
5
5
5
5
5
5
5
5
5
5
5
5
5
5
5
5
5
5
5
5
5
5
5
5
5
5
5
5
5
5
5
5
5
5
5
5
5
5
5
5
5
5
5
5
5
5
5
5
5
5
5
5
5
5
5
5
5
5
5
5
5
5
5
5
5
5
5
5
5
5
5
5
5
5
5
5
5
5
5
5
5
5
5
5
5
5
5
5
5
5
5
5
5
3
3
3
3
5
5
5
5
5
5
5
5
5
5
5
5
5
5
5
5
5
5
5
5
5
5
5
5
5
5
5
5
5
5
5
5
5
5
5
5
5
5
5
5
5
5
5
5
5
5
5
5
5
5
5
5
5
5
5
5
5
5
5
5
5
5
5
5
5
5
5
5
5
5
5
5
5
5
5
5
5
5
5
5
5
5
5
5
5
5
5
5
5
5
5
5
5
5
5
5
5
5
5
5
5
5
5
5
5
5
5
5
5
5
5
5
5
5
5
5
5
5
5
5
5
5
5
5
5
5
5
5
5
5
5
5
5
5
5
5
5
5
5
5
5
5
5
5
5
5
5
5
5
5
5
5
5
5
5
5
5
5
5
5
5
5
5
5
5
5
5
5
5
5
5
5
5
5
5
5
5
5
5
5
5
5
5
5
5
5
5
5
5
5
5
5
5
5
5
5
5
5
5
5
5
5
5
5
5
5
5
5
5
5
5
5
5
5
5
5
5
5
5
5
5
5
5
5
5
5
5
5
5
5
5
5
5
5
5
5
5
5
5
5
5
5
5
5
5
5
5
5
5
5
5
5
5
5
5
5
5
5
5
5
5
5
5
5
5
5
5
5
3
3
3
3
5
5
5
5
5
5
5
5
5
5
5
5
5
5
5
5
5
5
5
5
5
5
5
5
5
5
5
5
5
5
5
5
5
5
5
5
5
5
5
5
5
5
5
5
5
5
5
5
5
5
5
5
5
5
5
5
5
5
5
5
5
5
5
5
5
5
5
5
5
5
5
5
5
5
5
5
5
5
5
5
5
5
5
5
5
5
5
5
5
5
5
5
5
5
5
5
5
5
5
5
5
5
5
5
5
5
5
5
5
5
5
5
5
5
5
5
5
5
5
5
5
5
5
5
5
5
5
5
5
5
5
5
5
5
5
5
5
5
5
5
5
5
5
5
5
5
5
5
5
5
5
5
5
5
5
5
5
5
5
5
5
5
5
5
5
5
5
5
5
5
5
5
5
5
5
5
5
5
5
5
5
5
5
5
5
5
5
5
5
5
5
5
5
5
5
5
5
5
5
5
5
5
5
5
5
5
5
5
5
5
5
5
5
5
5
5
5
5
5
5
5
5
5
5
5
5
5
5
5
5
5
5
5
5
5
5
5
5
5
5
5
5
5
5
5
5
5
5
5
5
5
5
5
5
5
5
5
5
5
5
5
5
5
5
5
5
5
5
3
3
3
3
5
5
5
5
5
5
5
5
5
5
5
5
5
5
5
5
5
5
5
5
5
5
5
5
5
5
5
5
5
5
5
5
5
5
5
5
5
5
5
5
5
5
5
5
5
5
5
5
5
5
5
5
5
5
5
5
5
5
5
5
5
5
5
5
5
5
5
5
5
5
5
5
5
5
5
5
5
5
5
5
5
5
5
5
5
5
5
5
5
5
5
5
5
5
5
5
5
5
5
5
5
5
5
5
5
5
5
5
5
5
5
5
5
5
5
5
5
5
5
5
5
5
5
5
5
5
5
5
5
5
5
5
5
5
5
5
5
5
5
5
5
5
5
5
5
5
5
5
5
5
5
5
5
5
5
5
5
5
5
5
5
5
5
5
5
5
5
5
5
5
5
5
5
5
5
5
5
5
5
5
5
5
5
5
5
5
5
5
5
5
5
5
5
5
5
5
5
5
5
5
5
5
5
5
5
5
5
5
5
5
5
5
5
5
5
5
5
5
5
5
5
5
5
5
5
5
5
5
5
5
5
5
5
5
5
5
5
5
5
5
5
5
5
5
5
5
5
5
5
5
5
5
5
5
5
5
5
5
5
5
5
5
5
5
5
5
5
5
3
3
3
3
5
5
5
5
5
5
5
5
5
5
5
5
5
5
5
5
5
5
5
5
5
5
5
5
5
5
5
5
5
5
5
5
5
5
5
5
5
5
5
5
5
5
5
5
5
5
5
5
5
5
5
5
5
5
5
5
5
5
5
5
5
5
5
5
5
5
5
5
5
5
5
5
5
5
5
5
5
5
5
5
5
5
5
5
5
5
5
5
5
5
5
5
5
5
5
5
5
5
5
5
5
5
5
5
5
5
5
5
5
5
5
5
5
5
5
5
5
5
5
5
5
5
5
5
5
5
5
5
5
5
5
5
5
5
5
5
5
5
5
5
5
5
5
5
5
5
5
5
5
5
5
5
5
5
5
5
5
5
5
5
5
5
5
5
5
5
5
5
5
5
5
5
5
5
5
5
5
5
5
5
5
5
5
5
5
5
5
5
5
5
5
5
5
5
5
5
5
5
5
5
5
5
5
5
5
5
5
5
5
5
5
5
5
5
5
5
5
5
5
5
5
5
5
5
5
5
5
5
5
5
5
5
5
5
5
5
5
5
5
5
5
5
5
5
5
5
5
5
5
5
5
5
5
5
5
5
5
5
5
5
5
5
5
5
5
5
5
5
3
3
3
3
5
5
5
5
5
5
5
5
5
5
5
5
5
5
5
5
5
5
5
5
5
5
5
5
5
5
5
5
5
5
5
5
5
5
5
5
5
5
5
5
5
5
5
5
5
5
5
5
5
5
5
5
5
5
5
5
5
5
5
5
5
5
5
5
5
5
5
5
5
5
5
5
5
5
5
5
5
5
5
5
5
5
5
5
5
5
5
5
5
5
5
5
5
5
5
5
5
5
5
5
5
5
5
5
5
5
5
5
5
5
5
5
5
5
5
5
5
5
5
5
5
5
5
5
5
5
5
5
5
5
5
5
5
5
5
5
5
5
5
5
5
5
5
5
5
5
5
5
5
5
5
5
5
5
5
5
5
5
5
5
5
5
5
5
5
5
5
5
5
5
5
5
5
5
5
5
5
5
5
5
5
5
5
5
5
5
5
5
5
5
5
5
5
5
5
5
5
5
5
5
5
5
5
5
5
5
5
5
5
5
5
5
5
5
5
5
5
5
5
5
5
5
5
5
5
5
5
5
5
5
5
5
5
5
5
5
5
5
5
5
5
5
5
5
5
5
5
5
5
5
5
5
5
5
5
5
5
5
5
5
5
5
5
5
5
5
5
5
3
3
3
3
5
5
5
5
5
5
5
5
5
5
5
5
5
5
5
5
5
5
5
5
5
5
5
5
5
5
5
5
5
5
5
5
5
5
5
5
5
5
5
5
5
5
5
5
5
5
5
5
5
5
5
5
5
5
5
5
5
5
5
5
5
5
5
5
5
5
5
5
5
5
5
5
5
5
5
5
5
5
5
5
5
5
5
5
5
5
5
5
5
5
5
5
5
5
5
5
5
5
5
5
5
5
5
5
5
5
5
5
5
5
5
5
5
5
5
5
5
5
5
5
5
5
5
5
5
5
5
5
5
5
5
5
5
5
5
5
5
5
5
5
5
5
5
5
5
5
5
5
5
5
5
5
5
5
5
5
5
5
5
5
5
5
5
5
5
5
5
5
5
5
5
5
5
5
5
5
5
5
5
5
5
5
5
5
5
5
5
5
5
5
5
5
5
5
5
5
5
5
5
5
5
5
5
5
5
5
5
5
5
5
5
5
5
5
5
5
5
5
5
5
5
5
5
5
5
5
5
5
5
5
5
5
5
5
5
5
5
5
5
5
5
5
5
5
5
5
5
5
5
5
5
5
5
5
5
5
5
5
5
5
5
5
5
5
5
5
5
5
3
3
3
3
5
5
5
5
5
5
5
5
5
5
5
5
5
5
5
5
5
5
5
5
5
5
5
5
5
5
5
5
5
5
5
5
5
5
5
5
5
5
5
5
5
5
5
5
5
5
5
5
5
5
5
5
5
5
5
5
5
5
5
5
5
5
5
5
5
5
5
5
5
5
5
5
5
5
5
5
5
5
5
5
5
5
5
5
5
5
5
5
5
5
5
5
5
5
5
5
5
5
5
5
5
5
5
5
5
5
5
5
5
5
5
5
5
5
5
5
5
5
5
5
5
5
5
5
5
5
5
5
5
5
5
5
5
5
5
5
5
5
5
5
5
5
5
5
5
5
5
5
5
5
5
5
5
5
5
5
5
5
5
5
5
5
5
5
5
5
5
5
5
5
5
5
5
5
5
5
5
5
5
5
5
5
5
5
5
5
5
5
5
5
5
5
5
5
5
5
5
5
5
5
5
5
5
5
5
5
5
5
5
5
5
5
5
5
5
5
5
5
5
5
5
5
5
5
5
5
5
5
5
5
5
5
5
5
5
5
5
5
5
5
5
5
5
5
5
5
5
5
5
5
5
5
5
5
5
5
5
5
5
5
5
5
5
5
5
5
5
5
3
3
3
3
5
5
5
5
5
5
5
5
5
5
5
5
5
5
5
5
5
5
5
5
5
5
5
5
5
5
5
5
5
5
5
5
5
5
5
5
5
5
5
5
5
5
5
5
5
5
5
5
5
5
5
5
5
5
5
5
5
5
5
5
5
5
5
5
5
5
5
5
5
5
5
5
5
5
5
5
5
5
5
5
5
5
5
5
5
5
5
5
5
5
5
5
5
5
5
5
5
5
5
5
5
5
5
5
5
5
5
5
5
5
5
5
5
5
5
5
5
5
5
5
5
5
5
5
5
5
5
5
5
5
5
5
5
5
5
5
5
5
5
5
5
5
5
5
5
5
5
5
5
5
5
5
5
5
5
5
5
5
5
5
5
5
5
5
5
5
5
5
5
5
5
5
5
5
5
5
5
5
5
5
5
5
5
5
5
5
5
5
5
5
5
5
5
5
5
5
5
5
5
5
5
5
5
5
5
5
5
5
5
5
5
5
5
5
5
5
5
5
5
5
5
5
5
5
5
5
5
5
5
5
5
5
5
5
5
5
5
5
5
5
5
5
5
5
5
5
5
5
5
5
5
5
5
5
5
5
5
5
5
5
5
5
5
5
5
5
5
5
3
3
3
3
5
5
5
5
5
5
5
5
5
5
5
5
5
5
5
5
5
5
5
5
5
5
5
5
5
5
5
5
5
5
5
5
5
5
5
5
5
5
5
5
5
5
5
5
5
5
5
5
5
5
5
5
5
5
5
5
5
5
5
5
5
5
5
5
5
5
5
5
5
5
5
5
5
5
5
5
5
5
5
5
5
5
5
5
5
5
5
5
5
5
5
5
5
5
5
5
5
5
5
5
5
5
5
5
5
5
5
5
5
5
5
5
5
5
5
5
5
5
5
5
5
5
5
5
5
5
5
5
5
5
5
5
5
5
5
5
5
5
5
5
5
5
5
5
5
5
5
5
5
5
5
5
5
5
5
5
5
5
5
5
5
5
5
5
5
5
5
5
5
5
5
5
5
5
5
5
5
5
5
5
5
5
5
5
5
5
5
5
5
5
5
5
5
5
5
5
5
5
5
5
5
5
5
5
5
5
5
5
5
5
5
5
5
5
5
5
5
5
5
5
5
5
5
5
5
5
5
5
5
5
5
5
5
5
5
5
5
5
5
5
5
5
5
5
5
5
5
5
5
5
5
5
5
5
5
5
5
5
5
5
5
5
5
5
5
5
5
5
3
3
3
3
5
5
5
5
5
5
5
5
5
5
5
5
5
5
5
5
5
5
5
5
5
5
5
5
5
5
5
5
5
5
5
5
5
5
5
5
5
5
5
5
5
5
5
5
5
5
5
5
5
5
5
5
5
5
5
5
5
5
5
5
5
5
5
5
5
5
5
5
5
5
5
5
5
5
5
5
5
5
5
5
5
5
5
5
5
5
5
5
5
5
5
5
5
5
5
5
5
5
5
5
5
5
5
5
5
5
5
5
5
5
5
5
5
5
5
5
5
5
5
5
5
5
5
5
5
5
5
5
5
5
5
5
5
5
5
5
5
5
5
5
5
5
5
5
5
5
5
5
5
5
5
5
5
5
5
5
5
5
5
5
5
5
5
5
5
5
5
5
5
5
5
5
5
5
5
5
5
5
5
5
5
5
5
5
5
5
5
5
5
5
5
5
5
5
5
5
5
5
5
5
5
5
5
5
5
5
5
5
5
5
5
5
5
5
5
5
5
5
5
5
5
5
5
5
5
5
5
5
5
5
5
5
5
5
5
5
5
5
5
5
5
5
5
5
5
5
5
5
5
5
5
5
5
5
5
5
5
5
5
5
5
5
5
5
5
5
5
5
3
3
3
3
5
5
5
5
5
5
5
5
5
5
5
5
5
5
5
5
5
5
5
5
5
5
5
5
5
5
5
5
5
5
5
5
5
5
5
5
5
5
5
5
5
5
5
5
5
5
5
5
5
5
5
5
5
5
5
5
5
5
5
5
5
5
5
5
5
5
5
5
5
5
5
5
5
5
5
5
5
5
5
5
5
5
5
5
5
5
5
5
5
5
5
5
5
5
5
5
5
5
5
5
5
5
5
5
5
5
5
5
5
5
5
5
5
5
5
5
5
5
5
5
5
5
5
5
5
5
5
5
5
5
5
5
5
5
5
5
5
5
5
5
5
5
5
5
5
5
5
5
5
5
5
5
5
5
5
5
5
5
5
5
5
5
5
5
5
5
5
5
5
5
5
5
5
5
5
5
5
5
5
5
5
5
5
5
5
5
5
5
5
5
5
5
5
5
5
5
5
5
5
5
5
5
5
5
5
5
5
5
5
5
5
5
5
5
5
5
5
5
5
5
5
5
5
5
5
5
5
5
5
5
5
5
5
5
5
5
5
5
5
5
5
5
5
5
5
5
5
5
5
5
5
5
5
5
5
5
5
5
5
5
5
5
5
5
5
5
5
5
3
3
3
3
5
5
5
5
5
5
5
5
5
5
5
5
5
5
5
5
5
5
5
5
5
5
5
5
5
5
5
5
5
5
5
5
5
5
5
5
5
5
5
5
5
5
5
5
5
5
5
5
5
5
5
5
5
5
5
5
5
5
5
5
5
5
5
5
5
5
5
5
5
5
5
5
5
5
5
5
5
5
5
5
5
5
5
5
5
5
5
5
5
5
5
5
5
5
5
5
5
5
5
5
5
5
5
5
5
5
5
5
5
5
5
5
5
5
5
5
5
5
5
5
5
5
5
5
5
5
5
5
5
5
5
5
5
5
5
5
5
5
5
5
5
5
5
5
5
5
5
5
5
5
5
5
5
5
5
5
5
5
5
5
5
5
5
5
5
5
5
5
5
5
5
5
5
5
5
5
5
5
5
5
5
5
5
5
5
5
5
5
5
5
5
5
5
5
5
5
5
5
5
5
5
5
5
5
5
5
5
5
5
5
5
5
5
5
5
5
5
5
5
5
5
5
5
5
5
5
5
5
5
5
5
5
5
5
5
5
5
5
5
5
5
5
5
5
5
5
5
5
5
5
5
5
5
5
5
5
5
5
5
5
5
5
5
5
5
5
5
5
3
3
3
3
5
5
5
5
5
5
5
5
5
5
5
5
5
5
5
5
5
5
5
5
5
5
5
5
5
5
5
5
5
5
5
5
5
5
5
5
5
5
5
5
5
5
5
5
5
5
5
5
5
5
5
5
5
5
5
5
5
5
5
5
5
5
5
5
5
5
5
5
5
5
5
5
5
5
5
5
5
5
5
5
5
5
5
5
5
5
5
5
5
5
5
5
5
5
5
5
5
5
5
5
5
5
5
5
5
5
5
5
5
5
5
5
5
5
5
5
5
5
5
5
5
5
5
5
5
5
5
5
5
5
5
5
5
5
5
5
5
5
5
5
5
5
5
5
5
5
5
5
5
5
5
5
5
5
5
5
5
5
5
5
5
5
5
5
5
5
5
5
5
5
5
5
5
5
5
5
5
5
5
5
5
5
5
5
5
5
5
5
5
5
5
5
5
5
5
5
5
5
5
5
5
5
5
5
5
5
5
5
5
5
5
5
5
5
5
5
5
5
5
5
5
5
5
5
5
5
5
5
5
5
5
5
5
5
5
5
5
5
5
5
5
5
5
5
5
5
5
5
5
5
5
5
5
5
5
5
5
5
5
5
5
5
5
5
5
5
5
5
3
3
3
3
5
5
5
5
5
5
5
5
5
5
5
5
5
5
5
5
5
5
5
5
5
5
5
5
5
5
5
5
5
5
5
5
5
5
5
5
5
5
5
5
5
5
5
5
5
5
5
5
5
5
5
5
5
5
5
5
5
5
5
5
5
5
5
5
5
5
5
5
5
5
5
5
5
5
5
5
5
5
5
5
5
5
5
5
5
5
5
5
5
5
5
5
5
5
5
5
5
5
5
5
5
5
5
5
5
5
5
5
5
5
5
5
5
5
5
5
5
5
5
5
5
5
5
5
5
5
5
5
5
5
5
5
5
5
5
5
5
5
5
5
5
5
5
5
5
5
5
5
5
5
5
5
5
5
5
5
5
5
5
5
5
5
5
5
5
5
5
5
5
5
5
5
5
5
5
5
5
5
5
5
5
5
5
5
5
5
5
5
5
5
5
5
5
5
5
5
5
5
5
5
5
5
5
5
5
5
5
5
5
5
5
5
5
5
5
5
5
5
5
5
5
5
5
5
5
5
5
5
5
5
5
5
5
5
5
5
5
5
5
5
5
5
5
5
5
5
5
5
5
5
5
5
5
5
5
5
5
5
5
5
5
5
5
5
5
5
5
5
3
3
3
3
5
5
5
5
5
5
5
5
5
5
5
5
5
5
5
5
5
5
5
5
5
5
5
5
5
5
5
5
5
5
5
5
5
5
5
5
5
5
5
5
5
5
5
5
5
5
5
5
5
5
5
5
5
5
5
5
5
5
5
5
5
5
5
5
5
5
5
5
5
5
5
5
5
5
5
5
5
5
5
5
5
5
5
5
5
5
5
5
5
5
5
5
5
5
5
5
5
5
5
5
5
5
5
5
5
5
5
5
5
5
5
5
5
5
5
5
5
5
5
5
5
5
5
5
5
5
5
5
5
5
5
5
5
5
5
5
5
5
5
5
5
5
5
5
5
5
5
5
5
5
5
5
5
5
5
5
5
5
5
5
5
5
5
5
5
5
5
5
5
5
5
5
5
5
5
5
5
5
5
5
5
5
5
5
5
5
5
5
5
5
5
5
5
5
5
5
5
5
5
5
5
5
5
5
5
5
5
5
5
5
5
5
5
5
5
5
5
5
5
5
5
5
5
5
5
5
5
5
5
5
5
5
5
5
5
5
5
5
5
5
5
5
5
5
5
5
5
5
5
5
5
5
5
5
5
5
5
5
5
5
5
5
5
5
5
5
5
5
3
3
3
3
5
5
5
5
5
5
5
5
5
5
5
5
5
5
5
5
5
5
5
5
5
5
5
5
5
5
5
5
5
5
5
5
5
5
5
5
5
5
5
5
5
5
5
5
5
5
5
5
5
5
5
5
5
5
5
5
5
5
5
5
5
5
5
5
5
5
5
5
5
5
5
5
5
5
5
5
5
5
5
5
5
5
5
5
5
5
5
5
5
5
5
5
5
5
5
5
5
5
5
5
5
5
5
5
5
5
5
5
5
5
5
5
5
5
5
5
5
5
5
5
5
5
5
5
5
5
5
5
5
5
5
5
5
5
5
5
5
5
5
5
5
5
5
5
5
5
5
5
5
5
5
5
5
5
5
5
5
5
5
5
5
5
5
5
5
5
5
5
5
5
5
5
5
5
5
5
5
5
5
5
5
5
5
5
5
5
5
5
5
5
5
5
5
5
5
5
5
5
5
5
5
5
5
5
5
5
5
5
5
5
5
5
5
5
5
5
5
5
5
5
5
5
5
5
5
5
5
5
5
5
5
5
5
5
5
5
5
5
5
5
5
5
5
5
5
5
5
5
5
5
5
5
5
5
5
5
5
5
5
5
5
5
5
5
5
5
5
5
3
3
3
3
5
5
5
5
5
5
5
5
5
5
5
5
5
5
5
5
5
5
5
5
5
5
5
5
5
5
5
5
5
5
5
5
5
5
5
5
5
5
5
5
5
5
5
5
5
5
5
5
5
5
5
5
5
5
5
5
5
5
5
5
5
5
5
5
5
5
5
5
5
5
5
5
5
5
5
5
5
5
5
5
5
5
5
5
5
5
5
5
5
5
5
5
5
5
5
5
5
5
5
5
5
5
5
5
5
5
5
5
5
5
5
5
5
5
5
5
5
5
5
5
5
5
5
5
5
5
5
5
5
5
5
5
5
5
5
5
5
5
5
5
5
5
5
5
5
5
5
5
5
5
5
5
5
5
5
5
5
5
5
5
5
5
5
5
5
5
5
5
5
5
5
5
5
5
5
5
5
5
5
5
5
5
5
5
5
5
5
5
5
5
5
5
5
5
5
5
5
5
5
5
5
5
5
5
5
5
5
5
5
5
5
5
5
5
5
5
5
5
5
5
5
5
5
5
5
5
5
5
5
5
5
5
5
5
5
5
5
5
5
5
5
5
5
5
5
5
5
5
5
5
5
5
5
5
5
5
5
5
5
5
5
5
5
5
5
5
5
5
3
3
3
3
5
5
5
5
5
5
5
5
5
5
5
5
5
5
5
5
5
5
5
5
5
5
5
5
5
5
5
5
5
5
5
5
5
5
5
5
5
5
5
5
5
5
5
5
5
5
5
5
5
5
5
5
5
5
5
5
5
5
5
5
5
5
5
5
5
5
5
5
5
5
5
5
5
5
5
5
5
5
5
5
5
5
5
5
5
5
5
5
5
5
5
5
5
5
5
5
5
5
5
5
5
5
5
5
5
5
5
5
5
5
5
5
5
5
5
5
5
5
5
5
5
5
5
5
5
5
5
5
5
5
5
5
5
5
5
5
5
5
5
5
5
5
5
5
5
5
5
5
5
5
5
5
5
5
5
5
5
5
5
5
5
5
5
5
5
5
5
5
5
5
5
5
5
5
5
5
5
5
5
5
5
5
5
5
5
5
5
5
5
5
5
5
5
5
5
5
5
5
5
5
5
5
5
5
5
5
5
5
5
5
5
5
5
5
5
5
5
5
5
5
5
5
5
5
5
5
5
5
5
5
5
5
5
5
5
5
5
5
5
5
5
5
5
5
5
5
5
5
5
5
5
5
5
5
5
5
5
5
5
5
5
5
5
5
5
5
5
5
3
3
3
3
5
5
5
5
5
5
5
5
5
5
5
5
5
5
5
5
5
5
5
5
5
5
5
5
5
5
5
5
5
5
5
5
5
5
5
5
5
5
5
5
5
5
5
5
5
5
5
5
5
5
5
5
5
5
5
5
5
5
5
5
5
5
5
5
5
5
5
5
5
5
5
5
5
5
5
5
5
5
5
5
5
5
5
5
5
5
5
5
5
5
5
5
5
5
5
5
5
5
5
5
5
5
5
5
5
5
5
5
5
5
5
5
5
5
5
5
5
5
5
5
5
5
5
5
5
5
5
5
5
5
5
5
5
5
5
5
5
5
5
5
5
5
5
5
5
5
5
5
5
5
5
5
5
5
5
5
5
5
5
5
5
5
5
5
5
5
5
5
5
5
5
5
5
5
5
5
5
5
5
5
5
5
5
5
5
5
5
5
5
5
5
5
5
5
5
5
5
5
5
5
5
5
5
5
5
5
5
5
5
5
5
5
5
5
5
5
5
5
5
5
5
5
5
5
5
5
5
5
5
5
5
5
5
5
5
5
5
5
5
5
5
5
5
5
5
5
5
5
5
5
5
5
5
5
5
5
5
5
5
5
5
5
5
5
5
5
5
5
3
3
3
3
5
5
5
5
5
5
5
5
5
5
5
5
5
5
5
5
5
5
5
5
5
5
5
5
5
5
5
5
5
5
5
5
5
5
5
5
5
5
5
5
5
5
5
5
5
5
5
5
5
5
5
5
5
5
5
5
5
5
5
5
5
5
5
5
5
5
5
5
5
5
5
5
5
5
5
5
5
5
5
5
5
5
5
5
5
5
5
5
5
5
5
5
5
5
5
5
5
5
5
5
5
5
5
5
5
5
5
5
5
5
5
5
5
5
5
5
5
5
5
5
5
5
5
5
5
5
5
5
5
5
5
5
5
5
5
5
5
5
5
5
5
5
5
5
5
5
5
5
5
5
5
5
5
5
5
5
5
5
5
5
5
5
5
5
5
5
5
5
5
5
5
5
5
5
5
5
5
5
5
5
5
5
5
5
5
5
5
5
5
5
5
5
5
5
5
5
5
5
5
5
5
5
5
5
5
5
5
5
5
5
5
5
5
5
5
5
5
5
5
5
5
5
5
5
5
5
5
5
5
5
5
5
5
5
5
5
5
5
5
5
5
5
5
5
5
5
5
5
5
5
5
5
5
5
5
5
5
5
5
5
5
5
5
5
5
5
5
5
3
3
3
3
5
5
5
5
5
5
5
5
5
5
5
5
5
5
5
5
5
5
5
5
5
5
5
5
5
5
5
5
5
5
5
5
5
5
5
5
5
5
5
5
5
5
5
5
5
5
5
5
5
5
5
5
5
5
5
5
5
5
5
5
5
5
5
5
5
5
5
5
5
5
5
5
5
5
5
5
5
5
5
5
5
5
5
5
5
5
5
5
5
5
5
5
5
5
5
5
5
5
5
5
5
5
5
5
5
5
5
5
5
5
5
5
5
5
5
5
5
5
5
5
5
5
5
5
5
5
5
5
5
5
5
5
5
5
5
5
5
5
5
5
5
5
5
5
5
5
5
5
5
5
5
5
5
5
5
5
5
5
5
5
5
5
5
5
5
5
5
5
5
5
5
5
5
5
5
5
5
5
5
5
5
5
5
5
5
5
5
5
5
5
5
5
5
5
5
5
5
5
5
5
5
5
5
5
5
5
5
5
5
5
5
5
5
5
5
5
5
5
5
5
5
5
5
5
5
5
5
5
5
5
5
5
5
5
5
5
5
5
5
5
5
5
5
5
5
5
5
5
5
5
5
5
5
5
5
5
5
5
5
5
5
5
5
5
5
5
5
5
3
3
3
3
5
5
5
5
5
5
5
5
5
5
5
5
5
5
5
5
5
5
5
5
5
5
5
5
5
5
5
5
5
5
5
5
5
5
5
5
5
5
5
5
5
5
5
5
5
5
5
5
5
5
5
5
5
5
5
5
5
5
5
5
5
5
5
5
5
5
5
5
5
5
5
5
5
5
5
5
5
5
5
5
5
5
5
5
5
5
5
5
5
5
5
5
5
5
5
5
5
5
5
5
5
5
5
5
5
5
5
5
5
5
5
5
5
5
5
5
5
5
5
5
5
5
5
5
5
5
5
5
5
5
5
5
5
5
5
5
5
5
5
5
5
5
5
5
5
5
5
5
5
5
5
5
5
5
5
5
5
5
5
5
5
5
5
5
5
5
5
5
5
5
5
5
5
5
5
5
5
5
5
5
5
5
5
5
5
5
5
5
5
5
5
5
5
5
5
5
5
5
5
5
5
5
5
5
5
5
5
5
5
5
5
5
5
5
5
5
5
5
5
5
5
5
5
5
5
5
5
5
5
5
5
5
5
5
5
5
5
5
5
5
5
5
5
5
5
5
5
5
5
5
5
5
5
5
5
5
5
5
5
5
5
5
5
5
5
5
5
5
3
3
3
3
5
5
5
5
5
5
5
5
5
5
5
5
5
5
5
5
5
5
5
5
5
5
5
5
5
5
5
5
5
5
5
5
5
5
5
5
5
5
5
5
5
5
5
5
5
5
5
5
5
5
5
5
5
5
5
5
5
5
5
5
5
5
5
5
5
5
5
5
5
5
5
5
5
5
5
5
5
5
5
5
5
5
5
5
5
5
5
5
5
5
5
5
5
5
5
5
5
5
5
5
5
5
5
5
5
5
5
5
5
5
5
5
5
5
5
5
5
5
5
5
5
5
5
5
5
5
5
5
5
5
5
5
5
5
5
5
5
5
5
5
5
5
5
5
5
5
5
5
5
5
5
5
5
5
5
5
5
5
5
5
5
5
5
5
5
5
5
5
5
5
5
5
5
5
5
5
5
5
5
5
5
5
5
5
5
5
5
5
5
5
5
5
5
5
5
5
5
5
5
5
5
5
5
5
5
5
5
5
5
5
5
5
5
5
5
5
5
5
5
5
5
5
5
5
5
5
5
5
5
5
5
5
5
5
5
5
5
5
5
5
5
5
5
5
5
5
5
5
5
5
5
5
5
5
5
5
5
5
5
5
5
5
5
5
5
5
5
5
3
3
3
3
5
5
5
5
5
5
5
5
5
5
5
5
5
5
5
5
5
5
5
5
5
5
5
5
5
5
5
5
5
5
5
5
5
5
5
5
5
5
5
5
5
5
5
5
5
5
5
5
5
5
5
5
5
5
5
5
5
5
5
5
5
5
5
5
5
5
5
5
5
5
5
5
5
5
5
5
5
5
5
5
5
5
5
5
5
5
5
5
5
5
5
5
5
5
5
5
5
5
5
5
5
5
5
5
5
5
5
5
5
5
5
5
5
5
5
5
5
5
5
5
5
5
5
5
5
5
5
5
5
5
5
5
5
5
5
5
5
5
5
5
5
5
5
5
5
5
5
5
5
5
5
5
5
5
5
5
5
5
5
5
5
5
5
5
5
5
5
5
5
5
5
5
5
5
5
5
5
5
5
5
5
5
5
5
5
5
5
5
5
5
5
5
5
5
5
5
5
5
5
5
5
5
5
5
5
5
5
5
5
5
5
5
5
5
5
5
5
5
5
5
5
5
5
5
5
5
5
5
5
5
5
5
5
5
5
5
5
5
5
5
5
5
5
5
5
5
5
5
5
5
5
5
5
5
5
5
5
5
5
5
5
5
5
5
5
5
5
5
3
3
3
3
5
5
5
5
5
5
5
5
5
5
5
5
5
5
5
5
5
5
5
5
5
5
5
5
5
5
5
5
5
5
5
5
5
5
5
5
5
5
5
5
5
5
5
5
5
5
5
5
5
5
5
5
5
5
5
5
5
5
5
5
5
5
5
5
5
5
5
5
5
5
5
5
5
5
5
5
5
5
5
5
5
5
5
5
5
5
5
5
5
5
5
5
5
5
5
5
5
5
5
5
5
5
5
5
5
5
5
5
5
5
5
5
5
5
5
5
5
5
5
5
5
5
5
5
5
5
5
5
5
5
5
5
5
5
5
5
5
5
5
5
5
5
5
5
5
5
5
5
5
5
5
5
5
5
5
5
5
5
5
5
5
5
5
5
5
5
5
5
5
5
5
5
5
5
5
5
5
5
5
5
5
5
5
5
5
5
5
5
5
5
5
5
5
5
5
5
5
5
5
5
5
5
5
5
5
5
5
5
5
5
5
5
5
5
5
5
5
5
5
5
5
5
5
5
5
5
5
5
5
5
5
5
5
5
5
5
5
5
5
5
5
5
5
5
5
5
5
5
5
5
5
5
5
5
5
5
5
5
5
5
5
5
5
5
5
5
5
5
3
3
3
3
5
5
5
5
5
5
5
5
5
5
5
5
5
5
5
5
5
5
5
5
5
5
5
5
5
5
5
5
5
5
5
5
5
5
5
5
5
5
5
5
5
5
5
5
5
5
5
5
5
5
5
5
5
5
5
5
5
5
5
5
5
5
5
5
5
5
5
5
5
5
5
5
5
5
5
5
5
5
5
5
5
5
5
5
5
5
5
5
5
5
5
5
5
5
5
5
5
5
5
5
5
5
5
5
5
5
5
5
5
5
5
5
5
5
5
5
5
5
5
5
5
5
5
5
5
5
5
5
5
5
5
5
5
5
5
5
5
5
5
5
5
5
5
5
5
5
5
5
5
5
5
5
5
5
5
5
5
5
5
5
5
5
5
5
5
5
5
5
5
5
5
5
5
5
5
5
5
5
5
5
5
5
5
5
5
5
5
5
5
5
5
5
5
5
5
5
5
5
5
5
5
5
5
5
5
5
5
5
5
5
5
5
5
5
5
5
5
5
5
5
5
5
5
5
5
5
5
5
5
5
5
5
5
5
5
5
5
5
5
5
5
5
5
5
5
5
5
5
5
5
5
5
5
5
5
5
5
5
5
5
5
5
5
5
5
5
5
5
3
3
3
3
5
5
5
5
5
5
5
5
5
5
5
5
5
5
5
5
5
5
5
5
5
5
5
5
5
5
5
5
5
5
5
5
5
5
5
5
5
5
5
5
5
5
5
5
5
5
5
5
5
5
5
5
5
5
5
5
5
5
5
5
5
5
5
5
5
5
5
5
5
5
5
5
5
5
5
5
5
5
5
5
5
5
5
5
5
5
5
5
5
5
5
5
5
5
5
5
5
5
5
5
5
5
5
5
5
5
5
5
5
5
5
5
5
5
5
5
5
5
5
5
5
5
5
5
5
5
5
5
5
5
5
5
5
5
5
5
5
5
5
5
5
5
5
5
5
5
5
5
5
5
5
5
5
5
5
5
5
5
5
5
5
5
5
5
5
5
5
5
5
5
5
5
5
5
5
5
5
5
5
5
5
5
5
5
5
5
5
5
5
5
5
5
5
5
5
5
5
5
5
5
5
5
5
5
5
5
5
5
5
5
5
5
5
5
5
5
5
5
5
5
5
5
5
5
5
5
5
5
5
5
5
5
5
5
5
5
5
5
5
5
5
5
5
5
5
5
5
5
5
5
5
5
5
5
5
5
5
5
5
5
5
5
5
5
5
5
5
5
3
3
3
3
5
5
5
5
5
5
5
5
5
5
5
5
5
5
5
5
5
5
5
5
5
5
5
5
5
5
5
5
5
5
5
5
5
5
5
5
5
5
5
5
5
5
5
5
5
5
5
5
5
5
5
5
5
5
5
5
5
5
5
5
5
5
5
5
5
5
5
5
5
5
5
5
5
5
5
5
5
5
5
5
5
5
5
5
5
5
5
5
5
5
5
5
5
5
5
5
5
5
5
5
5
5
5
5
5
5
5
5
5
5
5
5
5
5
5
5
5
5
5
5
5
5
5
5
5
5
5
5
5
5
5
5
5
5
5
5
5
5
5
5
5
5
5
5
5
5
5
5
5
5
5
5
5
5
5
5
5
5
5
5
5
5
5
5
5
5
5
5
5
5
5
5
5
5
5
5
5
5
5
5
5
5
5
5
5
5
5
5
5
5
5
5
5
5
5
5
5
5
5
5
5
5
5
5
5
5
5
5
5
5
5
5
5
5
5
5
5
5
5
5
5
5
5
5
5
5
5
5
5
5
5
5
5
5
5
5
5
5
5
5
5
5
5
5
5
5
5
5
5
5
5
5
5
5
5
5
5
5
5
5
5
5
5
5
5
5
5
5
3
3
3
3
5
5
5
5
5
5
5
5
5
5
5
5
5
5
5
5
5
5
5
5
5
5
5
5
5
5
5
5
5
5
5
5
5
5
5
5
5
5
5
5
5
5
5
5
5
5
5
5
5
5
5
5
5
5
5
5
5
5
5
5
5
5
5
5
5
5
5
5
5
5
5
5
5
5
5
5
5
5
5
5
5
5
5
5
5
5
5
5
5
5
5
5
5
5
5
5
5
5
5
5
5
5
5
5
5
5
5
5
5
5
5
5
5
5
5
5
5
5
5
5
5
5
5
5
5
5
5
5
5
5
5
5
5
5
5
5
5
5
5
5
5
5
5
5
5
5
5
5
5
5
5
5
5
5
5
5
5
5
5
5
5
5
5
5
5
5
5
5
5
5
5
5
5
5
5
5
5
5
5
5
5
5
5
5
5
5
5
5
5
5
5
5
5
5
5
5
5
5
5
5
5
5
5
5
5
5
5
5
5
5
5
5
5
5
5
5
5
5
5
5
5
5
5
5
5
5
5
5
5
5
5
5
5
5
5
5
5
5
5
5
5
5
5
5
5
5
5
5
5
5
5
5
5
5
5
5
5
5
5
5
5
5
5
5
5
5
5
5
3
3
3
3
5
5
5
5
5
5
5
5
5
5
5
5
5
5
5
5
5
5
5
5
5
5
5
5
5
5
5
5
5
5
5
5
5
5
5
5
5
5
5
5
5
5
5
5
5
5
5
5
5
5
5
5
5
5
5
5
5
5
5
5
5
5
5
5
5
5
5
5
5
5
5
5
5
5
5
5
5
5
5
5
5
5
5
5
5
5
5
5
5
5
5
5
5
5
5
5
5
5
5
5
5
5
5
5
5
5
5
5
5
5
5
5
5
5
5
5
5
5
5
5
5
5
5
5
5
5
5
5
5
5
5
5
5
5
5
5
5
5
5
5
5
5
5
5
5
5
5
5
5
5
5
5
5
5
5
5
5
5
5
5
5
5
5
5
5
5
5
5
5
5
5
5
5
5
5
5
5
5
5
5
5
5
5
5
5
5
5
5
5
5
5
5
5
5
5
5
5
5
5
5
5
5
5
5
5
5
5
5
5
5
5
5
5
5
5
5
5
5
5
5
5
5
5
5
5
5
5
5
5
5
5
5
5
5
5
5
5
5
5
5
5
5
5
5
5
5
5
5
5
5
5
5
5
5
5
5
5
5
5
5
5
5
5
5
5
5
5
5
3
3
3
3
5
5
5
5
5
5
5
5
5
5
5
5
5
5
5
5
5
5
5
5
5
5
5
5
5
5
5
5
5
5
5
5
5
5
5
5
5
5
5
5
5
5
5
5
5
5
5
5
5
5
5
5
5
5
5
5
5
5
5
5
5
5
5
5
5
5
5
5
5
5
5
5
5
5
5
5
5
5
5
5
5
5
5
5
5
5
5
5
5
5
5
5
5
5
5
5
5
5
5
5
5
5
5
5
5
5
5
5
5
5
5
5
5
5
5
5
5
5
5
5
5
5
5
5
5
5
5
5
5
5
5
5
5
5
5
5
5
5
5
5
5
5
5
5
5
5
5
5
5
5
5
5
5
5
5
5
5
5
5
5
5
5
5
5
5
5
5
5
5
5
5
5
5
5
5
5
5
5
5
5
5
5
5
5
5
5
5
5
5
5
5
5
5
5
5
5
5
5
5
5
5
5
5
5
5
5
5
5
5
5
5
5
5
5
5
5
5
5
5
5
5
5
5
5
5
5
5
5
5
5
5
5
5
5
5
5
5
5
5
5
5
5
5
5
5
5
5
5
5
5
5
5
5
5
5
5
5
5
5
5
5
5
5
5
5
5
5
5
3
3
3
3
5
5
5
5
5
5
5
5
5
5
5
5
5
5
5
5
5
5
5
5
5
5
5
5
5
5
5
5
5
5
5
5
5
5
5
5
5
5
5
5
5
5
5
5
5
5
5
5
5
5
5
5
5
5
5
5
5
5
5
5
5
5
5
5
5
5
5
5
5
5
5
5
5
5
5
5
5
5
5
5
5
5
5
5
5
5
5
5
5
5
5
5
5
5
5
5
5
5
5
5
5
5
5
5
5
5
5
5
5
5
5
5
5
5
5
5
5
5
5
5
5
5
5
5
5
5
5
5
5
5
5
5
5
5
5
5
5
5
5
5
5
5
5
5
5
5
5
5
5
5
5
5
5
5
5
5
5
5
5
5
5
5
5
5
5
5
5
5
5
5
5
5
5
5
5
5
5
5
5
5
5
5
5
5
5
5
5
5
5
5
5
5
5
5
5
5
5
5
5
5
5
5
5
5
5
5
5
5
5
5
5
5
5
5
5
5
5
5
5
5
5
5
5
5
5
5
5
5
5
5
5
5
5
5
5
5
5
5
5
5
5
5
5
5
5
5
5
5
5
5
5
5
5
5
5
5
5
5
5
5
5
5
5
5
5
5
5
5
3
3
3
3
5
5
5
5
5
5
5
5
5
5
5
5
5
5
5
5
5
5
5
5
5
5
5
5
5
5
5
5
5
5
5
5
5
5
5
5
5
5
5
5
5
5
5
5
5
5
5
5
5
5
5
5
5
5
5
5
5
5
5
5
5
5
5
5
5
5
5
5
5
5
5
5
5
5
5
5
5
5
5
5
5
5
5
5
5
5
5
5
5
5
5
5
5
5
5
5
5
5
5
5
5
5
5
5
5
5
5
5
5
5
5
5
5
5
5
5
5
5
5
5
5
5
5
5
5
5
5
5
5
5
5
5
5
5
5
5
5
5
5
5
5
5
5
5
5
5
5
5
5
5
5
5
5
5
5
5
5
5
5
5
5
5
5
5
5
5
5
5
5
5
5
5
5
5
5
5
5
5
5
5
5
5
5
5
5
5
5
5
5
5
5
5
5
5
5
5
5
5
5
5
5
5
5
5
5
5
5
5
5
5
5
5
5
5
5
5
5
5
5
5
5
5
5
5
5
5
5
5
5
5
5
5
5
5
5
5
5
5
5
5
5
5
5
5
5
5
5
5
5
5
5
5
5
5
5
5
5
5
5
5
5
5
5
5
5
5
5
5
3
3
3
3
5
5
5
5
5
5
5
5
5
5
5
5
5
5
5
5
5
5
5
5
5
5
5
5
5
5
5
5
5
5
5
5
5
5
5
5
5
5
5
5
5
5
5
5
5
5
5
5
5
5
5
5
5
5
5
5
5
5
5
5
5
5
5
5
5
5
5
5
5
5
5
5
5
5
5
5
5
5
5
5
5
5
5
5
5
5
5
5
5
5
5
5
5
5
5
5
5
5
5
5
5
5
5
5
5
5
5
5
5
5
5
5
5
5
5
5
5
5
5
5
5
5
5
5
5
5
5
5
5
5
5
5
5
5
5
5
5
5
5
5
5
5
5
5
5
5
5
5
5
5
5
5
5
5
5
5
5
5
5
5
5
5
5
5
5
5
5
5
5
5
5
5
5
5
5
5
5
5
5
5
5
5
5
5
5
5
5
5
5
5
5
5
5
5
5
5
5
5
5
5
5
5
5
5
5
5
5
5
5
5
5
5
5
5
5
5
5
5
5
5
5
5
5
5
5
5
5
5
5
5
5
5
5
5
5
5
5
5
5
5
5
5
5
5
5
5
5
5
5
5
5
5
5
5
5
5
5
5
5
5
5
5
5
5
5
5
5
5
3
3
3
3
5
5
5
5
5
5
5
5
5
5
5
5
5
5
5
5
5
5
5
5
5
5
5
5
5
5
5
5
5
5
5
5
5
5
5
5
5
5
5
5
5
5
5
5
5
5
5
5
5
5
5
5
5
5
5
5
5
5
5
5
5
5
5
5
5
5
5
5
5
5
5
5
5
5
5
5
5
5
5
5
5
5
5
5
5
5
5
5
5
5
5
5
5
5
5
5
5
5
5
5
5
5
5
5
5
5
5
5
5
5
5
5
5
5
5
5
5
5
5
5
5
5
5
5
5
5
5
5
5
5
5
5
5
5
5
5
5
5
5
5
5
5
5
5
5
5
5
5
5
5
5
5
5
5
5
5
5
5
5
5
5
5
5
5
5
5
5
5
5
5
5
5
5
5
5
5
5
5
5
5
5
5
5
5
5
5
5
5
5
5
5
5
5
5
5
5
5
5
5
5
5
5
5
5
5
5
5
5
5
5
5
5
5
5
5
5
5
5
5
5
5
5
5
5
5
5
5
5
5
5
5
5
5
5
5
5
5
5
5
5
5
5
5
5
5
5
5
5
5
5
5
5
5
5
5
5
5
5
5
5
5
5
5
5
5
5
5
5
3
3
3
3
5
5
5
5
5
5
5
5
5
5
5
5
5
5
5
5
5
5
5
5
5
5
5
5
5
5
5
5
5
5
5
5
5
5
5
5
5
5
5
5
5
5
5
5
5
5
5
5
5
5
5
5
5
5
5
5
5
5
5
5
5
5
5
5
5
5
5
5
5
5
5
5
5
5
5
5
5
5
5
5
5
5
5
5
5
5
5
5
5
5
5
5
5
5
5
5
5
5
5
5
5
5
5
5
5
5
5
5
5
5
5
5
5
5
5
5
5
5
5
5
5
5
5
5
5
5
5
5
5
5
5
5
5
5
5
5
5
5
5
5
5
5
5
5
5
5
5
5
5
5
5
5
5
5
5
5
5
5
5
5
5
5
5
5
5
5
5
5
5
5
5
5
5
5
5
5
5
5
5
5
5
5
5
5
5
5
5
5
5
5
5
5
5
5
5
5
5
5
5
5
5
5
5
5
5
5
5
5
5
5
5
5
5
5
5
5
5
5
5
5
5
5
5
5
5
5
5
5
5
5
5
5
5
5
5
5
5
5
5
5
5
5
5
5
5
5
5
5
5
5
5
5
5
5
5
5
5
5
5
5
5
5
5
5
5
5
5
5
3
3
3
3
5
5
5
5
5
5
5
5
5
5
5
5
5
5
5
5
5
5
5
5
5
5
5
5
5
5
5
5
5
5
5
5
5
5
5
5
5
5
5
5
5
5
5
5
5
5
5
5
5
5
5
5
5
5
5
5
5
5
5
5
5
5
5
5
5
5
5
5
5
5
5
5
5
5
5
5
5
5
5
5
5
5
5
5
5
5
5
5
5
5
5
5
5
5
5
5
5
5
5
5
5
5
5
5
5
5
5
5
5
5
5
5
5
5
5
5
5
5
5
5
5
5
5
5
5
5
5
5
5
5
5
5
5
5
5
5
5
5
5
5
5
5
5
5
5
5
5
5
5
5
5
5
5
5
5
5
5
5
5
5
5
5
5
5
5
5
5
5
5
5
5
5
5
5
5
5
5
5
5
5
5
5
5
5
5
5
5
5
5
5
5
5
5
5
5
5
5
5
5
5
5
5
5
5
5
5
5
5
5
5
5
5
5
5
5
5
5
5
5
5
5
5
5
5
5
5
5
5
5
5
5
5
5
5
5
5
5
5
5
5
5
5
5
5
5
5
5
5
5
5
5
5
5
5
5
5
5
5
5
5
5
5
5
5
5
5
5
5
3
3
3
3
5
5
5
5
5
5
5
5
5
5
5
5
5
5
5
5
5
5
5
5
5
5
5
5
5
5
5
5
5
5
5
5
5
5
5
5
5
5
5
5
5
5
5
5
5
5
5
5
5
5
5
5
5
5
5
5
5
5
5
5
5
5
5
5
5
5
5
5
5
5
5
5
5
5
5
5
5
5
5
5
5
5
5
5
5
5
5
5
5
5
5
5
5
5
5
5
5
5
5
5
5
5
5
5
5
5
5
5
5
5
5
5
5
5
5
5
5
5
5
5
5
5
5
5
5
5
5
5
5
5
5
5
5
5
5
5
5
5
5
5
5
5
5
5
5
5
5
5
5
5
5
5
5
5
5
5
5
5
5
5
5
5
5
5
5
5
5
5
5
5
5
5
5
5
5
5
5
5
5
5
5
5
5
5
5
5
5
5
5
5
5
5
5
5
5
5
5
5
5
5
5
5
5
5
5
5
5
5
5
5
5
5
5
5
5
5
5
5
5
5
5
5
5
5
5
5
5
5
5
5
5
5
5
5
5
5
5
5
5
5
5
5
5
5
5
5
5
5
5
5
5
5
5
5
5
5
5
5
5
5
5
5
5
5
5
5
5
5
3
3
3
3
5
5
5
5
5
5
5
5
5
5
5
5
5
5
5
5
5
5
5
5
5
5
5
5
5
5
5
5
5
5
5
5
5
5
5
5
5
5
5
5
5
5
5
5
5
5
5
5
5
5
5
5
5
5
5
5
5
5
5
5
5
5
5
5
5
5
5
5
5
5
5
5
5
5
5
5
5
5
5
5
5
5
5
5
5
5
5
5
5
5
5
5
5
5
5
5
5
5
5
5
5
5
5
5
5
5
5
5
5
5
5
5
5
5
5
5
5
5
5
5
5
5
5
5
5
5
5
5
5
5
5
5
5
5
5
5
5
5
5
5
5
5
5
5
5
5
5
5
5
5
5
5
5
5
5
5
5
5
5
5
5
5
5
5
5
5
5
5
5
5
5
5
5
5
5
5
5
5
5
5
5
5
5
5
5
5
5
5
5
5
5
5
5
5
5
5
5
5
5
5
5
5
5
5
5
5
5
5
5
5
5
5
5
5
5
5
5
5
5
5
5
5
5
5
5
5
5
5
5
5
5
5
5
5
5
5
5
5
5
5
5
5
5
5
5
5
5
5
5
5
5
5
5
5
5
5
5
5
5
5
5
5
5
5
5
5
5
5
3
3
3
3
5
5
5
5
5
5
5
5
5
5
5
5
5
5
5
5
5
5
5
5
5
5
5
5
5
5
5
5
5
5
5
5
5
5
5
5
5
5
5
5
5
5
5
5
5
5
5
5
5
5
5
5
5
5
5
5
5
5
5
5
5
5
5
5
5
5
5
5
5
5
5
5
5
5
5
5
5
5
5
5
5
5
5
5
5
5
5
5
5
5
5
5
5
5
5
5
5
5
5
5
5
5
5
5
5
5
5
5
5
5
5
5
5
5
5
5
5
5
5
5
5
5
5
5
5
5
5
5
5
5
5
5
5
5
5
5
5
5
5
5
5
5
5
5
5
5
5
5
5
5
5
5
5
5
5
5
5
5
5
5
5
5
5
5
5
5
5
5
5
5
5
5
5
5
5
5
5
5
5
5
5
5
5
5
5
5
5
5
5
5
5
5
5
5
5
5
5
5
5
5
5
5
5
5
5
5
5
5
5
5
5
5
5
5
5
5
5
5
5
5
5
5
5
5
5
5
5
5
5
5
5
5
5
5
5
5
5
5
5
5
5
5
5
5
5
5
5
5
5
5
5
5
5
5
5
5
5
5
5
5
5
5
5
5
5
5
5
5
3
3
3
3
5
5
5
5
5
5
5
5
5
5
5
5
5
5
5
5
5
5
5
5
5
5
5
5
5
5
5
5
5
5
5
5
5
5
5
5
5
5
5
5
5
5
5
5
5
5
5
5
5
5
5
5
5
5
5
5
5
5
5
5
5
5
5
5
5
5
5
5
5
5
5
5
5
5
5
5
5
5
5
5
5
5
5
5
5
5
5
5
5
5
5
5
5
5
5
5
5
5
5
5
5
5
5
5
5
5
5
5
5
5
5
5
5
5
5
5
5
5
5
5
5
5
5
5
5
5
5
5
5
5
5
5
5
5
5
5
5
5
5
5
5
5
5
5
5
5
5
5
5
5
5
5
5
5
5
5
5
5
5
5
5
5
5
5
5
5
5
5
5
5
5
5
5
5
5
5
5
5
5
5
5
5
5
5
5
5
5
5
5
5
5
5
5
5
5
5
5
5
5
5
5
5
5
5
5
5
5
5
5
5
5
5
5
5
5
5
5
5
5
5
5
5
5
5
5
5
5
5
5
5
5
5
5
5
5
5
5
5
5
5
5
5
5
5
5
5
5
5
5
5
5
5
5
5
5
5
5
5
5
5
5
5
5
5
5
5
5
5
3
3
3
3
5
5
5
5
5
5
5
5
5
5
5
5
5
5
5
5
5
5
5
5
5
5
5
5
5
5
5
5
5
5
5
5
5
5
5
5
5
5
5
5
5
5
5
5
5
5
5
5
5
5
5
5
5
5
5
5
5
5
5
5
5
5
5
5
5
5
5
5
5
5
5
5
5
5
5
5
5
5
5
5
5
5
5
5
5
5
5
5
5
5
5
5
5
5
5
5
5
5
5
5
5
5
5
5
5
5
5
5
5
5
5
5
5
5
5
5
5
5
5
5
5
5
5
5
5
5
5
5
5
5
5
5
5
5
5
5
5
5
5
5
5
5
5
5
5
5
5
5
5
5
5
5
5
5
5
5
5
5
5
5
5
5
5
5
5
5
5
5
5
5
5
5
5
5
5
5
5
5
5
5
5
5
5
5
5
5
5
5
5
5
5
5
5
5
5
5
5
5
5
5
5
5
5
5
5
5
5
5
5
5
5
5
5
5
5
5
5
5
5
5
5
5
5
5
5
5
5
5
5
5
5
5
5
5
5
5
5
5
5
5
5
5
5
5
5
5
5
5
5
5
5
5
5
5
5
5
5
5
5
5
5
5
5
5
5
5
5
5
3
3
3
3
5
5
5
5
5
5
5
5
5
5
5
5
5
5
5
5
5
5
5
5
5
5
5
5
5
5
5
5
5
5
5
5
5
5
5
5
5
5
5
5
5
5
5
5
5
5
5
5
5
5
5
5
5
5
5
5
5
5
5
5
5
5
5
5
5
5
5
5
5
5
5
5
5
5
5
5
5
5
5
5
5
5
5
5
5
5
5
5
5
5
5
5
5
5
5
5
5
5
5
5
5
5
5
5
5
5
5
5
5
5
5
5
5
5
5
5
5
5
5
5
5
5
5
5
5
5
5
5
5
5
5
5
5
5
5
5
5
5
5
5
5
5
5
5
5
5
5
5
5
5
5
5
5
5
5
5
5
5
5
5
5
5
5
5
5
5
5
5
5
5
5
5
5
5
5
5
5
5
5
5
5
5
5
5
5
5
5
5
5
5
5
5
5
5
5
5
5
5
5
5
5
5
5
5
5
5
5
5
5
5
5
5
5
5
5
5
5
5
5
5
5
5
5
5
5
5
5
5
5
5
5
5
5
5
5
5
5
5
5
5
5
5
5
5
5
5
5
5
5
5
5
5
5
5
5
5
5
5
5
5
5
5
5
5
5
5
5
5
3
3
3
3
5
5
5
5
5
5
5
5
5
5
5
5
5
5
5
5
5
5
5
5
5
5
5
5
5
5
5
5
5
5
5
5
5
5
5
5
5
5
5
5
5
5
5
5
5
5
5
5
5
5
5
5
5
5
5
5
5
5
5
5
5
5
5
5
5
5
5
5
5
5
5
5
5
5
5
5
5
5
5
5
5
5
5
5
5
5
5
5
5
5
5
5
5
5
5
5
5
5
5
5
5
5
5
5
5
5
5
5
5
5
5
5
5
5
5
5
5
5
5
5
5
5
5
5
5
5
5
5
5
5
5
5
5
5
5
5
5
5
5
5
5
5
5
5
5
5
5
5
5
5
5
5
5
5
5
5
5
5
5
5
5
5
5
5
5
5
5
5
5
5
5
5
5
5
5
5
5
5
5
5
5
5
5
5
5
5
5
5
5
5
5
5
5
5
5
5
5
5
5
5
5
5
5
5
5
5
5
5
5
5
5
5
5
5
5
5
5
5
5
5
5
5
5
5
5
5
5
5
5
5
5
5
5
5
5
5
5
5
5
5
5
5
5
5
5
5
5
5
5
5
5
5
5
5
5
5
5
5
5
5
5
5
5
5
5
5
5
5
3
3
3
3
5
5
5
5
5
5
5
5
5
5
5
5
5
5
5
5
5
5
5
5
5
5
5
5
5
5
5
5
5
5
5
5
5
5
5
5
5
5
5
5
5
5
5
5
5
5
5
5
5
5
5
5
5
5
5
5
5
5
5
5
5
5
5
5
5
5
5
5
5
5
5
5
5
5
5
5
5
5
5
5
5
5
5
5
5
5
5
5
5
5
5
5
5
5
5
5
5
5
5
5
5
5
5
5
5
5
5
5
5
5
5
5
5
5
5
5
5
5
5
5
5
5
5
5
5
5
5
5
5
5
5
5
5
5
5
5
5
5
5
5
5
5
5
5
5
5
5
5
5
5
5
5
5
5
5
5
5
5
5
5
5
5
5
5
5
5
5
5
5
5
5
5
5
5
5
5
5
5
5
5
5
5
5
5
5
5
5
5
5
5
5
5
5
5
5
5
5
5
5
5
5
5
5
5
5
5
5
5
5
5
5
5
5
5
5
5
5
5
5
5
5
5
5
5
5
5
5
5
5
5
5
5
5
5
5
5
5
5
5
5
5
5
5
5
5
5
5
5
5
5
5
5
5
5
5
5
5
5
5
5
5
5
5
5
5
5
5
5
3
3
3
3
5
5
5
5
5
5
5
5
5
5
5
5
5
5
5
5
5
5
5
5
5
5
5
5
5
5
5
5
5
5
5
5
5
5
5
5
5
5
5
5
5
5
5
5
5
5
5
5
5
5
5
5
5
5
5
5
5
5
5
5
5
5
5
5
5
5
5
5
5
5
5
5
5
5
5
5
5
5
5
5
5
5
5
5
5
5
5
5
5
5
5
5
5
5
5
5
5
5
5
5
5
5
5
5
5
5
5
5
5
5
5
5
5
5
5
5
5
5
5
5
5
5
5
5
5
5
5
5
5
5
5
5
5
5
5
5
5
5
5
5
5
5
5
5
5
5
5
5
5
5
5
5
5
5
5
5
5
5
5
5
5
5
5
5
5
5
5
5
5
5
5
5
5
5
5
5
5
5
5
5
5
5
5
5
5
5
5
5
5
5
5
5
5
5
5
5
5
5
5
5
5
5
5
5
5
5
5
5
5
5
5
5
5
5
5
5
5
5
5
5
5
5
5
5
5
5
5
5
5
5
5
5
5
5
5
5
5
5
5
5
5
5
5
5
5
5
5
5
5
5
5
5
5
5
5
5
5
5
5
5
5
5
5
5
5
5
5
5
3
3
3
3
5
5
5
5
5
5
5
5
5
5
5
5
5
5
5
5
5
5
5
5
5
5
5
5
5
5
5
5
5
5
5
5
5
5
5
5
5
5
5
5
5
5
5
5
5
5
5
5
5
5
5
5
5
5
5
5
5
5
5
5
5
5
5
5
5
5
5
5
5
5
5
5
5
5
5
5
5
5
5
5
5
5
5
5
5
5
5
5
5
5
5
5
5
5
5
5
5
5
5
5
5
5
5
5
5
5
5
5
5
5
5
5
5
5
5
5
5
5
5
5
5
5
5
5
5
5
5
5
5
5
5
5
5
5
5
5
5
5
5
5
5
5
5
5
5
5
5
5
5
5
5
5
5
5
5
5
5
5
5
5
5
5
5
5
5
5
5
5
5
5
5
5
5
5
5
5
5
5
5
5
5
5
5
5
5
5
5
5
5
5
5
5
5
5
5
5
5
5
5
5
5
5
5
5
5
5
5
5
5
5
5
5
5
5
5
5
5
5
5
5
5
5
5
5
5
5
5
5
5
5
5
5
5
5
5
5
5
5
5
5
5
5
5
5
5
5
5
5
5
5
5
5
5
5
5
5
5
5
5
5
5
5
5
5
5
5
5
5
3
3
3
3
5
5
5
5
5
5
5
5
5
5
5
5
5
5
5
5
5
5
5
5
5
5
5
5
5
5
5
5
5
5
5
5
5
5
5
5
5
5
5
5
5
5
5
5
5
5
5
5
5
5
5
5
5
5
5
5
5
5
5
5
5
5
5
5
5
5
5
5
5
5
5
5
5
5
5
5
5
5
5
5
5
5
5
5
5
5
5
5
5
5
5
5
5
5
5
5
5
5
5
5
5
5
5
5
5
5
5
5
5
5
5
5
5
5
5
5
5
5
5
5
5
5
5
5
5
5
5
5
5
5
5
5
5
5
5
5
5
5
5
5
5
5
5
5
5
5
5
5
5
5
5
5
5
5
5
5
5
5
5
5
5
5
5
5
5
5
5
5
5
5
5
5
5
5
5
5
5
5
5
5
5
5
5
5
5
5
5
5
5
5
5
5
5
5
5
5
5
5
5
5
5
5
5
5
5
5
5
5
5
5
5
5
5
5
5
5
5
5
5
5
5
5
5
5
5
5
5
5
5
5
5
5
5
5
5
5
5
5
5
5
5
5
5
5
5
5
5
5
5
5
5
5
5
5
5
5
5
5
5
5
5
5
5
5
5
5
5
5
3
3
3
3
5
5
5
5
5
5
5
5
5
5
5
5
5
5
5
5
5
5
5
5
5
5
5
5
5
5
5
5
5
5
5
5
5
5
5
5
5
5
5
5
5
5
5
5
5
5
5
5
5
5
5
5
5
5
5
5
5
5
5
5
5
5
5
5
5
5
5
5
5
5
5
5
5
5
5
5
5
5
5
5
5
5
5
5
5
5
5
5
5
5
5
5
5
5
5
5
5
5
5
5
5
5
5
5
5
5
5
5
5
5
5
5
5
5
5
5
5
5
5
5
5
5
5
5
5
5
5
5
5
5
5
5
5
5
5
5
5
5
5
5
5
5
5
5
5
5
5
5
5
5
5
5
5
5
5
5
5
5
5
5
5
5
5
5
5
5
5
5
5
5
5
5
5
5
5
5
5
5
5
5
5
5
5
5
5
5
5
5
5
5
5
5
5
5
5
5
5
5
5
5
5
5
5
5
5
5
5
5
5
5
5
5
5
5
5
5
5
5
5
5
5
5
5
5
5
5
5
5
5
5
5
5
5
5
5
5
5
5
5
5
5
5
5
5
5
5
5
5
5
5
5
5
5
5
5
5
5
5
5
5
5
5
5
5
5
5
5
5
5
5
5
5
        </DataArray>
      </PointData>
    </Piece>
  </StructuredGrid>
</VTKFile>
