<?xml version="1.0"?>
<VTKFile type="StructuredGrid" version="0.1" byte_order="LittleEndian">
  <StructuredGrid WholeExtent="0 3 0 99 0 99">
    <Piece Extent="0 3 -1 49 39 60">
      <Points>
        <DataArray type="Float32" NumberOfComponents="3" format="ascii">
0 -1 39
1 -1 39
2 -1 39
3 -1 39
0 0 39
1 0 39
2 0 39
3 0 39
0 1 39
1 1 39
2 1 39
3 1 39
0 2 39
1 2 39
2 2 39
3 2 39
0 3 39
1 3 39
2 3 39
3 3 39
0 4 39
1 4 39
2 4 39
3 4 39
0 5 39
1 5 39
2 5 39
3 5 39
0 6 39
1 6 39
2 6 39
3 6 39
0 7 39
1 7 39
2 7 39
3 7 39
0 8 39
1 8 39
2 8 39
3 8 39
0 9 39
1 9 39
2 9 39
3 9 39
0 10 39
1 10 39
2 10 39
3 10 39
0 11 39
1 11 39
2 11 39
3 11 39
0 12 39
1 12 39
2 12 39
3 12 39
0 13 39
1 13 39
2 13 39
3 13 39
0 14 39
1 14 39
2 14 39
3 14 39
0 15 39
1 15 39
2 15 39
3 15 39
0 16 39
1 16 39
2 16 39
3 16 39
0 17 39
1 17 39
2 17 39
3 17 39
0 18 39
1 18 39
2 18 39
3 18 39
0 19 39
1 19 39
2 19 39
3 19 39
0 20 39
1 20 39
2 20 39
3 20 39
0 21 39
1 21 39
2 21 39
3 21 39
0 22 39
1 22 39
2 22 39
3 22 39
0 23 39
1 23 39
2 23 39
3 23 39
0 24 39
1 24 39
2 24 39
3 24 39
0 25 39
1 25 39
2 25 39
3 25 39
0 26 39
1 26 39
2 26 39
3 26 39
0 27 39
1 27 39
2 27 39
3 27 39
0 28 39
1 28 39
2 28 39
3 28 39
0 29 39
1 29 39
2 29 39
3 29 39
0 30 39
1 30 39
2 30 39
3 30 39
0 31 39
1 31 39
2 31 39
3 31 39
0 32 39
1 32 39
2 32 39
3 32 39
0 33 39
1 33 39
2 33 39
3 33 39
0 34 39
1 34 39
2 34 39
3 34 39
0 35 39
1 35 39
2 35 39
3 35 39
0 36 39
1 36 39
2 36 39
3 36 39
0 37 39
1 37 39
2 37 39
3 37 39
0 38 39
1 38 39
2 38 39
3 38 39
0 39 39
1 39 39
2 39 39
3 39 39
0 40 39
1 40 39
2 40 39
3 40 39
0 41 39
1 41 39
2 41 39
3 41 39
0 42 39
1 42 39
2 42 39
3 42 39
0 43 39
1 43 39
2 43 39
3 43 39
0 44 39
1 44 39
2 44 39
3 44 39
0 45 39
1 45 39
2 45 39
3 45 39
0 46 39
1 46 39
2 46 39
3 46 39
0 47 39
1 47 39
2 47 39
3 47 39
0 48 39
1 48 39
2 48 39
3 48 39
0 49 39
1 49 39
2 49 39
3 49 39
0 -1 40
1 -1 40
2 -1 40
3 -1 40
0 0 40
1 0 40
2 0 40
3 0 40
0 1 40
1 1 40
2 1 40
3 1 40
0 2 40
1 2 40
2 2 40
3 2 40
0 3 40
1 3 40
2 3 40
3 3 40
0 4 40
1 4 40
2 4 40
3 4 40
0 5 40
1 5 40
2 5 40
3 5 40
0 6 40
1 6 40
2 6 40
3 6 40
0 7 40
1 7 40
2 7 40
3 7 40
0 8 40
1 8 40
2 8 40
3 8 40
0 9 40
1 9 40
2 9 40
3 9 40
0 10 40
1 10 40
2 10 40
3 10 40
0 11 40
1 11 40
2 11 40
3 11 40
0 12 40
1 12 40
2 12 40
3 12 40
0 13 40
1 13 40
2 13 40
3 13 40
0 14 40
1 14 40
2 14 40
3 14 40
0 15 40
1 15 40
2 15 40
3 15 40
0 16 40
1 16 40
2 16 40
3 16 40
0 17 40
1 17 40
2 17 40
3 17 40
0 18 40
1 18 40
2 18 40
3 18 40
0 19 40
1 19 40
2 19 40
3 19 40
0 20 40
1 20 40
2 20 40
3 20 40
0 21 40
1 21 40
2 21 40
3 21 40
0 22 40
1 22 40
2 22 40
3 22 40
0 23 40
1 23 40
2 23 40
3 23 40
0 24 40
1 24 40
2 24 40
3 24 40
0 25 40
1 25 40
2 25 40
3 25 40
0 26 40
1 26 40
2 26 40
3 26 40
0 27 40
1 27 40
2 27 40
3 27 40
0 28 40
1 28 40
2 28 40
3 28 40
0 29 40
1 29 40
2 29 40
3 29 40
0 30 40
1 30 40
2 30 40
3 30 40
0 31 40
1 31 40
2 31 40
3 31 40
0 32 40
1 32 40
2 32 40
3 32 40
0 33 40
1 33 40
2 33 40
3 33 40
0 34 40
1 34 40
2 34 40
3 34 40
0 35 40
1 35 40
2 35 40
3 35 40
0 36 40
1 36 40
2 36 40
3 36 40
0 37 40
1 37 40
2 37 40
3 37 40
0 38 40
1 38 40
2 38 40
3 38 40
0 39 40
1 39 40
2 39 40
3 39 40
0 40 40
1 40 40
2 40 40
3 40 40
0 41 40
1 41 40
2 41 40
3 41 40
0 42 40
1 42 40
2 42 40
3 42 40
0 43 40
1 43 40
2 43 40
3 43 40
0 44 40
1 44 40
2 44 40
3 44 40
0 45 40
1 45 40
2 45 40
3 45 40
0 46 40
1 46 40
2 46 40
3 46 40
0 47 40
1 47 40
2 47 40
3 47 40
0 48 40
1 48 40
2 48 40
3 48 40
0 49 40
1 49 40
2 49 40
3 49 40
0 -1 41
1 -1 41
2 -1 41
3 -1 41
0 0 41
1 0 41
2 0 41
3 0 41
0 1 41
1 1 41
2 1 41
3 1 41
0 2 41
1 2 41
2 2 41
3 2 41
0 3 41
1 3 41
2 3 41
3 3 41
0 4 41
1 4 41
2 4 41
3 4 41
0 5 41
1 5 41
2 5 41
3 5 41
0 6 41
1 6 41
2 6 41
3 6 41
0 7 41
1 7 41
2 7 41
3 7 41
0 8 41
1 8 41
2 8 41
3 8 41
0 9 41
1 9 41
2 9 41
3 9 41
0 10 41
1 10 41
2 10 41
3 10 41
0 11 41
1 11 41
2 11 41
3 11 41
0 12 41
1 12 41
2 12 41
3 12 41
0 13 41
1 13 41
2 13 41
3 13 41
0 14 41
1 14 41
2 14 41
3 14 41
0 15 41
1 15 41
2 15 41
3 15 41
0 16 41
1 16 41
2 16 41
3 16 41
0 17 41
1 17 41
2 17 41
3 17 41
0 18 41
1 18 41
2 18 41
3 18 41
0 19 41
1 19 41
2 19 41
3 19 41
0 20 41
1 20 41
2 20 41
3 20 41
0 21 41
1 21 41
2 21 41
3 21 41
0 22 41
1 22 41
2 22 41
3 22 41
0 23 41
1 23 41
2 23 41
3 23 41
0 24 41
1 24 41
2 24 41
3 24 41
0 25 41
1 25 41
2 25 41
3 25 41
0 26 41
1 26 41
2 26 41
3 26 41
0 27 41
1 27 41
2 27 41
3 27 41
0 28 41
1 28 41
2 28 41
3 28 41
0 29 41
1 29 41
2 29 41
3 29 41
0 30 41
1 30 41
2 30 41
3 30 41
0 31 41
1 31 41
2 31 41
3 31 41
0 32 41
1 32 41
2 32 41
3 32 41
0 33 41
1 33 41
2 33 41
3 33 41
0 34 41
1 34 41
2 34 41
3 34 41
0 35 41
1 35 41
2 35 41
3 35 41
0 36 41
1 36 41
2 36 41
3 36 41
0 37 41
1 37 41
2 37 41
3 37 41
0 38 41
1 38 41
2 38 41
3 38 41
0 39 41
1 39 41
2 39 41
3 39 41
0 40 41
1 40 41
2 40 41
3 40 41
0 41 41
1 41 41
2 41 41
3 41 41
0 42 41
1 42 41
2 42 41
3 42 41
0 43 41
1 43 41
2 43 41
3 43 41
0 44 41
1 44 41
2 44 41
3 44 41
0 45 41
1 45 41
2 45 41
3 45 41
0 46 41
1 46 41
2 46 41
3 46 41
0 47 41
1 47 41
2 47 41
3 47 41
0 48 41
1 48 41
2 48 41
3 48 41
0 49 41
1 49 41
2 49 41
3 49 41
0 -1 42
1 -1 42
2 -1 42
3 -1 42
0 0 42
1 0 42
2 0 42
3 0 42
0 1 42
1 1 42
2 1 42
3 1 42
0 2 42
1 2 42
2 2 42
3 2 42
0 3 42
1 3 42
2 3 42
3 3 42
0 4 42
1 4 42
2 4 42
3 4 42
0 5 42
1 5 42
2 5 42
3 5 42
0 6 42
1 6 42
2 6 42
3 6 42
0 7 42
1 7 42
2 7 42
3 7 42
0 8 42
1 8 42
2 8 42
3 8 42
0 9 42
1 9 42
2 9 42
3 9 42
0 10 42
1 10 42
2 10 42
3 10 42
0 11 42
1 11 42
2 11 42
3 11 42
0 12 42
1 12 42
2 12 42
3 12 42
0 13 42
1 13 42
2 13 42
3 13 42
0 14 42
1 14 42
2 14 42
3 14 42
0 15 42
1 15 42
2 15 42
3 15 42
0 16 42
1 16 42
2 16 42
3 16 42
0 17 42
1 17 42
2 17 42
3 17 42
0 18 42
1 18 42
2 18 42
3 18 42
0 19 42
1 19 42
2 19 42
3 19 42
0 20 42
1 20 42
2 20 42
3 20 42
0 21 42
1 21 42
2 21 42
3 21 42
0 22 42
1 22 42
2 22 42
3 22 42
0 23 42
1 23 42
2 23 42
3 23 42
0 24 42
1 24 42
2 24 42
3 24 42
0 25 42
1 25 42
2 25 42
3 25 42
0 26 42
1 26 42
2 26 42
3 26 42
0 27 42
1 27 42
2 27 42
3 27 42
0 28 42
1 28 42
2 28 42
3 28 42
0 29 42
1 29 42
2 29 42
3 29 42
0 30 42
1 30 42
2 30 42
3 30 42
0 31 42
1 31 42
2 31 42
3 31 42
0 32 42
1 32 42
2 32 42
3 32 42
0 33 42
1 33 42
2 33 42
3 33 42
0 34 42
1 34 42
2 34 42
3 34 42
0 35 42
1 35 42
2 35 42
3 35 42
0 36 42
1 36 42
2 36 42
3 36 42
0 37 42
1 37 42
2 37 42
3 37 42
0 38 42
1 38 42
2 38 42
3 38 42
0 39 42
1 39 42
2 39 42
3 39 42
0 40 42
1 40 42
2 40 42
3 40 42
0 41 42
1 41 42
2 41 42
3 41 42
0 42 42
1 42 42
2 42 42
3 42 42
0 43 42
1 43 42
2 43 42
3 43 42
0 44 42
1 44 42
2 44 42
3 44 42
0 45 42
1 45 42
2 45 42
3 45 42
0 46 42
1 46 42
2 46 42
3 46 42
0 47 42
1 47 42
2 47 42
3 47 42
0 48 42
1 48 42
2 48 42
3 48 42
0 49 42
1 49 42
2 49 42
3 49 42
0 -1 43
1 -1 43
2 -1 43
3 -1 43
0 0 43
1 0 43
2 0 43
3 0 43
0 1 43
1 1 43
2 1 43
3 1 43
0 2 43
1 2 43
2 2 43
3 2 43
0 3 43
1 3 43
2 3 43
3 3 43
0 4 43
1 4 43
2 4 43
3 4 43
0 5 43
1 5 43
2 5 43
3 5 43
0 6 43
1 6 43
2 6 43
3 6 43
0 7 43
1 7 43
2 7 43
3 7 43
0 8 43
1 8 43
2 8 43
3 8 43
0 9 43
1 9 43
2 9 43
3 9 43
0 10 43
1 10 43
2 10 43
3 10 43
0 11 43
1 11 43
2 11 43
3 11 43
0 12 43
1 12 43
2 12 43
3 12 43
0 13 43
1 13 43
2 13 43
3 13 43
0 14 43
1 14 43
2 14 43
3 14 43
0 15 43
1 15 43
2 15 43
3 15 43
0 16 43
1 16 43
2 16 43
3 16 43
0 17 43
1 17 43
2 17 43
3 17 43
0 18 43
1 18 43
2 18 43
3 18 43
0 19 43
1 19 43
2 19 43
3 19 43
0 20 43
1 20 43
2 20 43
3 20 43
0 21 43
1 21 43
2 21 43
3 21 43
0 22 43
1 22 43
2 22 43
3 22 43
0 23 43
1 23 43
2 23 43
3 23 43
0 24 43
1 24 43
2 24 43
3 24 43
0 25 43
1 25 43
2 25 43
3 25 43
0 26 43
1 26 43
2 26 43
3 26 43
0 27 43
1 27 43
2 27 43
3 27 43
0 28 43
1 28 43
2 28 43
3 28 43
0 29 43
1 29 43
2 29 43
3 29 43
0 30 43
1 30 43
2 30 43
3 30 43
0 31 43
1 31 43
2 31 43
3 31 43
0 32 43
1 32 43
2 32 43
3 32 43
0 33 43
1 33 43
2 33 43
3 33 43
0 34 43
1 34 43
2 34 43
3 34 43
0 35 43
1 35 43
2 35 43
3 35 43
0 36 43
1 36 43
2 36 43
3 36 43
0 37 43
1 37 43
2 37 43
3 37 43
0 38 43
1 38 43
2 38 43
3 38 43
0 39 43
1 39 43
2 39 43
3 39 43
0 40 43
1 40 43
2 40 43
3 40 43
0 41 43
1 41 43
2 41 43
3 41 43
0 42 43
1 42 43
2 42 43
3 42 43
0 43 43
1 43 43
2 43 43
3 43 43
0 44 43
1 44 43
2 44 43
3 44 43
0 45 43
1 45 43
2 45 43
3 45 43
0 46 43
1 46 43
2 46 43
3 46 43
0 47 43
1 47 43
2 47 43
3 47 43
0 48 43
1 48 43
2 48 43
3 48 43
0 49 43
1 49 43
2 49 43
3 49 43
0 -1 44
1 -1 44
2 -1 44
3 -1 44
0 0 44
1 0 44
2 0 44
3 0 44
0 1 44
1 1 44
2 1 44
3 1 44
0 2 44
1 2 44
2 2 44
3 2 44
0 3 44
1 3 44
2 3 44
3 3 44
0 4 44
1 4 44
2 4 44
3 4 44
0 5 44
1 5 44
2 5 44
3 5 44
0 6 44
1 6 44
2 6 44
3 6 44
0 7 44
1 7 44
2 7 44
3 7 44
0 8 44
1 8 44
2 8 44
3 8 44
0 9 44
1 9 44
2 9 44
3 9 44
0 10 44
1 10 44
2 10 44
3 10 44
0 11 44
1 11 44
2 11 44
3 11 44
0 12 44
1 12 44
2 12 44
3 12 44
0 13 44
1 13 44
2 13 44
3 13 44
0 14 44
1 14 44
2 14 44
3 14 44
0 15 44
1 15 44
2 15 44
3 15 44
0 16 44
1 16 44
2 16 44
3 16 44
0 17 44
1 17 44
2 17 44
3 17 44
0 18 44
1 18 44
2 18 44
3 18 44
0 19 44
1 19 44
2 19 44
3 19 44
0 20 44
1 20 44
2 20 44
3 20 44
0 21 44
1 21 44
2 21 44
3 21 44
0 22 44
1 22 44
2 22 44
3 22 44
0 23 44
1 23 44
2 23 44
3 23 44
0 24 44
1 24 44
2 24 44
3 24 44
0 25 44
1 25 44
2 25 44
3 25 44
0 26 44
1 26 44
2 26 44
3 26 44
0 27 44
1 27 44
2 27 44
3 27 44
0 28 44
1 28 44
2 28 44
3 28 44
0 29 44
1 29 44
2 29 44
3 29 44
0 30 44
1 30 44
2 30 44
3 30 44
0 31 44
1 31 44
2 31 44
3 31 44
0 32 44
1 32 44
2 32 44
3 32 44
0 33 44
1 33 44
2 33 44
3 33 44
0 34 44
1 34 44
2 34 44
3 34 44
0 35 44
1 35 44
2 35 44
3 35 44
0 36 44
1 36 44
2 36 44
3 36 44
0 37 44
1 37 44
2 37 44
3 37 44
0 38 44
1 38 44
2 38 44
3 38 44
0 39 44
1 39 44
2 39 44
3 39 44
0 40 44
1 40 44
2 40 44
3 40 44
0 41 44
1 41 44
2 41 44
3 41 44
0 42 44
1 42 44
2 42 44
3 42 44
0 43 44
1 43 44
2 43 44
3 43 44
0 44 44
1 44 44
2 44 44
3 44 44
0 45 44
1 45 44
2 45 44
3 45 44
0 46 44
1 46 44
2 46 44
3 46 44
0 47 44
1 47 44
2 47 44
3 47 44
0 48 44
1 48 44
2 48 44
3 48 44
0 49 44
1 49 44
2 49 44
3 49 44
0 -1 45
1 -1 45
2 -1 45
3 -1 45
0 0 45
1 0 45
2 0 45
3 0 45
0 1 45
1 1 45
2 1 45
3 1 45
0 2 45
1 2 45
2 2 45
3 2 45
0 3 45
1 3 45
2 3 45
3 3 45
0 4 45
1 4 45
2 4 45
3 4 45
0 5 45
1 5 45
2 5 45
3 5 45
0 6 45
1 6 45
2 6 45
3 6 45
0 7 45
1 7 45
2 7 45
3 7 45
0 8 45
1 8 45
2 8 45
3 8 45
0 9 45
1 9 45
2 9 45
3 9 45
0 10 45
1 10 45
2 10 45
3 10 45
0 11 45
1 11 45
2 11 45
3 11 45
0 12 45
1 12 45
2 12 45
3 12 45
0 13 45
1 13 45
2 13 45
3 13 45
0 14 45
1 14 45
2 14 45
3 14 45
0 15 45
1 15 45
2 15 45
3 15 45
0 16 45
1 16 45
2 16 45
3 16 45
0 17 45
1 17 45
2 17 45
3 17 45
0 18 45
1 18 45
2 18 45
3 18 45
0 19 45
1 19 45
2 19 45
3 19 45
0 20 45
1 20 45
2 20 45
3 20 45
0 21 45
1 21 45
2 21 45
3 21 45
0 22 45
1 22 45
2 22 45
3 22 45
0 23 45
1 23 45
2 23 45
3 23 45
0 24 45
1 24 45
2 24 45
3 24 45
0 25 45
1 25 45
2 25 45
3 25 45
0 26 45
1 26 45
2 26 45
3 26 45
0 27 45
1 27 45
2 27 45
3 27 45
0 28 45
1 28 45
2 28 45
3 28 45
0 29 45
1 29 45
2 29 45
3 29 45
0 30 45
1 30 45
2 30 45
3 30 45
0 31 45
1 31 45
2 31 45
3 31 45
0 32 45
1 32 45
2 32 45
3 32 45
0 33 45
1 33 45
2 33 45
3 33 45
0 34 45
1 34 45
2 34 45
3 34 45
0 35 45
1 35 45
2 35 45
3 35 45
0 36 45
1 36 45
2 36 45
3 36 45
0 37 45
1 37 45
2 37 45
3 37 45
0 38 45
1 38 45
2 38 45
3 38 45
0 39 45
1 39 45
2 39 45
3 39 45
0 40 45
1 40 45
2 40 45
3 40 45
0 41 45
1 41 45
2 41 45
3 41 45
0 42 45
1 42 45
2 42 45
3 42 45
0 43 45
1 43 45
2 43 45
3 43 45
0 44 45
1 44 45
2 44 45
3 44 45
0 45 45
1 45 45
2 45 45
3 45 45
0 46 45
1 46 45
2 46 45
3 46 45
0 47 45
1 47 45
2 47 45
3 47 45
0 48 45
1 48 45
2 48 45
3 48 45
0 49 45
1 49 45
2 49 45
3 49 45
0 -1 46
1 -1 46
2 -1 46
3 -1 46
0 0 46
1 0 46
2 0 46
3 0 46
0 1 46
1 1 46
2 1 46
3 1 46
0 2 46
1 2 46
2 2 46
3 2 46
0 3 46
1 3 46
2 3 46
3 3 46
0 4 46
1 4 46
2 4 46
3 4 46
0 5 46
1 5 46
2 5 46
3 5 46
0 6 46
1 6 46
2 6 46
3 6 46
0 7 46
1 7 46
2 7 46
3 7 46
0 8 46
1 8 46
2 8 46
3 8 46
0 9 46
1 9 46
2 9 46
3 9 46
0 10 46
1 10 46
2 10 46
3 10 46
0 11 46
1 11 46
2 11 46
3 11 46
0 12 46
1 12 46
2 12 46
3 12 46
0 13 46
1 13 46
2 13 46
3 13 46
0 14 46
1 14 46
2 14 46
3 14 46
0 15 46
1 15 46
2 15 46
3 15 46
0 16 46
1 16 46
2 16 46
3 16 46
0 17 46
1 17 46
2 17 46
3 17 46
0 18 46
1 18 46
2 18 46
3 18 46
0 19 46
1 19 46
2 19 46
3 19 46
0 20 46
1 20 46
2 20 46
3 20 46
0 21 46
1 21 46
2 21 46
3 21 46
0 22 46
1 22 46
2 22 46
3 22 46
0 23 46
1 23 46
2 23 46
3 23 46
0 24 46
1 24 46
2 24 46
3 24 46
0 25 46
1 25 46
2 25 46
3 25 46
0 26 46
1 26 46
2 26 46
3 26 46
0 27 46
1 27 46
2 27 46
3 27 46
0 28 46
1 28 46
2 28 46
3 28 46
0 29 46
1 29 46
2 29 46
3 29 46
0 30 46
1 30 46
2 30 46
3 30 46
0 31 46
1 31 46
2 31 46
3 31 46
0 32 46
1 32 46
2 32 46
3 32 46
0 33 46
1 33 46
2 33 46
3 33 46
0 34 46
1 34 46
2 34 46
3 34 46
0 35 46
1 35 46
2 35 46
3 35 46
0 36 46
1 36 46
2 36 46
3 36 46
0 37 46
1 37 46
2 37 46
3 37 46
0 38 46
1 38 46
2 38 46
3 38 46
0 39 46
1 39 46
2 39 46
3 39 46
0 40 46
1 40 46
2 40 46
3 40 46
0 41 46
1 41 46
2 41 46
3 41 46
0 42 46
1 42 46
2 42 46
3 42 46
0 43 46
1 43 46
2 43 46
3 43 46
0 44 46
1 44 46
2 44 46
3 44 46
0 45 46
1 45 46
2 45 46
3 45 46
0 46 46
1 46 46
2 46 46
3 46 46
0 47 46
1 47 46
2 47 46
3 47 46
0 48 46
1 48 46
2 48 46
3 48 46
0 49 46
1 49 46
2 49 46
3 49 46
0 -1 47
1 -1 47
2 -1 47
3 -1 47
0 0 47
1 0 47
2 0 47
3 0 47
0 1 47
1 1 47
2 1 47
3 1 47
0 2 47
1 2 47
2 2 47
3 2 47
0 3 47
1 3 47
2 3 47
3 3 47
0 4 47
1 4 47
2 4 47
3 4 47
0 5 47
1 5 47
2 5 47
3 5 47
0 6 47
1 6 47
2 6 47
3 6 47
0 7 47
1 7 47
2 7 47
3 7 47
0 8 47
1 8 47
2 8 47
3 8 47
0 9 47
1 9 47
2 9 47
3 9 47
0 10 47
1 10 47
2 10 47
3 10 47
0 11 47
1 11 47
2 11 47
3 11 47
0 12 47
1 12 47
2 12 47
3 12 47
0 13 47
1 13 47
2 13 47
3 13 47
0 14 47
1 14 47
2 14 47
3 14 47
0 15 47
1 15 47
2 15 47
3 15 47
0 16 47
1 16 47
2 16 47
3 16 47
0 17 47
1 17 47
2 17 47
3 17 47
0 18 47
1 18 47
2 18 47
3 18 47
0 19 47
1 19 47
2 19 47
3 19 47
0 20 47
1 20 47
2 20 47
3 20 47
0 21 47
1 21 47
2 21 47
3 21 47
0 22 47
1 22 47
2 22 47
3 22 47
0 23 47
1 23 47
2 23 47
3 23 47
0 24 47
1 24 47
2 24 47
3 24 47
0 25 47
1 25 47
2 25 47
3 25 47
0 26 47
1 26 47
2 26 47
3 26 47
0 27 47
1 27 47
2 27 47
3 27 47
0 28 47
1 28 47
2 28 47
3 28 47
0 29 47
1 29 47
2 29 47
3 29 47
0 30 47
1 30 47
2 30 47
3 30 47
0 31 47
1 31 47
2 31 47
3 31 47
0 32 47
1 32 47
2 32 47
3 32 47
0 33 47
1 33 47
2 33 47
3 33 47
0 34 47
1 34 47
2 34 47
3 34 47
0 35 47
1 35 47
2 35 47
3 35 47
0 36 47
1 36 47
2 36 47
3 36 47
0 37 47
1 37 47
2 37 47
3 37 47
0 38 47
1 38 47
2 38 47
3 38 47
0 39 47
1 39 47
2 39 47
3 39 47
0 40 47
1 40 47
2 40 47
3 40 47
0 41 47
1 41 47
2 41 47
3 41 47
0 42 47
1 42 47
2 42 47
3 42 47
0 43 47
1 43 47
2 43 47
3 43 47
0 44 47
1 44 47
2 44 47
3 44 47
0 45 47
1 45 47
2 45 47
3 45 47
0 46 47
1 46 47
2 46 47
3 46 47
0 47 47
1 47 47
2 47 47
3 47 47
0 48 47
1 48 47
2 48 47
3 48 47
0 49 47
1 49 47
2 49 47
3 49 47
0 -1 48
1 -1 48
2 -1 48
3 -1 48
0 0 48
1 0 48
2 0 48
3 0 48
0 1 48
1 1 48
2 1 48
3 1 48
0 2 48
1 2 48
2 2 48
3 2 48
0 3 48
1 3 48
2 3 48
3 3 48
0 4 48
1 4 48
2 4 48
3 4 48
0 5 48
1 5 48
2 5 48
3 5 48
0 6 48
1 6 48
2 6 48
3 6 48
0 7 48
1 7 48
2 7 48
3 7 48
0 8 48
1 8 48
2 8 48
3 8 48
0 9 48
1 9 48
2 9 48
3 9 48
0 10 48
1 10 48
2 10 48
3 10 48
0 11 48
1 11 48
2 11 48
3 11 48
0 12 48
1 12 48
2 12 48
3 12 48
0 13 48
1 13 48
2 13 48
3 13 48
0 14 48
1 14 48
2 14 48
3 14 48
0 15 48
1 15 48
2 15 48
3 15 48
0 16 48
1 16 48
2 16 48
3 16 48
0 17 48
1 17 48
2 17 48
3 17 48
0 18 48
1 18 48
2 18 48
3 18 48
0 19 48
1 19 48
2 19 48
3 19 48
0 20 48
1 20 48
2 20 48
3 20 48
0 21 48
1 21 48
2 21 48
3 21 48
0 22 48
1 22 48
2 22 48
3 22 48
0 23 48
1 23 48
2 23 48
3 23 48
0 24 48
1 24 48
2 24 48
3 24 48
0 25 48
1 25 48
2 25 48
3 25 48
0 26 48
1 26 48
2 26 48
3 26 48
0 27 48
1 27 48
2 27 48
3 27 48
0 28 48
1 28 48
2 28 48
3 28 48
0 29 48
1 29 48
2 29 48
3 29 48
0 30 48
1 30 48
2 30 48
3 30 48
0 31 48
1 31 48
2 31 48
3 31 48
0 32 48
1 32 48
2 32 48
3 32 48
0 33 48
1 33 48
2 33 48
3 33 48
0 34 48
1 34 48
2 34 48
3 34 48
0 35 48
1 35 48
2 35 48
3 35 48
0 36 48
1 36 48
2 36 48
3 36 48
0 37 48
1 37 48
2 37 48
3 37 48
0 38 48
1 38 48
2 38 48
3 38 48
0 39 48
1 39 48
2 39 48
3 39 48
0 40 48
1 40 48
2 40 48
3 40 48
0 41 48
1 41 48
2 41 48
3 41 48
0 42 48
1 42 48
2 42 48
3 42 48
0 43 48
1 43 48
2 43 48
3 43 48
0 44 48
1 44 48
2 44 48
3 44 48
0 45 48
1 45 48
2 45 48
3 45 48
0 46 48
1 46 48
2 46 48
3 46 48
0 47 48
1 47 48
2 47 48
3 47 48
0 48 48
1 48 48
2 48 48
3 48 48
0 49 48
1 49 48
2 49 48
3 49 48
0 -1 49
1 -1 49
2 -1 49
3 -1 49
0 0 49
1 0 49
2 0 49
3 0 49
0 1 49
1 1 49
2 1 49
3 1 49
0 2 49
1 2 49
2 2 49
3 2 49
0 3 49
1 3 49
2 3 49
3 3 49
0 4 49
1 4 49
2 4 49
3 4 49
0 5 49
1 5 49
2 5 49
3 5 49
0 6 49
1 6 49
2 6 49
3 6 49
0 7 49
1 7 49
2 7 49
3 7 49
0 8 49
1 8 49
2 8 49
3 8 49
0 9 49
1 9 49
2 9 49
3 9 49
0 10 49
1 10 49
2 10 49
3 10 49
0 11 49
1 11 49
2 11 49
3 11 49
0 12 49
1 12 49
2 12 49
3 12 49
0 13 49
1 13 49
2 13 49
3 13 49
0 14 49
1 14 49
2 14 49
3 14 49
0 15 49
1 15 49
2 15 49
3 15 49
0 16 49
1 16 49
2 16 49
3 16 49
0 17 49
1 17 49
2 17 49
3 17 49
0 18 49
1 18 49
2 18 49
3 18 49
0 19 49
1 19 49
2 19 49
3 19 49
0 20 49
1 20 49
2 20 49
3 20 49
0 21 49
1 21 49
2 21 49
3 21 49
0 22 49
1 22 49
2 22 49
3 22 49
0 23 49
1 23 49
2 23 49
3 23 49
0 24 49
1 24 49
2 24 49
3 24 49
0 25 49
1 25 49
2 25 49
3 25 49
0 26 49
1 26 49
2 26 49
3 26 49
0 27 49
1 27 49
2 27 49
3 27 49
0 28 49
1 28 49
2 28 49
3 28 49
0 29 49
1 29 49
2 29 49
3 29 49
0 30 49
1 30 49
2 30 49
3 30 49
0 31 49
1 31 49
2 31 49
3 31 49
0 32 49
1 32 49
2 32 49
3 32 49
0 33 49
1 33 49
2 33 49
3 33 49
0 34 49
1 34 49
2 34 49
3 34 49
0 35 49
1 35 49
2 35 49
3 35 49
0 36 49
1 36 49
2 36 49
3 36 49
0 37 49
1 37 49
2 37 49
3 37 49
0 38 49
1 38 49
2 38 49
3 38 49
0 39 49
1 39 49
2 39 49
3 39 49
0 40 49
1 40 49
2 40 49
3 40 49
0 41 49
1 41 49
2 41 49
3 41 49
0 42 49
1 42 49
2 42 49
3 42 49
0 43 49
1 43 49
2 43 49
3 43 49
0 44 49
1 44 49
2 44 49
3 44 49
0 45 49
1 45 49
2 45 49
3 45 49
0 46 49
1 46 49
2 46 49
3 46 49
0 47 49
1 47 49
2 47 49
3 47 49
0 48 49
1 48 49
2 48 49
3 48 49
0 49 49
1 49 49
2 49 49
3 49 49
0 -1 50
1 -1 50
2 -1 50
3 -1 50
0 0 50
1 0 50
2 0 50
3 0 50
0 1 50
1 1 50
2 1 50
3 1 50
0 2 50
1 2 50
2 2 50
3 2 50
0 3 50
1 3 50
2 3 50
3 3 50
0 4 50
1 4 50
2 4 50
3 4 50
0 5 50
1 5 50
2 5 50
3 5 50
0 6 50
1 6 50
2 6 50
3 6 50
0 7 50
1 7 50
2 7 50
3 7 50
0 8 50
1 8 50
2 8 50
3 8 50
0 9 50
1 9 50
2 9 50
3 9 50
0 10 50
1 10 50
2 10 50
3 10 50
0 11 50
1 11 50
2 11 50
3 11 50
0 12 50
1 12 50
2 12 50
3 12 50
0 13 50
1 13 50
2 13 50
3 13 50
0 14 50
1 14 50
2 14 50
3 14 50
0 15 50
1 15 50
2 15 50
3 15 50
0 16 50
1 16 50
2 16 50
3 16 50
0 17 50
1 17 50
2 17 50
3 17 50
0 18 50
1 18 50
2 18 50
3 18 50
0 19 50
1 19 50
2 19 50
3 19 50
0 20 50
1 20 50
2 20 50
3 20 50
0 21 50
1 21 50
2 21 50
3 21 50
0 22 50
1 22 50
2 22 50
3 22 50
0 23 50
1 23 50
2 23 50
3 23 50
0 24 50
1 24 50
2 24 50
3 24 50
0 25 50
1 25 50
2 25 50
3 25 50
0 26 50
1 26 50
2 26 50
3 26 50
0 27 50
1 27 50
2 27 50
3 27 50
0 28 50
1 28 50
2 28 50
3 28 50
0 29 50
1 29 50
2 29 50
3 29 50
0 30 50
1 30 50
2 30 50
3 30 50
0 31 50
1 31 50
2 31 50
3 31 50
0 32 50
1 32 50
2 32 50
3 32 50
0 33 50
1 33 50
2 33 50
3 33 50
0 34 50
1 34 50
2 34 50
3 34 50
0 35 50
1 35 50
2 35 50
3 35 50
0 36 50
1 36 50
2 36 50
3 36 50
0 37 50
1 37 50
2 37 50
3 37 50
0 38 50
1 38 50
2 38 50
3 38 50
0 39 50
1 39 50
2 39 50
3 39 50
0 40 50
1 40 50
2 40 50
3 40 50
0 41 50
1 41 50
2 41 50
3 41 50
0 42 50
1 42 50
2 42 50
3 42 50
0 43 50
1 43 50
2 43 50
3 43 50
0 44 50
1 44 50
2 44 50
3 44 50
0 45 50
1 45 50
2 45 50
3 45 50
0 46 50
1 46 50
2 46 50
3 46 50
0 47 50
1 47 50
2 47 50
3 47 50
0 48 50
1 48 50
2 48 50
3 48 50
0 49 50
1 49 50
2 49 50
3 49 50
0 -1 51
1 -1 51
2 -1 51
3 -1 51
0 0 51
1 0 51
2 0 51
3 0 51
0 1 51
1 1 51
2 1 51
3 1 51
0 2 51
1 2 51
2 2 51
3 2 51
0 3 51
1 3 51
2 3 51
3 3 51
0 4 51
1 4 51
2 4 51
3 4 51
0 5 51
1 5 51
2 5 51
3 5 51
0 6 51
1 6 51
2 6 51
3 6 51
0 7 51
1 7 51
2 7 51
3 7 51
0 8 51
1 8 51
2 8 51
3 8 51
0 9 51
1 9 51
2 9 51
3 9 51
0 10 51
1 10 51
2 10 51
3 10 51
0 11 51
1 11 51
2 11 51
3 11 51
0 12 51
1 12 51
2 12 51
3 12 51
0 13 51
1 13 51
2 13 51
3 13 51
0 14 51
1 14 51
2 14 51
3 14 51
0 15 51
1 15 51
2 15 51
3 15 51
0 16 51
1 16 51
2 16 51
3 16 51
0 17 51
1 17 51
2 17 51
3 17 51
0 18 51
1 18 51
2 18 51
3 18 51
0 19 51
1 19 51
2 19 51
3 19 51
0 20 51
1 20 51
2 20 51
3 20 51
0 21 51
1 21 51
2 21 51
3 21 51
0 22 51
1 22 51
2 22 51
3 22 51
0 23 51
1 23 51
2 23 51
3 23 51
0 24 51
1 24 51
2 24 51
3 24 51
0 25 51
1 25 51
2 25 51
3 25 51
0 26 51
1 26 51
2 26 51
3 26 51
0 27 51
1 27 51
2 27 51
3 27 51
0 28 51
1 28 51
2 28 51
3 28 51
0 29 51
1 29 51
2 29 51
3 29 51
0 30 51
1 30 51
2 30 51
3 30 51
0 31 51
1 31 51
2 31 51
3 31 51
0 32 51
1 32 51
2 32 51
3 32 51
0 33 51
1 33 51
2 33 51
3 33 51
0 34 51
1 34 51
2 34 51
3 34 51
0 35 51
1 35 51
2 35 51
3 35 51
0 36 51
1 36 51
2 36 51
3 36 51
0 37 51
1 37 51
2 37 51
3 37 51
0 38 51
1 38 51
2 38 51
3 38 51
0 39 51
1 39 51
2 39 51
3 39 51
0 40 51
1 40 51
2 40 51
3 40 51
0 41 51
1 41 51
2 41 51
3 41 51
0 42 51
1 42 51
2 42 51
3 42 51
0 43 51
1 43 51
2 43 51
3 43 51
0 44 51
1 44 51
2 44 51
3 44 51
0 45 51
1 45 51
2 45 51
3 45 51
0 46 51
1 46 51
2 46 51
3 46 51
0 47 51
1 47 51
2 47 51
3 47 51
0 48 51
1 48 51
2 48 51
3 48 51
0 49 51
1 49 51
2 49 51
3 49 51
0 -1 52
1 -1 52
2 -1 52
3 -1 52
0 0 52
1 0 52
2 0 52
3 0 52
0 1 52
1 1 52
2 1 52
3 1 52
0 2 52
1 2 52
2 2 52
3 2 52
0 3 52
1 3 52
2 3 52
3 3 52
0 4 52
1 4 52
2 4 52
3 4 52
0 5 52
1 5 52
2 5 52
3 5 52
0 6 52
1 6 52
2 6 52
3 6 52
0 7 52
1 7 52
2 7 52
3 7 52
0 8 52
1 8 52
2 8 52
3 8 52
0 9 52
1 9 52
2 9 52
3 9 52
0 10 52
1 10 52
2 10 52
3 10 52
0 11 52
1 11 52
2 11 52
3 11 52
0 12 52
1 12 52
2 12 52
3 12 52
0 13 52
1 13 52
2 13 52
3 13 52
0 14 52
1 14 52
2 14 52
3 14 52
0 15 52
1 15 52
2 15 52
3 15 52
0 16 52
1 16 52
2 16 52
3 16 52
0 17 52
1 17 52
2 17 52
3 17 52
0 18 52
1 18 52
2 18 52
3 18 52
0 19 52
1 19 52
2 19 52
3 19 52
0 20 52
1 20 52
2 20 52
3 20 52
0 21 52
1 21 52
2 21 52
3 21 52
0 22 52
1 22 52
2 22 52
3 22 52
0 23 52
1 23 52
2 23 52
3 23 52
0 24 52
1 24 52
2 24 52
3 24 52
0 25 52
1 25 52
2 25 52
3 25 52
0 26 52
1 26 52
2 26 52
3 26 52
0 27 52
1 27 52
2 27 52
3 27 52
0 28 52
1 28 52
2 28 52
3 28 52
0 29 52
1 29 52
2 29 52
3 29 52
0 30 52
1 30 52
2 30 52
3 30 52
0 31 52
1 31 52
2 31 52
3 31 52
0 32 52
1 32 52
2 32 52
3 32 52
0 33 52
1 33 52
2 33 52
3 33 52
0 34 52
1 34 52
2 34 52
3 34 52
0 35 52
1 35 52
2 35 52
3 35 52
0 36 52
1 36 52
2 36 52
3 36 52
0 37 52
1 37 52
2 37 52
3 37 52
0 38 52
1 38 52
2 38 52
3 38 52
0 39 52
1 39 52
2 39 52
3 39 52
0 40 52
1 40 52
2 40 52
3 40 52
0 41 52
1 41 52
2 41 52
3 41 52
0 42 52
1 42 52
2 42 52
3 42 52
0 43 52
1 43 52
2 43 52
3 43 52
0 44 52
1 44 52
2 44 52
3 44 52
0 45 52
1 45 52
2 45 52
3 45 52
0 46 52
1 46 52
2 46 52
3 46 52
0 47 52
1 47 52
2 47 52
3 47 52
0 48 52
1 48 52
2 48 52
3 48 52
0 49 52
1 49 52
2 49 52
3 49 52
0 -1 53
1 -1 53
2 -1 53
3 -1 53
0 0 53
1 0 53
2 0 53
3 0 53
0 1 53
1 1 53
2 1 53
3 1 53
0 2 53
1 2 53
2 2 53
3 2 53
0 3 53
1 3 53
2 3 53
3 3 53
0 4 53
1 4 53
2 4 53
3 4 53
0 5 53
1 5 53
2 5 53
3 5 53
0 6 53
1 6 53
2 6 53
3 6 53
0 7 53
1 7 53
2 7 53
3 7 53
0 8 53
1 8 53
2 8 53
3 8 53
0 9 53
1 9 53
2 9 53
3 9 53
0 10 53
1 10 53
2 10 53
3 10 53
0 11 53
1 11 53
2 11 53
3 11 53
0 12 53
1 12 53
2 12 53
3 12 53
0 13 53
1 13 53
2 13 53
3 13 53
0 14 53
1 14 53
2 14 53
3 14 53
0 15 53
1 15 53
2 15 53
3 15 53
0 16 53
1 16 53
2 16 53
3 16 53
0 17 53
1 17 53
2 17 53
3 17 53
0 18 53
1 18 53
2 18 53
3 18 53
0 19 53
1 19 53
2 19 53
3 19 53
0 20 53
1 20 53
2 20 53
3 20 53
0 21 53
1 21 53
2 21 53
3 21 53
0 22 53
1 22 53
2 22 53
3 22 53
0 23 53
1 23 53
2 23 53
3 23 53
0 24 53
1 24 53
2 24 53
3 24 53
0 25 53
1 25 53
2 25 53
3 25 53
0 26 53
1 26 53
2 26 53
3 26 53
0 27 53
1 27 53
2 27 53
3 27 53
0 28 53
1 28 53
2 28 53
3 28 53
0 29 53
1 29 53
2 29 53
3 29 53
0 30 53
1 30 53
2 30 53
3 30 53
0 31 53
1 31 53
2 31 53
3 31 53
0 32 53
1 32 53
2 32 53
3 32 53
0 33 53
1 33 53
2 33 53
3 33 53
0 34 53
1 34 53
2 34 53
3 34 53
0 35 53
1 35 53
2 35 53
3 35 53
0 36 53
1 36 53
2 36 53
3 36 53
0 37 53
1 37 53
2 37 53
3 37 53
0 38 53
1 38 53
2 38 53
3 38 53
0 39 53
1 39 53
2 39 53
3 39 53
0 40 53
1 40 53
2 40 53
3 40 53
0 41 53
1 41 53
2 41 53
3 41 53
0 42 53
1 42 53
2 42 53
3 42 53
0 43 53
1 43 53
2 43 53
3 43 53
0 44 53
1 44 53
2 44 53
3 44 53
0 45 53
1 45 53
2 45 53
3 45 53
0 46 53
1 46 53
2 46 53
3 46 53
0 47 53
1 47 53
2 47 53
3 47 53
0 48 53
1 48 53
2 48 53
3 48 53
0 49 53
1 49 53
2 49 53
3 49 53
0 -1 54
1 -1 54
2 -1 54
3 -1 54
0 0 54
1 0 54
2 0 54
3 0 54
0 1 54
1 1 54
2 1 54
3 1 54
0 2 54
1 2 54
2 2 54
3 2 54
0 3 54
1 3 54
2 3 54
3 3 54
0 4 54
1 4 54
2 4 54
3 4 54
0 5 54
1 5 54
2 5 54
3 5 54
0 6 54
1 6 54
2 6 54
3 6 54
0 7 54
1 7 54
2 7 54
3 7 54
0 8 54
1 8 54
2 8 54
3 8 54
0 9 54
1 9 54
2 9 54
3 9 54
0 10 54
1 10 54
2 10 54
3 10 54
0 11 54
1 11 54
2 11 54
3 11 54
0 12 54
1 12 54
2 12 54
3 12 54
0 13 54
1 13 54
2 13 54
3 13 54
0 14 54
1 14 54
2 14 54
3 14 54
0 15 54
1 15 54
2 15 54
3 15 54
0 16 54
1 16 54
2 16 54
3 16 54
0 17 54
1 17 54
2 17 54
3 17 54
0 18 54
1 18 54
2 18 54
3 18 54
0 19 54
1 19 54
2 19 54
3 19 54
0 20 54
1 20 54
2 20 54
3 20 54
0 21 54
1 21 54
2 21 54
3 21 54
0 22 54
1 22 54
2 22 54
3 22 54
0 23 54
1 23 54
2 23 54
3 23 54
0 24 54
1 24 54
2 24 54
3 24 54
0 25 54
1 25 54
2 25 54
3 25 54
0 26 54
1 26 54
2 26 54
3 26 54
0 27 54
1 27 54
2 27 54
3 27 54
0 28 54
1 28 54
2 28 54
3 28 54
0 29 54
1 29 54
2 29 54
3 29 54
0 30 54
1 30 54
2 30 54
3 30 54
0 31 54
1 31 54
2 31 54
3 31 54
0 32 54
1 32 54
2 32 54
3 32 54
0 33 54
1 33 54
2 33 54
3 33 54
0 34 54
1 34 54
2 34 54
3 34 54
0 35 54
1 35 54
2 35 54
3 35 54
0 36 54
1 36 54
2 36 54
3 36 54
0 37 54
1 37 54
2 37 54
3 37 54
0 38 54
1 38 54
2 38 54
3 38 54
0 39 54
1 39 54
2 39 54
3 39 54
0 40 54
1 40 54
2 40 54
3 40 54
0 41 54
1 41 54
2 41 54
3 41 54
0 42 54
1 42 54
2 42 54
3 42 54
0 43 54
1 43 54
2 43 54
3 43 54
0 44 54
1 44 54
2 44 54
3 44 54
0 45 54
1 45 54
2 45 54
3 45 54
0 46 54
1 46 54
2 46 54
3 46 54
0 47 54
1 47 54
2 47 54
3 47 54
0 48 54
1 48 54
2 48 54
3 48 54
0 49 54
1 49 54
2 49 54
3 49 54
0 -1 55
1 -1 55
2 -1 55
3 -1 55
0 0 55
1 0 55
2 0 55
3 0 55
0 1 55
1 1 55
2 1 55
3 1 55
0 2 55
1 2 55
2 2 55
3 2 55
0 3 55
1 3 55
2 3 55
3 3 55
0 4 55
1 4 55
2 4 55
3 4 55
0 5 55
1 5 55
2 5 55
3 5 55
0 6 55
1 6 55
2 6 55
3 6 55
0 7 55
1 7 55
2 7 55
3 7 55
0 8 55
1 8 55
2 8 55
3 8 55
0 9 55
1 9 55
2 9 55
3 9 55
0 10 55
1 10 55
2 10 55
3 10 55
0 11 55
1 11 55
2 11 55
3 11 55
0 12 55
1 12 55
2 12 55
3 12 55
0 13 55
1 13 55
2 13 55
3 13 55
0 14 55
1 14 55
2 14 55
3 14 55
0 15 55
1 15 55
2 15 55
3 15 55
0 16 55
1 16 55
2 16 55
3 16 55
0 17 55
1 17 55
2 17 55
3 17 55
0 18 55
1 18 55
2 18 55
3 18 55
0 19 55
1 19 55
2 19 55
3 19 55
0 20 55
1 20 55
2 20 55
3 20 55
0 21 55
1 21 55
2 21 55
3 21 55
0 22 55
1 22 55
2 22 55
3 22 55
0 23 55
1 23 55
2 23 55
3 23 55
0 24 55
1 24 55
2 24 55
3 24 55
0 25 55
1 25 55
2 25 55
3 25 55
0 26 55
1 26 55
2 26 55
3 26 55
0 27 55
1 27 55
2 27 55
3 27 55
0 28 55
1 28 55
2 28 55
3 28 55
0 29 55
1 29 55
2 29 55
3 29 55
0 30 55
1 30 55
2 30 55
3 30 55
0 31 55
1 31 55
2 31 55
3 31 55
0 32 55
1 32 55
2 32 55
3 32 55
0 33 55
1 33 55
2 33 55
3 33 55
0 34 55
1 34 55
2 34 55
3 34 55
0 35 55
1 35 55
2 35 55
3 35 55
0 36 55
1 36 55
2 36 55
3 36 55
0 37 55
1 37 55
2 37 55
3 37 55
0 38 55
1 38 55
2 38 55
3 38 55
0 39 55
1 39 55
2 39 55
3 39 55
0 40 55
1 40 55
2 40 55
3 40 55
0 41 55
1 41 55
2 41 55
3 41 55
0 42 55
1 42 55
2 42 55
3 42 55
0 43 55
1 43 55
2 43 55
3 43 55
0 44 55
1 44 55
2 44 55
3 44 55
0 45 55
1 45 55
2 45 55
3 45 55
0 46 55
1 46 55
2 46 55
3 46 55
0 47 55
1 47 55
2 47 55
3 47 55
0 48 55
1 48 55
2 48 55
3 48 55
0 49 55
1 49 55
2 49 55
3 49 55
0 -1 56
1 -1 56
2 -1 56
3 -1 56
0 0 56
1 0 56
2 0 56
3 0 56
0 1 56
1 1 56
2 1 56
3 1 56
0 2 56
1 2 56
2 2 56
3 2 56
0 3 56
1 3 56
2 3 56
3 3 56
0 4 56
1 4 56
2 4 56
3 4 56
0 5 56
1 5 56
2 5 56
3 5 56
0 6 56
1 6 56
2 6 56
3 6 56
0 7 56
1 7 56
2 7 56
3 7 56
0 8 56
1 8 56
2 8 56
3 8 56
0 9 56
1 9 56
2 9 56
3 9 56
0 10 56
1 10 56
2 10 56
3 10 56
0 11 56
1 11 56
2 11 56
3 11 56
0 12 56
1 12 56
2 12 56
3 12 56
0 13 56
1 13 56
2 13 56
3 13 56
0 14 56
1 14 56
2 14 56
3 14 56
0 15 56
1 15 56
2 15 56
3 15 56
0 16 56
1 16 56
2 16 56
3 16 56
0 17 56
1 17 56
2 17 56
3 17 56
0 18 56
1 18 56
2 18 56
3 18 56
0 19 56
1 19 56
2 19 56
3 19 56
0 20 56
1 20 56
2 20 56
3 20 56
0 21 56
1 21 56
2 21 56
3 21 56
0 22 56
1 22 56
2 22 56
3 22 56
0 23 56
1 23 56
2 23 56
3 23 56
0 24 56
1 24 56
2 24 56
3 24 56
0 25 56
1 25 56
2 25 56
3 25 56
0 26 56
1 26 56
2 26 56
3 26 56
0 27 56
1 27 56
2 27 56
3 27 56
0 28 56
1 28 56
2 28 56
3 28 56
0 29 56
1 29 56
2 29 56
3 29 56
0 30 56
1 30 56
2 30 56
3 30 56
0 31 56
1 31 56
2 31 56
3 31 56
0 32 56
1 32 56
2 32 56
3 32 56
0 33 56
1 33 56
2 33 56
3 33 56
0 34 56
1 34 56
2 34 56
3 34 56
0 35 56
1 35 56
2 35 56
3 35 56
0 36 56
1 36 56
2 36 56
3 36 56
0 37 56
1 37 56
2 37 56
3 37 56
0 38 56
1 38 56
2 38 56
3 38 56
0 39 56
1 39 56
2 39 56
3 39 56
0 40 56
1 40 56
2 40 56
3 40 56
0 41 56
1 41 56
2 41 56
3 41 56
0 42 56
1 42 56
2 42 56
3 42 56
0 43 56
1 43 56
2 43 56
3 43 56
0 44 56
1 44 56
2 44 56
3 44 56
0 45 56
1 45 56
2 45 56
3 45 56
0 46 56
1 46 56
2 46 56
3 46 56
0 47 56
1 47 56
2 47 56
3 47 56
0 48 56
1 48 56
2 48 56
3 48 56
0 49 56
1 49 56
2 49 56
3 49 56
0 -1 57
1 -1 57
2 -1 57
3 -1 57
0 0 57
1 0 57
2 0 57
3 0 57
0 1 57
1 1 57
2 1 57
3 1 57
0 2 57
1 2 57
2 2 57
3 2 57
0 3 57
1 3 57
2 3 57
3 3 57
0 4 57
1 4 57
2 4 57
3 4 57
0 5 57
1 5 57
2 5 57
3 5 57
0 6 57
1 6 57
2 6 57
3 6 57
0 7 57
1 7 57
2 7 57
3 7 57
0 8 57
1 8 57
2 8 57
3 8 57
0 9 57
1 9 57
2 9 57
3 9 57
0 10 57
1 10 57
2 10 57
3 10 57
0 11 57
1 11 57
2 11 57
3 11 57
0 12 57
1 12 57
2 12 57
3 12 57
0 13 57
1 13 57
2 13 57
3 13 57
0 14 57
1 14 57
2 14 57
3 14 57
0 15 57
1 15 57
2 15 57
3 15 57
0 16 57
1 16 57
2 16 57
3 16 57
0 17 57
1 17 57
2 17 57
3 17 57
0 18 57
1 18 57
2 18 57
3 18 57
0 19 57
1 19 57
2 19 57
3 19 57
0 20 57
1 20 57
2 20 57
3 20 57
0 21 57
1 21 57
2 21 57
3 21 57
0 22 57
1 22 57
2 22 57
3 22 57
0 23 57
1 23 57
2 23 57
3 23 57
0 24 57
1 24 57
2 24 57
3 24 57
0 25 57
1 25 57
2 25 57
3 25 57
0 26 57
1 26 57
2 26 57
3 26 57
0 27 57
1 27 57
2 27 57
3 27 57
0 28 57
1 28 57
2 28 57
3 28 57
0 29 57
1 29 57
2 29 57
3 29 57
0 30 57
1 30 57
2 30 57
3 30 57
0 31 57
1 31 57
2 31 57
3 31 57
0 32 57
1 32 57
2 32 57
3 32 57
0 33 57
1 33 57
2 33 57
3 33 57
0 34 57
1 34 57
2 34 57
3 34 57
0 35 57
1 35 57
2 35 57
3 35 57
0 36 57
1 36 57
2 36 57
3 36 57
0 37 57
1 37 57
2 37 57
3 37 57
0 38 57
1 38 57
2 38 57
3 38 57
0 39 57
1 39 57
2 39 57
3 39 57
0 40 57
1 40 57
2 40 57
3 40 57
0 41 57
1 41 57
2 41 57
3 41 57
0 42 57
1 42 57
2 42 57
3 42 57
0 43 57
1 43 57
2 43 57
3 43 57
0 44 57
1 44 57
2 44 57
3 44 57
0 45 57
1 45 57
2 45 57
3 45 57
0 46 57
1 46 57
2 46 57
3 46 57
0 47 57
1 47 57
2 47 57
3 47 57
0 48 57
1 48 57
2 48 57
3 48 57
0 49 57
1 49 57
2 49 57
3 49 57
0 -1 58
1 -1 58
2 -1 58
3 -1 58
0 0 58
1 0 58
2 0 58
3 0 58
0 1 58
1 1 58
2 1 58
3 1 58
0 2 58
1 2 58
2 2 58
3 2 58
0 3 58
1 3 58
2 3 58
3 3 58
0 4 58
1 4 58
2 4 58
3 4 58
0 5 58
1 5 58
2 5 58
3 5 58
0 6 58
1 6 58
2 6 58
3 6 58
0 7 58
1 7 58
2 7 58
3 7 58
0 8 58
1 8 58
2 8 58
3 8 58
0 9 58
1 9 58
2 9 58
3 9 58
0 10 58
1 10 58
2 10 58
3 10 58
0 11 58
1 11 58
2 11 58
3 11 58
0 12 58
1 12 58
2 12 58
3 12 58
0 13 58
1 13 58
2 13 58
3 13 58
0 14 58
1 14 58
2 14 58
3 14 58
0 15 58
1 15 58
2 15 58
3 15 58
0 16 58
1 16 58
2 16 58
3 16 58
0 17 58
1 17 58
2 17 58
3 17 58
0 18 58
1 18 58
2 18 58
3 18 58
0 19 58
1 19 58
2 19 58
3 19 58
0 20 58
1 20 58
2 20 58
3 20 58
0 21 58
1 21 58
2 21 58
3 21 58
0 22 58
1 22 58
2 22 58
3 22 58
0 23 58
1 23 58
2 23 58
3 23 58
0 24 58
1 24 58
2 24 58
3 24 58
0 25 58
1 25 58
2 25 58
3 25 58
0 26 58
1 26 58
2 26 58
3 26 58
0 27 58
1 27 58
2 27 58
3 27 58
0 28 58
1 28 58
2 28 58
3 28 58
0 29 58
1 29 58
2 29 58
3 29 58
0 30 58
1 30 58
2 30 58
3 30 58
0 31 58
1 31 58
2 31 58
3 31 58
0 32 58
1 32 58
2 32 58
3 32 58
0 33 58
1 33 58
2 33 58
3 33 58
0 34 58
1 34 58
2 34 58
3 34 58
0 35 58
1 35 58
2 35 58
3 35 58
0 36 58
1 36 58
2 36 58
3 36 58
0 37 58
1 37 58
2 37 58
3 37 58
0 38 58
1 38 58
2 38 58
3 38 58
0 39 58
1 39 58
2 39 58
3 39 58
0 40 58
1 40 58
2 40 58
3 40 58
0 41 58
1 41 58
2 41 58
3 41 58
0 42 58
1 42 58
2 42 58
3 42 58
0 43 58
1 43 58
2 43 58
3 43 58
0 44 58
1 44 58
2 44 58
3 44 58
0 45 58
1 45 58
2 45 58
3 45 58
0 46 58
1 46 58
2 46 58
3 46 58
0 47 58
1 47 58
2 47 58
3 47 58
0 48 58
1 48 58
2 48 58
3 48 58
0 49 58
1 49 58
2 49 58
3 49 58
0 -1 59
1 -1 59
2 -1 59
3 -1 59
0 0 59
1 0 59
2 0 59
3 0 59
0 1 59
1 1 59
2 1 59
3 1 59
0 2 59
1 2 59
2 2 59
3 2 59
0 3 59
1 3 59
2 3 59
3 3 59
0 4 59
1 4 59
2 4 59
3 4 59
0 5 59
1 5 59
2 5 59
3 5 59
0 6 59
1 6 59
2 6 59
3 6 59
0 7 59
1 7 59
2 7 59
3 7 59
0 8 59
1 8 59
2 8 59
3 8 59
0 9 59
1 9 59
2 9 59
3 9 59
0 10 59
1 10 59
2 10 59
3 10 59
0 11 59
1 11 59
2 11 59
3 11 59
0 12 59
1 12 59
2 12 59
3 12 59
0 13 59
1 13 59
2 13 59
3 13 59
0 14 59
1 14 59
2 14 59
3 14 59
0 15 59
1 15 59
2 15 59
3 15 59
0 16 59
1 16 59
2 16 59
3 16 59
0 17 59
1 17 59
2 17 59
3 17 59
0 18 59
1 18 59
2 18 59
3 18 59
0 19 59
1 19 59
2 19 59
3 19 59
0 20 59
1 20 59
2 20 59
3 20 59
0 21 59
1 21 59
2 21 59
3 21 59
0 22 59
1 22 59
2 22 59
3 22 59
0 23 59
1 23 59
2 23 59
3 23 59
0 24 59
1 24 59
2 24 59
3 24 59
0 25 59
1 25 59
2 25 59
3 25 59
0 26 59
1 26 59
2 26 59
3 26 59
0 27 59
1 27 59
2 27 59
3 27 59
0 28 59
1 28 59
2 28 59
3 28 59
0 29 59
1 29 59
2 29 59
3 29 59
0 30 59
1 30 59
2 30 59
3 30 59
0 31 59
1 31 59
2 31 59
3 31 59
0 32 59
1 32 59
2 32 59
3 32 59
0 33 59
1 33 59
2 33 59
3 33 59
0 34 59
1 34 59
2 34 59
3 34 59
0 35 59
1 35 59
2 35 59
3 35 59
0 36 59
1 36 59
2 36 59
3 36 59
0 37 59
1 37 59
2 37 59
3 37 59
0 38 59
1 38 59
2 38 59
3 38 59
0 39 59
1 39 59
2 39 59
3 39 59
0 40 59
1 40 59
2 40 59
3 40 59
0 41 59
1 41 59
2 41 59
3 41 59
0 42 59
1 42 59
2 42 59
3 42 59
0 43 59
1 43 59
2 43 59
3 43 59
0 44 59
1 44 59
2 44 59
3 44 59
0 45 59
1 45 59
2 45 59
3 45 59
0 46 59
1 46 59
2 46 59
3 46 59
0 47 59
1 47 59
2 47 59
3 47 59
0 48 59
1 48 59
2 48 59
3 48 59
0 49 59
1 49 59
2 49 59
3 49 59
0 -1 60
1 -1 60
2 -1 60
3 -1 60
0 0 60
1 0 60
2 0 60
3 0 60
0 1 60
1 1 60
2 1 60
3 1 60
0 2 60
1 2 60
2 2 60
3 2 60
0 3 60
1 3 60
2 3 60
3 3 60
0 4 60
1 4 60
2 4 60
3 4 60
0 5 60
1 5 60
2 5 60
3 5 60
0 6 60
1 6 60
2 6 60
3 6 60
0 7 60
1 7 60
2 7 60
3 7 60
0 8 60
1 8 60
2 8 60
3 8 60
0 9 60
1 9 60
2 9 60
3 9 60
0 10 60
1 10 60
2 10 60
3 10 60
0 11 60
1 11 60
2 11 60
3 11 60
0 12 60
1 12 60
2 12 60
3 12 60
0 13 60
1 13 60
2 13 60
3 13 60
0 14 60
1 14 60
2 14 60
3 14 60
0 15 60
1 15 60
2 15 60
3 15 60
0 16 60
1 16 60
2 16 60
3 16 60
0 17 60
1 17 60
2 17 60
3 17 60
0 18 60
1 18 60
2 18 60
3 18 60
0 19 60
1 19 60
2 19 60
3 19 60
0 20 60
1 20 60
2 20 60
3 20 60
0 21 60
1 21 60
2 21 60
3 21 60
0 22 60
1 22 60
2 22 60
3 22 60
0 23 60
1 23 60
2 23 60
3 23 60
0 24 60
1 24 60
2 24 60
3 24 60
0 25 60
1 25 60
2 25 60
3 25 60
0 26 60
1 26 60
2 26 60
3 26 60
0 27 60
1 27 60
2 27 60
3 27 60
0 28 60
1 28 60
2 28 60
3 28 60
0 29 60
1 29 60
2 29 60
3 29 60
0 30 60
1 30 60
2 30 60
3 30 60
0 31 60
1 31 60
2 31 60
3 31 60
0 32 60
1 32 60
2 32 60
3 32 60
0 33 60
1 33 60
2 33 60
3 33 60
0 34 60
1 34 60
2 34 60
3 34 60
0 35 60
1 35 60
2 35 60
3 35 60
0 36 60
1 36 60
2 36 60
3 36 60
0 37 60
1 37 60
2 37 60
3 37 60
0 38 60
1 38 60
2 38 60
3 38 60
0 39 60
1 39 60
2 39 60
3 39 60
0 40 60
1 40 60
2 40 60
3 40 60
0 41 60
1 41 60
2 41 60
3 41 60
0 42 60
1 42 60
2 42 60
3 42 60
0 43 60
1 43 60
2 43 60
3 43 60
0 44 60
1 44 60
2 44 60
3 44 60
0 45 60
1 45 60
2 45 60
3 45 60
0 46 60
1 46 60
2 46 60
3 46 60
0 47 60
1 47 60
2 47 60
3 47 60
0 48 60
1 48 60
2 48 60
3 48 60
0 49 60
1 49 60
2 49 60
3 49 60
        </DataArray>
      </Points>
      <PointData Scalars="scalar">
        <DataArray Name="scalar" type="Float32" format="ascii">
2
2
2
2
1
1
1
1
1
1
1
1
1
1
1
1
1
1
1
1
1
1
1
1
1
1
1
1
1
1
1
1
1
1
1
1
1
1
1
1
1
1
1
1
1
1
1
1
1
1
1
1
1
1
1
1
1
1
1
1
1
1
1
1
1
1
1
1
1
1
1
1
1
1
1
1
1
1
1
1
1
1
1
1
1
1
1
1
1
1
1
1
1
1
1
1
1
1
1
1
1
1
1
1
1
1
1
1
1
1
1
1
1
1
1
1
1
1
1
1
1
1
1
1
1
1
1
1
1
1
1
1
1
1
1
1
1
1
1
1
1
1
1
1
1
1
1
1
1
1
1
1
1
1
1
1
1
1
1
1
1
1
1
1
1
1
1
1
1
1
1
1
1
1
1
1
1
1
1
1
1
1
1
1
1
1
1
1
1
1
1
1
1
1
1
1
1
1
1
1
2
2
2
2
7
7
7
7
2
2
2
2
2
2
2
2
2
2
2
2
2
2
2
2
2
2
2
2
2
2
2
2
2
2
2
2
2
2
2
2
2
2
2
2
2
2
2
2
2
2
2
2
2
2
2
2
2
2
2
2
2
2
2
2
2
2
2
2
2
2
2
2
2
2
2
2
2
2
2
2
2
2
2
2
2
2
2
2
2
2
2
2
2
2
2
2
2
2
2
2
2
2
2
2
2
2
2
2
2
2
2
2
2
2
2
2
2
2
2
2
2
2
2
2
2
2
2
2
2
2
2
2
2
2
2
2
2
2
2
2
2
2
2
2
2
2
2
2
2
2
2
2
2
2
2
2
2
2
2
2
2
2
2
2
2
2
2
2
2
2
2
2
2
2
2
2
2
2
2
2
2
2
2
2
2
2
2
2
2
2
2
2
2
2
2
2
2
2
2
2
2
2
2
2
2
2
2
2
7
7
7
7
2
2
2
2
2
2
2
2
2
2
2
2
2
2
2
2
2
2
2
2
2
2
2
2
2
2
2
2
2
2
2
2
2
2
2
2
2
2
2
2
2
2
2
2
2
2
2
2
2
2
2
2
2
2
2
2
2
2
2
2
2
2
2
2
2
2
2
2
2
2
2
2
2
2
2
2
2
2
2
2
2
2
2
2
2
2
2
2
2
2
2
2
2
2
2
2
2
2
2
2
2
2
2
2
2
2
2
2
2
2
2
2
2
2
2
2
2
2
2
2
2
2
2
2
2
2
2
2
2
2
2
2
2
2
2
2
2
2
2
2
2
2
2
2
2
2
2
2
2
2
2
2
2
2
2
2
2
2
2
2
2
2
2
2
2
2
2
2
2
2
2
2
2
2
2
2
2
2
2
2
2
2
2
2
2
2
2
2
2
2
2
2
2
2
2
2
2
2
2
2
7
7
7
7
2
2
2
2
2
2
2
2
2
2
2
2
2
2
2
2
2
2
2
2
2
2
2
2
2
2
2
2
2
2
2
2
2
2
2
2
2
2
2
2
2
2
2
2
2
2
2
2
2
2
2
2
2
2
2
2
2
2
2
2
2
2
2
2
2
2
2
2
2
2
2
2
2
2
2
2
2
2
2
2
2
2
2
2
2
2
2
2
2
2
2
2
2
2
2
2
2
2
2
2
2
2
2
2
2
2
2
2
2
2
2
2
2
2
2
2
2
2
2
2
2
2
2
2
2
2
2
2
2
2
2
2
2
2
2
2
2
2
2
2
2
2
2
2
2
2
2
2
2
2
2
2
2
2
2
2
2
2
2
2
2
2
2
2
2
2
2
2
2
2
2
2
2
2
2
2
2
2
2
2
2
2
2
2
2
2
2
2
2
2
2
2
2
2
2
2
2
2
2
2
7
7
7
7
2
2
2
2
2
2
2
2
2
2
2
2
2
2
2
2
2
2
2
2
2
2
2
2
2
2
2
2
2
2
2
2
2
2
2
2
2
2
2
2
2
2
2
2
2
2
2
2
2
2
2
2
2
2
2
2
2
2
2
2
2
2
2
2
2
2
2
2
2
2
2
2
2
2
2
2
2
2
2
2
2
2
2
2
2
2
2
2
2
2
2
2
2
2
2
2
2
2
2
2
2
2
2
2
2
2
2
2
2
2
2
2
2
2
2
2
2
2
2
2
2
2
2
2
2
2
2
2
2
2
2
2
2
2
2
2
2
2
2
2
2
2
2
2
2
2
2
2
2
2
2
2
2
2
2
2
2
2
2
2
2
2
2
2
2
2
2
2
2
2
2
2
2
2
2
2
2
2
2
2
2
2
2
2
2
2
2
2
2
2
2
2
2
2
2
2
2
2
2
2
7
7
7
7
2
2
2
2
2
2
2
2
2
2
2
2
2
2
2
2
2
2
2
2
2
2
2
2
2
2
2
2
2
2
2
2
2
2
2
2
2
2
2
2
2
2
2
2
2
2
2
2
2
2
2
2
2
2
2
2
2
2
2
2
2
2
2
2
2
2
2
2
2
2
2
2
2
2
2
2
2
2
2
2
2
2
2
2
2
2
2
2
2
2
2
2
2
2
2
2
2
2
2
2
2
2
2
2
2
2
2
2
2
2
2
2
2
2
2
2
2
2
2
2
2
2
2
2
2
2
2
2
2
2
2
2
2
2
2
2
2
2
2
2
2
2
2
2
2
2
2
2
2
2
2
2
2
2
2
2
2
2
2
2
2
2
2
2
2
2
2
2
2
2
2
2
2
2
2
2
2
2
2
2
2
2
2
2
2
2
2
2
2
2
2
2
2
2
2
2
2
2
2
2
7
7
7
7
2
2
2
2
2
2
2
2
2
2
2
2
2
2
2
2
2
2
2
2
2
2
2
2
2
2
2
2
2
2
2
2
2
2
2
2
2
2
2
2
2
2
2
2
2
2
2
2
2
2
2
2
2
2
2
2
2
2
2
2
2
2
2
2
2
2
2
2
2
2
2
2
2
2
2
2
2
2
2
2
2
2
2
2
2
2
2
2
2
2
2
2
2
2
2
2
2
2
2
2
2
2
2
2
2
2
2
2
2
2
2
2
2
2
2
2
2
2
2
2
2
2
2
2
2
2
2
2
2
2
2
2
2
2
2
2
2
2
2
2
2
2
2
2
2
2
2
2
2
2
2
2
2
2
2
2
2
2
2
2
2
2
2
2
2
2
2
2
2
2
2
2
2
2
2
2
2
2
2
2
2
2
2
2
2
2
2
2
2
2
2
2
2
2
2
2
2
2
2
2
7
7
7
7
2
2
2
2
2
2
2
2
2
2
2
2
2
2
2
2
2
2
2
2
2
2
2
2
2
2
2
2
2
2
2
2
2
2
2
2
2
2
2
2
2
2
2
2
2
2
2
2
2
2
2
2
2
2
2
2
2
2
2
2
2
2
2
2
2
2
2
2
2
2
2
2
2
2
2
2
2
2
2
2
2
2
2
2
2
2
2
2
2
2
2
2
2
2
2
2
2
2
2
2
2
2
2
2
2
2
2
2
2
2
2
2
2
2
2
2
2
2
2
2
2
2
2
2
2
2
2
2
2
2
2
2
2
2
2
2
2
2
2
2
2
2
2
2
2
2
2
2
2
2
2
2
2
2
2
2
2
2
2
2
2
2
2
2
2
2
2
2
2
2
2
2
2
2
2
2
2
2
2
2
2
2
2
2
2
2
2
2
2
2
2
2
2
2
2
2
2
2
2
2
7
7
7
7
2
2
2
2
2
2
2
2
2
2
2
2
2
2
2
2
2
2
2
2
2
2
2
2
2
2
2
2
2
2
2
2
2
2
2
2
2
2
2
2
2
2
2
2
2
2
2
2
2
2
2
2
2
2
2
2
2
2
2
2
2
2
2
2
2
2
2
2
2
2
2
2
2
2
2
2
2
2
2
2
2
2
2
2
2
2
2
2
2
2
2
2
2
2
2
2
2
2
2
2
2
2
2
2
2
2
2
2
2
2
2
2
2
2
2
2
2
2
2
2
2
2
2
2
2
2
2
2
2
2
2
2
2
2
2
2
2
2
2
2
2
2
2
2
2
2
2
2
2
2
2
2
2
2
2
2
2
2
2
2
2
2
2
2
2
2
2
2
2
2
2
2
2
2
2
2
2
2
2
2
2
2
2
2
2
2
2
2
2
2
2
2
2
2
2
2
2
2
2
2
7
7
7
7
2
2
2
2
2
2
2
2
2
2
2
2
2
2
2
2
2
2
2
2
2
2
2
2
2
2
2
2
2
2
2
2
2
2
2
2
2
2
2
2
2
2
2
2
2
2
2
2
2
2
2
2
2
2
2
2
2
2
2
2
2
2
2
2
2
2
2
2
2
2
2
2
2
2
2
2
2
2
2
2
2
2
2
2
2
2
2
2
2
2
2
2
2
2
2
2
2
2
2
2
2
2
2
2
2
2
2
2
2
2
2
2
2
2
2
2
2
2
2
2
2
2
2
2
2
2
2
2
2
2
2
2
2
2
2
2
2
2
2
2
2
2
2
2
2
2
2
2
2
2
2
2
2
2
2
2
2
2
2
2
2
2
2
2
2
2
2
2
2
2
2
2
2
2
2
2
2
2
2
2
2
2
2
2
2
2
2
2
2
2
2
2
2
2
2
2
2
2
2
2
7
7
7
7
2
2
2
2
2
2
2
2
2
2
2
2
2
2
2
2
2
2
2
2
2
2
2
2
2
2
2
2
2
2
2
2
2
2
2
2
2
2
2
2
2
2
2
2
2
2
2
2
2
2
2
2
2
2
2
2
2
2
2
2
2
2
2
2
2
2
2
2
2
2
2
2
2
2
2
2
2
2
2
2
2
2
2
2
2
2
2
2
2
2
2
2
2
2
2
2
2
2
2
2
2
2
2
2
2
2
2
2
2
2
2
2
2
2
2
2
2
2
2
2
2
2
2
2
2
2
2
2
2
2
2
2
2
2
2
2
2
2
2
2
2
2
2
2
2
2
2
2
2
2
2
2
2
2
2
2
2
2
2
2
2
2
2
2
2
2
2
2
2
2
2
2
2
2
2
2
2
2
2
2
2
2
2
2
2
2
2
2
2
2
2
2
2
2
2
2
2
2
2
2
7
7
7
7
2
2
2
2
2
2
2
2
2
2
2
2
2
2
2
2
2
2
2
2
2
2
2
2
2
2
2
2
2
2
2
2
2
2
2
2
2
2
2
2
2
2
2
2
2
2
2
2
2
2
2
2
2
2
2
2
2
2
2
2
2
2
2
2
2
2
2
2
2
2
2
2
2
2
2
2
2
2
2
2
2
2
2
2
2
2
2
2
2
2
2
2
2
2
2
2
2
2
2
2
2
2
2
2
2
2
2
2
2
2
2
2
2
2
2
2
2
2
2
2
2
2
2
2
2
2
2
2
2
2
2
2
2
2
2
2
2
2
2
2
2
2
2
2
2
2
2
2
2
2
2
2
2
2
2
2
2
2
2
2
2
2
2
2
2
2
2
2
2
2
2
2
2
2
2
2
2
2
2
2
2
2
2
2
2
2
2
2
2
2
2
2
2
2
2
2
2
2
2
2
7
7
7
7
2
2
2
2
2
2
2
2
2
2
2
2
2
2
2
2
2
2
2
2
2
2
2
2
2
2
2
2
2
2
2
2
2
2
2
2
2
2
2
2
2
2
2
2
2
2
2
2
2
2
2
2
2
2
2
2
2
2
2
2
2
2
2
2
2
2
2
2
2
2
2
2
2
2
2
2
2
2
2
2
2
2
2
2
2
2
2
2
2
2
2
2
2
2
2
2
2
2
2
2
2
2
2
2
2
2
2
2
2
2
2
2
2
2
2
2
2
2
2
2
2
2
2
2
2
2
2
2
2
2
2
2
2
2
2
2
2
2
2
2
2
2
2
2
2
2
2
2
2
2
2
2
2
2
2
2
2
2
2
2
2
2
2
2
2
2
2
2
2
2
2
2
2
2
2
2
2
2
2
2
2
2
2
2
2
2
2
2
2
2
2
2
2
2
2
2
2
2
2
2
7
7
7
7
2
2
2
2
2
2
2
2
2
2
2
2
2
2
2
2
2
2
2
2
2
2
2
2
2
2
2
2
2
2
2
2
2
2
2
2
2
2
2
2
2
2
2
2
2
2
2
2
2
2
2
2
2
2
2
2
2
2
2
2
2
2
2
2
2
2
2
2
2
2
2
2
2
2
2
2
2
2
2
2
2
2
2
2
2
2
2
2
2
2
2
2
2
2
2
2
2
2
2
2
2
2
2
2
2
2
2
2
2
2
2
2
2
2
2
2
2
2
2
2
2
2
2
2
2
2
2
2
2
2
2
2
2
2
2
2
2
2
2
2
2
2
2
2
2
2
2
2
2
2
2
2
2
2
2
2
2
2
2
2
2
2
2
2
2
2
2
2
2
2
2
2
2
2
2
2
2
2
2
2
2
2
2
2
2
2
2
2
2
2
2
2
2
2
2
2
2
2
2
2
7
7
7
7
2
2
2
2
2
2
2
2
2
2
2
2
2
2
2
2
2
2
2
2
2
2
2
2
2
2
2
2
2
2
2
2
2
2
2
2
2
2
2
2
2
2
2
2
2
2
2
2
2
2
2
2
2
2
2
2
2
2
2
2
2
2
2
2
2
2
2
2
2
2
2
2
2
2
2
2
2
2
2
2
2
2
2
2
2
2
2
2
2
2
2
2
2
2
2
2
2
2
2
2
2
2
2
2
2
2
2
2
2
2
2
2
2
2
2
2
2
2
2
2
2
2
2
2
2
2
2
2
2
2
2
2
2
2
2
2
2
2
2
2
2
2
2
2
2
2
2
2
2
2
2
2
2
2
2
2
2
2
2
2
2
2
2
2
2
2
2
2
2
2
2
2
2
2
2
2
2
2
2
2
2
2
2
2
2
2
2
2
2
2
2
2
2
2
2
2
2
2
2
2
7
7
7
7
2
2
2
2
2
2
2
2
2
2
2
2
2
2
2
2
2
2
2
2
2
2
2
2
2
2
2
2
2
2
2
2
2
2
2
2
2
2
2
2
2
2
2
2
2
2
2
2
2
2
2
2
2
2
2
2
2
2
2
2
2
2
2
2
2
2
2
2
2
2
2
2
2
2
2
2
2
2
2
2
2
2
2
2
2
2
2
2
2
2
2
2
2
2
2
2
2
2
2
2
2
2
2
2
2
2
2
2
2
2
2
2
2
2
2
2
2
2
2
2
2
2
2
2
2
2
2
2
2
2
2
2
2
2
2
2
2
2
2
2
2
2
2
2
2
2
2
2
2
2
2
2
2
2
2
2
2
2
2
2
2
2
2
2
2
2
2
2
2
2
2
2
2
2
2
2
2
2
2
2
2
2
2
2
2
2
2
2
2
2
2
2
2
2
2
2
2
2
2
2
7
7
7
7
2
2
2
2
2
2
2
2
2
2
2
2
2
2
2
2
2
2
2
2
2
2
2
2
2
2
2
2
2
2
2
2
2
2
2
2
2
2
2
2
2
2
2
2
2
2
2
2
2
2
2
2
2
2
2
2
2
2
2
2
2
2
2
2
2
2
2
2
2
2
2
2
2
2
2
2
2
2
2
2
2
2
2
2
2
2
2
2
2
2
2
2
2
2
2
2
2
2
2
2
2
2
2
2
2
2
2
2
2
2
2
2
2
2
2
2
2
2
2
2
2
2
2
2
2
2
2
2
2
2
2
2
2
2
2
2
2
2
2
2
2
2
2
2
2
2
2
2
2
2
2
2
2
2
2
2
2
2
2
2
2
2
2
2
2
2
2
2
2
2
2
2
2
2
2
2
2
2
2
2
2
2
2
2
2
2
2
2
2
2
2
2
2
2
2
2
2
2
2
2
7
7
7
7
2
2
2
2
2
2
2
2
2
2
2
2
2
2
2
2
2
2
2
2
2
2
2
2
2
2
2
2
2
2
2
2
2
2
2
2
2
2
2
2
2
2
2
2
2
2
2
2
2
2
2
2
2
2
2
2
2
2
2
2
2
2
2
2
2
2
2
2
2
2
2
2
2
2
2
2
2
2
2
2
2
2
2
2
2
2
2
2
2
2
2
2
2
2
2
2
2
2
2
2
2
2
2
2
2
2
2
2
2
2
2
2
2
2
2
2
2
2
2
2
2
2
2
2
2
2
2
2
2
2
2
2
2
2
2
2
2
2
2
2
2
2
2
2
2
2
2
2
2
2
2
2
2
2
2
2
2
2
2
2
2
2
2
2
2
2
2
2
2
2
2
2
2
2
2
2
2
2
2
2
2
2
2
2
2
2
2
2
2
2
2
2
2
2
2
2
2
2
2
2
7
7
7
7
2
2
2
2
2
2
2
2
2
2
2
2
2
2
2
2
2
2
2
2
2
2
2
2
2
2
2
2
2
2
2
2
2
2
2
2
2
2
2
2
2
2
2
2
2
2
2
2
2
2
2
2
2
2
2
2
2
2
2
2
2
2
2
2
2
2
2
2
2
2
2
2
2
2
2
2
2
2
2
2
2
2
2
2
2
2
2
2
2
2
2
2
2
2
2
2
2
2
2
2
2
2
2
2
2
2
2
2
2
2
2
2
2
2
2
2
2
2
2
2
2
2
2
2
2
2
2
2
2
2
2
2
2
2
2
2
2
2
2
2
2
2
2
2
2
2
2
2
2
2
2
2
2
2
2
2
2
2
2
2
2
2
2
2
2
2
2
2
2
2
2
2
2
2
2
2
2
2
2
2
2
2
2
2
2
2
2
2
2
2
2
2
2
2
2
2
2
2
2
2
7
7
7
7
2
2
2
2
2
2
2
2
2
2
2
2
2
2
2
2
2
2
2
2
2
2
2
2
2
2
2
2
2
2
2
2
2
2
2
2
2
2
2
2
2
2
2
2
2
2
2
2
2
2
2
2
2
2
2
2
2
2
2
2
2
2
2
2
2
2
2
2
2
2
2
2
2
2
2
2
2
2
2
2
2
2
2
2
2
2
2
2
2
2
2
2
2
2
2
2
2
2
2
2
2
2
2
2
2
2
2
2
2
2
2
2
2
2
2
2
2
2
2
2
2
2
2
2
2
2
2
2
2
2
2
2
2
2
2
2
2
2
2
2
2
2
2
2
2
2
2
2
2
2
2
2
2
2
2
2
2
2
2
2
2
2
2
2
2
2
2
2
2
2
2
2
2
2
2
2
2
2
2
2
2
2
2
2
2
2
2
2
2
2
2
2
2
2
2
2
2
2
2
2
7
7
7
7
2
2
2
2
2
2
2
2
2
2
2
2
2
2
2
2
2
2
2
2
2
2
2
2
2
2
2
2
2
2
2
2
2
2
2
2
2
2
2
2
2
2
2
2
2
2
2
2
2
2
2
2
2
2
2
2
2
2
2
2
2
2
2
2
2
2
2
2
2
2
2
2
2
2
2
2
2
2
2
2
2
2
2
2
2
2
2
2
2
2
2
2
2
2
2
2
2
2
2
2
2
2
2
2
2
2
2
2
2
2
2
2
2
2
2
2
2
2
2
2
2
2
2
2
2
2
2
2
2
2
2
2
2
2
2
2
2
2
2
2
2
2
2
2
2
2
2
2
2
2
2
2
2
2
2
2
2
2
2
2
2
2
2
2
2
2
2
2
2
2
2
2
2
2
2
2
2
2
2
2
2
2
2
2
2
2
2
2
2
2
2
2
2
2
2
2
2
2
2
2
2
2
2
2
3
3
3
3
3
3
3
3
3
3
3
3
3
3
3
3
3
3
3
3
3
3
3
3
3
3
3
3
3
3
3
3
3
3
3
3
3
3
3
3
3
3
3
3
3
3
3
3
3
3
3
3
3
3
3
3
3
3
3
3
3
3
3
3
3
3
3
3
3
3
3
3
3
3
3
3
3
3
3
3
3
3
3
3
3
3
3
3
3
3
3
3
3
3
3
3
3
3
3
3
3
3
3
3
3
3
3
3
3
3
3
3
3
3
3
3
3
3
3
3
3
3
3
3
3
3
3
3
3
3
3
3
3
3
3
3
3
3
3
3
3
3
3
3
3
3
3
3
3
3
3
3
3
3
3
3
3
3
3
3
3
3
3
3
3
3
3
3
3
3
3
3
3
3
3
3
3
3
3
3
3
3
3
3
3
3
3
3
3
3
3
3
3
3
3
3
2
2
2
2
        </DataArray>
      </PointData>
    </Piece>
  </StructuredGrid>
</VTKFile>
