<?xml version="1.0"?>
<VTKFile type="StructuredGrid" version="0.1" byte_order="LittleEndian">
  <StructuredGrid WholeExtent="0 3 0 199 0 199">
    <Piece Extent="0 3 0 66 99 199">
      <Points>
        <DataArray type="Float32" NumberOfComponents="3" format="ascii">
0 0 99
1 0 99
2 0 99
3 0 99
0 1 99
1 1 99
2 1 99
3 1 99
0 2 99
1 2 99
2 2 99
3 2 99
0 3 99
1 3 99
2 3 99
3 3 99
0 4 99
1 4 99
2 4 99
3 4 99
0 5 99
1 5 99
2 5 99
3 5 99
0 6 99
1 6 99
2 6 99
3 6 99
0 7 99
1 7 99
2 7 99
3 7 99
0 8 99
1 8 99
2 8 99
3 8 99
0 9 99
1 9 99
2 9 99
3 9 99
0 10 99
1 10 99
2 10 99
3 10 99
0 11 99
1 11 99
2 11 99
3 11 99
0 12 99
1 12 99
2 12 99
3 12 99
0 13 99
1 13 99
2 13 99
3 13 99
0 14 99
1 14 99
2 14 99
3 14 99
0 15 99
1 15 99
2 15 99
3 15 99
0 16 99
1 16 99
2 16 99
3 16 99
0 17 99
1 17 99
2 17 99
3 17 99
0 18 99
1 18 99
2 18 99
3 18 99
0 19 99
1 19 99
2 19 99
3 19 99
0 20 99
1 20 99
2 20 99
3 20 99
0 21 99
1 21 99
2 21 99
3 21 99
0 22 99
1 22 99
2 22 99
3 22 99
0 23 99
1 23 99
2 23 99
3 23 99
0 24 99
1 24 99
2 24 99
3 24 99
0 25 99
1 25 99
2 25 99
3 25 99
0 26 99
1 26 99
2 26 99
3 26 99
0 27 99
1 27 99
2 27 99
3 27 99
0 28 99
1 28 99
2 28 99
3 28 99
0 29 99
1 29 99
2 29 99
3 29 99
0 30 99
1 30 99
2 30 99
3 30 99
0 31 99
1 31 99
2 31 99
3 31 99
0 32 99
1 32 99
2 32 99
3 32 99
0 33 99
1 33 99
2 33 99
3 33 99
0 34 99
1 34 99
2 34 99
3 34 99
0 35 99
1 35 99
2 35 99
3 35 99
0 36 99
1 36 99
2 36 99
3 36 99
0 37 99
1 37 99
2 37 99
3 37 99
0 38 99
1 38 99
2 38 99
3 38 99
0 39 99
1 39 99
2 39 99
3 39 99
0 40 99
1 40 99
2 40 99
3 40 99
0 41 99
1 41 99
2 41 99
3 41 99
0 42 99
1 42 99
2 42 99
3 42 99
0 43 99
1 43 99
2 43 99
3 43 99
0 44 99
1 44 99
2 44 99
3 44 99
0 45 99
1 45 99
2 45 99
3 45 99
0 46 99
1 46 99
2 46 99
3 46 99
0 47 99
1 47 99
2 47 99
3 47 99
0 48 99
1 48 99
2 48 99
3 48 99
0 49 99
1 49 99
2 49 99
3 49 99
0 50 99
1 50 99
2 50 99
3 50 99
0 51 99
1 51 99
2 51 99
3 51 99
0 52 99
1 52 99
2 52 99
3 52 99
0 53 99
1 53 99
2 53 99
3 53 99
0 54 99
1 54 99
2 54 99
3 54 99
0 55 99
1 55 99
2 55 99
3 55 99
0 56 99
1 56 99
2 56 99
3 56 99
0 57 99
1 57 99
2 57 99
3 57 99
0 58 99
1 58 99
2 58 99
3 58 99
0 59 99
1 59 99
2 59 99
3 59 99
0 60 99
1 60 99
2 60 99
3 60 99
0 61 99
1 61 99
2 61 99
3 61 99
0 62 99
1 62 99
2 62 99
3 62 99
0 63 99
1 63 99
2 63 99
3 63 99
0 64 99
1 64 99
2 64 99
3 64 99
0 65 99
1 65 99
2 65 99
3 65 99
0 66 99
1 66 99
2 66 99
3 66 99
0 0 100
1 0 100
2 0 100
3 0 100
0 1 100
1 1 100
2 1 100
3 1 100
0 2 100
1 2 100
2 2 100
3 2 100
0 3 100
1 3 100
2 3 100
3 3 100
0 4 100
1 4 100
2 4 100
3 4 100
0 5 100
1 5 100
2 5 100
3 5 100
0 6 100
1 6 100
2 6 100
3 6 100
0 7 100
1 7 100
2 7 100
3 7 100
0 8 100
1 8 100
2 8 100
3 8 100
0 9 100
1 9 100
2 9 100
3 9 100
0 10 100
1 10 100
2 10 100
3 10 100
0 11 100
1 11 100
2 11 100
3 11 100
0 12 100
1 12 100
2 12 100
3 12 100
0 13 100
1 13 100
2 13 100
3 13 100
0 14 100
1 14 100
2 14 100
3 14 100
0 15 100
1 15 100
2 15 100
3 15 100
0 16 100
1 16 100
2 16 100
3 16 100
0 17 100
1 17 100
2 17 100
3 17 100
0 18 100
1 18 100
2 18 100
3 18 100
0 19 100
1 19 100
2 19 100
3 19 100
0 20 100
1 20 100
2 20 100
3 20 100
0 21 100
1 21 100
2 21 100
3 21 100
0 22 100
1 22 100
2 22 100
3 22 100
0 23 100
1 23 100
2 23 100
3 23 100
0 24 100
1 24 100
2 24 100
3 24 100
0 25 100
1 25 100
2 25 100
3 25 100
0 26 100
1 26 100
2 26 100
3 26 100
0 27 100
1 27 100
2 27 100
3 27 100
0 28 100
1 28 100
2 28 100
3 28 100
0 29 100
1 29 100
2 29 100
3 29 100
0 30 100
1 30 100
2 30 100
3 30 100
0 31 100
1 31 100
2 31 100
3 31 100
0 32 100
1 32 100
2 32 100
3 32 100
0 33 100
1 33 100
2 33 100
3 33 100
0 34 100
1 34 100
2 34 100
3 34 100
0 35 100
1 35 100
2 35 100
3 35 100
0 36 100
1 36 100
2 36 100
3 36 100
0 37 100
1 37 100
2 37 100
3 37 100
0 38 100
1 38 100
2 38 100
3 38 100
0 39 100
1 39 100
2 39 100
3 39 100
0 40 100
1 40 100
2 40 100
3 40 100
0 41 100
1 41 100
2 41 100
3 41 100
0 42 100
1 42 100
2 42 100
3 42 100
0 43 100
1 43 100
2 43 100
3 43 100
0 44 100
1 44 100
2 44 100
3 44 100
0 45 100
1 45 100
2 45 100
3 45 100
0 46 100
1 46 100
2 46 100
3 46 100
0 47 100
1 47 100
2 47 100
3 47 100
0 48 100
1 48 100
2 48 100
3 48 100
0 49 100
1 49 100
2 49 100
3 49 100
0 50 100
1 50 100
2 50 100
3 50 100
0 51 100
1 51 100
2 51 100
3 51 100
0 52 100
1 52 100
2 52 100
3 52 100
0 53 100
1 53 100
2 53 100
3 53 100
0 54 100
1 54 100
2 54 100
3 54 100
0 55 100
1 55 100
2 55 100
3 55 100
0 56 100
1 56 100
2 56 100
3 56 100
0 57 100
1 57 100
2 57 100
3 57 100
0 58 100
1 58 100
2 58 100
3 58 100
0 59 100
1 59 100
2 59 100
3 59 100
0 60 100
1 60 100
2 60 100
3 60 100
0 61 100
1 61 100
2 61 100
3 61 100
0 62 100
1 62 100
2 62 100
3 62 100
0 63 100
1 63 100
2 63 100
3 63 100
0 64 100
1 64 100
2 64 100
3 64 100
0 65 100
1 65 100
2 65 100
3 65 100
0 66 100
1 66 100
2 66 100
3 66 100
0 0 101
1 0 101
2 0 101
3 0 101
0 1 101
1 1 101
2 1 101
3 1 101
0 2 101
1 2 101
2 2 101
3 2 101
0 3 101
1 3 101
2 3 101
3 3 101
0 4 101
1 4 101
2 4 101
3 4 101
0 5 101
1 5 101
2 5 101
3 5 101
0 6 101
1 6 101
2 6 101
3 6 101
0 7 101
1 7 101
2 7 101
3 7 101
0 8 101
1 8 101
2 8 101
3 8 101
0 9 101
1 9 101
2 9 101
3 9 101
0 10 101
1 10 101
2 10 101
3 10 101
0 11 101
1 11 101
2 11 101
3 11 101
0 12 101
1 12 101
2 12 101
3 12 101
0 13 101
1 13 101
2 13 101
3 13 101
0 14 101
1 14 101
2 14 101
3 14 101
0 15 101
1 15 101
2 15 101
3 15 101
0 16 101
1 16 101
2 16 101
3 16 101
0 17 101
1 17 101
2 17 101
3 17 101
0 18 101
1 18 101
2 18 101
3 18 101
0 19 101
1 19 101
2 19 101
3 19 101
0 20 101
1 20 101
2 20 101
3 20 101
0 21 101
1 21 101
2 21 101
3 21 101
0 22 101
1 22 101
2 22 101
3 22 101
0 23 101
1 23 101
2 23 101
3 23 101
0 24 101
1 24 101
2 24 101
3 24 101
0 25 101
1 25 101
2 25 101
3 25 101
0 26 101
1 26 101
2 26 101
3 26 101
0 27 101
1 27 101
2 27 101
3 27 101
0 28 101
1 28 101
2 28 101
3 28 101
0 29 101
1 29 101
2 29 101
3 29 101
0 30 101
1 30 101
2 30 101
3 30 101
0 31 101
1 31 101
2 31 101
3 31 101
0 32 101
1 32 101
2 32 101
3 32 101
0 33 101
1 33 101
2 33 101
3 33 101
0 34 101
1 34 101
2 34 101
3 34 101
0 35 101
1 35 101
2 35 101
3 35 101
0 36 101
1 36 101
2 36 101
3 36 101
0 37 101
1 37 101
2 37 101
3 37 101
0 38 101
1 38 101
2 38 101
3 38 101
0 39 101
1 39 101
2 39 101
3 39 101
0 40 101
1 40 101
2 40 101
3 40 101
0 41 101
1 41 101
2 41 101
3 41 101
0 42 101
1 42 101
2 42 101
3 42 101
0 43 101
1 43 101
2 43 101
3 43 101
0 44 101
1 44 101
2 44 101
3 44 101
0 45 101
1 45 101
2 45 101
3 45 101
0 46 101
1 46 101
2 46 101
3 46 101
0 47 101
1 47 101
2 47 101
3 47 101
0 48 101
1 48 101
2 48 101
3 48 101
0 49 101
1 49 101
2 49 101
3 49 101
0 50 101
1 50 101
2 50 101
3 50 101
0 51 101
1 51 101
2 51 101
3 51 101
0 52 101
1 52 101
2 52 101
3 52 101
0 53 101
1 53 101
2 53 101
3 53 101
0 54 101
1 54 101
2 54 101
3 54 101
0 55 101
1 55 101
2 55 101
3 55 101
0 56 101
1 56 101
2 56 101
3 56 101
0 57 101
1 57 101
2 57 101
3 57 101
0 58 101
1 58 101
2 58 101
3 58 101
0 59 101
1 59 101
2 59 101
3 59 101
0 60 101
1 60 101
2 60 101
3 60 101
0 61 101
1 61 101
2 61 101
3 61 101
0 62 101
1 62 101
2 62 101
3 62 101
0 63 101
1 63 101
2 63 101
3 63 101
0 64 101
1 64 101
2 64 101
3 64 101
0 65 101
1 65 101
2 65 101
3 65 101
0 66 101
1 66 101
2 66 101
3 66 101
0 0 102
1 0 102
2 0 102
3 0 102
0 1 102
1 1 102
2 1 102
3 1 102
0 2 102
1 2 102
2 2 102
3 2 102
0 3 102
1 3 102
2 3 102
3 3 102
0 4 102
1 4 102
2 4 102
3 4 102
0 5 102
1 5 102
2 5 102
3 5 102
0 6 102
1 6 102
2 6 102
3 6 102
0 7 102
1 7 102
2 7 102
3 7 102
0 8 102
1 8 102
2 8 102
3 8 102
0 9 102
1 9 102
2 9 102
3 9 102
0 10 102
1 10 102
2 10 102
3 10 102
0 11 102
1 11 102
2 11 102
3 11 102
0 12 102
1 12 102
2 12 102
3 12 102
0 13 102
1 13 102
2 13 102
3 13 102
0 14 102
1 14 102
2 14 102
3 14 102
0 15 102
1 15 102
2 15 102
3 15 102
0 16 102
1 16 102
2 16 102
3 16 102
0 17 102
1 17 102
2 17 102
3 17 102
0 18 102
1 18 102
2 18 102
3 18 102
0 19 102
1 19 102
2 19 102
3 19 102
0 20 102
1 20 102
2 20 102
3 20 102
0 21 102
1 21 102
2 21 102
3 21 102
0 22 102
1 22 102
2 22 102
3 22 102
0 23 102
1 23 102
2 23 102
3 23 102
0 24 102
1 24 102
2 24 102
3 24 102
0 25 102
1 25 102
2 25 102
3 25 102
0 26 102
1 26 102
2 26 102
3 26 102
0 27 102
1 27 102
2 27 102
3 27 102
0 28 102
1 28 102
2 28 102
3 28 102
0 29 102
1 29 102
2 29 102
3 29 102
0 30 102
1 30 102
2 30 102
3 30 102
0 31 102
1 31 102
2 31 102
3 31 102
0 32 102
1 32 102
2 32 102
3 32 102
0 33 102
1 33 102
2 33 102
3 33 102
0 34 102
1 34 102
2 34 102
3 34 102
0 35 102
1 35 102
2 35 102
3 35 102
0 36 102
1 36 102
2 36 102
3 36 102
0 37 102
1 37 102
2 37 102
3 37 102
0 38 102
1 38 102
2 38 102
3 38 102
0 39 102
1 39 102
2 39 102
3 39 102
0 40 102
1 40 102
2 40 102
3 40 102
0 41 102
1 41 102
2 41 102
3 41 102
0 42 102
1 42 102
2 42 102
3 42 102
0 43 102
1 43 102
2 43 102
3 43 102
0 44 102
1 44 102
2 44 102
3 44 102
0 45 102
1 45 102
2 45 102
3 45 102
0 46 102
1 46 102
2 46 102
3 46 102
0 47 102
1 47 102
2 47 102
3 47 102
0 48 102
1 48 102
2 48 102
3 48 102
0 49 102
1 49 102
2 49 102
3 49 102
0 50 102
1 50 102
2 50 102
3 50 102
0 51 102
1 51 102
2 51 102
3 51 102
0 52 102
1 52 102
2 52 102
3 52 102
0 53 102
1 53 102
2 53 102
3 53 102
0 54 102
1 54 102
2 54 102
3 54 102
0 55 102
1 55 102
2 55 102
3 55 102
0 56 102
1 56 102
2 56 102
3 56 102
0 57 102
1 57 102
2 57 102
3 57 102
0 58 102
1 58 102
2 58 102
3 58 102
0 59 102
1 59 102
2 59 102
3 59 102
0 60 102
1 60 102
2 60 102
3 60 102
0 61 102
1 61 102
2 61 102
3 61 102
0 62 102
1 62 102
2 62 102
3 62 102
0 63 102
1 63 102
2 63 102
3 63 102
0 64 102
1 64 102
2 64 102
3 64 102
0 65 102
1 65 102
2 65 102
3 65 102
0 66 102
1 66 102
2 66 102
3 66 102
0 0 103
1 0 103
2 0 103
3 0 103
0 1 103
1 1 103
2 1 103
3 1 103
0 2 103
1 2 103
2 2 103
3 2 103
0 3 103
1 3 103
2 3 103
3 3 103
0 4 103
1 4 103
2 4 103
3 4 103
0 5 103
1 5 103
2 5 103
3 5 103
0 6 103
1 6 103
2 6 103
3 6 103
0 7 103
1 7 103
2 7 103
3 7 103
0 8 103
1 8 103
2 8 103
3 8 103
0 9 103
1 9 103
2 9 103
3 9 103
0 10 103
1 10 103
2 10 103
3 10 103
0 11 103
1 11 103
2 11 103
3 11 103
0 12 103
1 12 103
2 12 103
3 12 103
0 13 103
1 13 103
2 13 103
3 13 103
0 14 103
1 14 103
2 14 103
3 14 103
0 15 103
1 15 103
2 15 103
3 15 103
0 16 103
1 16 103
2 16 103
3 16 103
0 17 103
1 17 103
2 17 103
3 17 103
0 18 103
1 18 103
2 18 103
3 18 103
0 19 103
1 19 103
2 19 103
3 19 103
0 20 103
1 20 103
2 20 103
3 20 103
0 21 103
1 21 103
2 21 103
3 21 103
0 22 103
1 22 103
2 22 103
3 22 103
0 23 103
1 23 103
2 23 103
3 23 103
0 24 103
1 24 103
2 24 103
3 24 103
0 25 103
1 25 103
2 25 103
3 25 103
0 26 103
1 26 103
2 26 103
3 26 103
0 27 103
1 27 103
2 27 103
3 27 103
0 28 103
1 28 103
2 28 103
3 28 103
0 29 103
1 29 103
2 29 103
3 29 103
0 30 103
1 30 103
2 30 103
3 30 103
0 31 103
1 31 103
2 31 103
3 31 103
0 32 103
1 32 103
2 32 103
3 32 103
0 33 103
1 33 103
2 33 103
3 33 103
0 34 103
1 34 103
2 34 103
3 34 103
0 35 103
1 35 103
2 35 103
3 35 103
0 36 103
1 36 103
2 36 103
3 36 103
0 37 103
1 37 103
2 37 103
3 37 103
0 38 103
1 38 103
2 38 103
3 38 103
0 39 103
1 39 103
2 39 103
3 39 103
0 40 103
1 40 103
2 40 103
3 40 103
0 41 103
1 41 103
2 41 103
3 41 103
0 42 103
1 42 103
2 42 103
3 42 103
0 43 103
1 43 103
2 43 103
3 43 103
0 44 103
1 44 103
2 44 103
3 44 103
0 45 103
1 45 103
2 45 103
3 45 103
0 46 103
1 46 103
2 46 103
3 46 103
0 47 103
1 47 103
2 47 103
3 47 103
0 48 103
1 48 103
2 48 103
3 48 103
0 49 103
1 49 103
2 49 103
3 49 103
0 50 103
1 50 103
2 50 103
3 50 103
0 51 103
1 51 103
2 51 103
3 51 103
0 52 103
1 52 103
2 52 103
3 52 103
0 53 103
1 53 103
2 53 103
3 53 103
0 54 103
1 54 103
2 54 103
3 54 103
0 55 103
1 55 103
2 55 103
3 55 103
0 56 103
1 56 103
2 56 103
3 56 103
0 57 103
1 57 103
2 57 103
3 57 103
0 58 103
1 58 103
2 58 103
3 58 103
0 59 103
1 59 103
2 59 103
3 59 103
0 60 103
1 60 103
2 60 103
3 60 103
0 61 103
1 61 103
2 61 103
3 61 103
0 62 103
1 62 103
2 62 103
3 62 103
0 63 103
1 63 103
2 63 103
3 63 103
0 64 103
1 64 103
2 64 103
3 64 103
0 65 103
1 65 103
2 65 103
3 65 103
0 66 103
1 66 103
2 66 103
3 66 103
0 0 104
1 0 104
2 0 104
3 0 104
0 1 104
1 1 104
2 1 104
3 1 104
0 2 104
1 2 104
2 2 104
3 2 104
0 3 104
1 3 104
2 3 104
3 3 104
0 4 104
1 4 104
2 4 104
3 4 104
0 5 104
1 5 104
2 5 104
3 5 104
0 6 104
1 6 104
2 6 104
3 6 104
0 7 104
1 7 104
2 7 104
3 7 104
0 8 104
1 8 104
2 8 104
3 8 104
0 9 104
1 9 104
2 9 104
3 9 104
0 10 104
1 10 104
2 10 104
3 10 104
0 11 104
1 11 104
2 11 104
3 11 104
0 12 104
1 12 104
2 12 104
3 12 104
0 13 104
1 13 104
2 13 104
3 13 104
0 14 104
1 14 104
2 14 104
3 14 104
0 15 104
1 15 104
2 15 104
3 15 104
0 16 104
1 16 104
2 16 104
3 16 104
0 17 104
1 17 104
2 17 104
3 17 104
0 18 104
1 18 104
2 18 104
3 18 104
0 19 104
1 19 104
2 19 104
3 19 104
0 20 104
1 20 104
2 20 104
3 20 104
0 21 104
1 21 104
2 21 104
3 21 104
0 22 104
1 22 104
2 22 104
3 22 104
0 23 104
1 23 104
2 23 104
3 23 104
0 24 104
1 24 104
2 24 104
3 24 104
0 25 104
1 25 104
2 25 104
3 25 104
0 26 104
1 26 104
2 26 104
3 26 104
0 27 104
1 27 104
2 27 104
3 27 104
0 28 104
1 28 104
2 28 104
3 28 104
0 29 104
1 29 104
2 29 104
3 29 104
0 30 104
1 30 104
2 30 104
3 30 104
0 31 104
1 31 104
2 31 104
3 31 104
0 32 104
1 32 104
2 32 104
3 32 104
0 33 104
1 33 104
2 33 104
3 33 104
0 34 104
1 34 104
2 34 104
3 34 104
0 35 104
1 35 104
2 35 104
3 35 104
0 36 104
1 36 104
2 36 104
3 36 104
0 37 104
1 37 104
2 37 104
3 37 104
0 38 104
1 38 104
2 38 104
3 38 104
0 39 104
1 39 104
2 39 104
3 39 104
0 40 104
1 40 104
2 40 104
3 40 104
0 41 104
1 41 104
2 41 104
3 41 104
0 42 104
1 42 104
2 42 104
3 42 104
0 43 104
1 43 104
2 43 104
3 43 104
0 44 104
1 44 104
2 44 104
3 44 104
0 45 104
1 45 104
2 45 104
3 45 104
0 46 104
1 46 104
2 46 104
3 46 104
0 47 104
1 47 104
2 47 104
3 47 104
0 48 104
1 48 104
2 48 104
3 48 104
0 49 104
1 49 104
2 49 104
3 49 104
0 50 104
1 50 104
2 50 104
3 50 104
0 51 104
1 51 104
2 51 104
3 51 104
0 52 104
1 52 104
2 52 104
3 52 104
0 53 104
1 53 104
2 53 104
3 53 104
0 54 104
1 54 104
2 54 104
3 54 104
0 55 104
1 55 104
2 55 104
3 55 104
0 56 104
1 56 104
2 56 104
3 56 104
0 57 104
1 57 104
2 57 104
3 57 104
0 58 104
1 58 104
2 58 104
3 58 104
0 59 104
1 59 104
2 59 104
3 59 104
0 60 104
1 60 104
2 60 104
3 60 104
0 61 104
1 61 104
2 61 104
3 61 104
0 62 104
1 62 104
2 62 104
3 62 104
0 63 104
1 63 104
2 63 104
3 63 104
0 64 104
1 64 104
2 64 104
3 64 104
0 65 104
1 65 104
2 65 104
3 65 104
0 66 104
1 66 104
2 66 104
3 66 104
0 0 105
1 0 105
2 0 105
3 0 105
0 1 105
1 1 105
2 1 105
3 1 105
0 2 105
1 2 105
2 2 105
3 2 105
0 3 105
1 3 105
2 3 105
3 3 105
0 4 105
1 4 105
2 4 105
3 4 105
0 5 105
1 5 105
2 5 105
3 5 105
0 6 105
1 6 105
2 6 105
3 6 105
0 7 105
1 7 105
2 7 105
3 7 105
0 8 105
1 8 105
2 8 105
3 8 105
0 9 105
1 9 105
2 9 105
3 9 105
0 10 105
1 10 105
2 10 105
3 10 105
0 11 105
1 11 105
2 11 105
3 11 105
0 12 105
1 12 105
2 12 105
3 12 105
0 13 105
1 13 105
2 13 105
3 13 105
0 14 105
1 14 105
2 14 105
3 14 105
0 15 105
1 15 105
2 15 105
3 15 105
0 16 105
1 16 105
2 16 105
3 16 105
0 17 105
1 17 105
2 17 105
3 17 105
0 18 105
1 18 105
2 18 105
3 18 105
0 19 105
1 19 105
2 19 105
3 19 105
0 20 105
1 20 105
2 20 105
3 20 105
0 21 105
1 21 105
2 21 105
3 21 105
0 22 105
1 22 105
2 22 105
3 22 105
0 23 105
1 23 105
2 23 105
3 23 105
0 24 105
1 24 105
2 24 105
3 24 105
0 25 105
1 25 105
2 25 105
3 25 105
0 26 105
1 26 105
2 26 105
3 26 105
0 27 105
1 27 105
2 27 105
3 27 105
0 28 105
1 28 105
2 28 105
3 28 105
0 29 105
1 29 105
2 29 105
3 29 105
0 30 105
1 30 105
2 30 105
3 30 105
0 31 105
1 31 105
2 31 105
3 31 105
0 32 105
1 32 105
2 32 105
3 32 105
0 33 105
1 33 105
2 33 105
3 33 105
0 34 105
1 34 105
2 34 105
3 34 105
0 35 105
1 35 105
2 35 105
3 35 105
0 36 105
1 36 105
2 36 105
3 36 105
0 37 105
1 37 105
2 37 105
3 37 105
0 38 105
1 38 105
2 38 105
3 38 105
0 39 105
1 39 105
2 39 105
3 39 105
0 40 105
1 40 105
2 40 105
3 40 105
0 41 105
1 41 105
2 41 105
3 41 105
0 42 105
1 42 105
2 42 105
3 42 105
0 43 105
1 43 105
2 43 105
3 43 105
0 44 105
1 44 105
2 44 105
3 44 105
0 45 105
1 45 105
2 45 105
3 45 105
0 46 105
1 46 105
2 46 105
3 46 105
0 47 105
1 47 105
2 47 105
3 47 105
0 48 105
1 48 105
2 48 105
3 48 105
0 49 105
1 49 105
2 49 105
3 49 105
0 50 105
1 50 105
2 50 105
3 50 105
0 51 105
1 51 105
2 51 105
3 51 105
0 52 105
1 52 105
2 52 105
3 52 105
0 53 105
1 53 105
2 53 105
3 53 105
0 54 105
1 54 105
2 54 105
3 54 105
0 55 105
1 55 105
2 55 105
3 55 105
0 56 105
1 56 105
2 56 105
3 56 105
0 57 105
1 57 105
2 57 105
3 57 105
0 58 105
1 58 105
2 58 105
3 58 105
0 59 105
1 59 105
2 59 105
3 59 105
0 60 105
1 60 105
2 60 105
3 60 105
0 61 105
1 61 105
2 61 105
3 61 105
0 62 105
1 62 105
2 62 105
3 62 105
0 63 105
1 63 105
2 63 105
3 63 105
0 64 105
1 64 105
2 64 105
3 64 105
0 65 105
1 65 105
2 65 105
3 65 105
0 66 105
1 66 105
2 66 105
3 66 105
0 0 106
1 0 106
2 0 106
3 0 106
0 1 106
1 1 106
2 1 106
3 1 106
0 2 106
1 2 106
2 2 106
3 2 106
0 3 106
1 3 106
2 3 106
3 3 106
0 4 106
1 4 106
2 4 106
3 4 106
0 5 106
1 5 106
2 5 106
3 5 106
0 6 106
1 6 106
2 6 106
3 6 106
0 7 106
1 7 106
2 7 106
3 7 106
0 8 106
1 8 106
2 8 106
3 8 106
0 9 106
1 9 106
2 9 106
3 9 106
0 10 106
1 10 106
2 10 106
3 10 106
0 11 106
1 11 106
2 11 106
3 11 106
0 12 106
1 12 106
2 12 106
3 12 106
0 13 106
1 13 106
2 13 106
3 13 106
0 14 106
1 14 106
2 14 106
3 14 106
0 15 106
1 15 106
2 15 106
3 15 106
0 16 106
1 16 106
2 16 106
3 16 106
0 17 106
1 17 106
2 17 106
3 17 106
0 18 106
1 18 106
2 18 106
3 18 106
0 19 106
1 19 106
2 19 106
3 19 106
0 20 106
1 20 106
2 20 106
3 20 106
0 21 106
1 21 106
2 21 106
3 21 106
0 22 106
1 22 106
2 22 106
3 22 106
0 23 106
1 23 106
2 23 106
3 23 106
0 24 106
1 24 106
2 24 106
3 24 106
0 25 106
1 25 106
2 25 106
3 25 106
0 26 106
1 26 106
2 26 106
3 26 106
0 27 106
1 27 106
2 27 106
3 27 106
0 28 106
1 28 106
2 28 106
3 28 106
0 29 106
1 29 106
2 29 106
3 29 106
0 30 106
1 30 106
2 30 106
3 30 106
0 31 106
1 31 106
2 31 106
3 31 106
0 32 106
1 32 106
2 32 106
3 32 106
0 33 106
1 33 106
2 33 106
3 33 106
0 34 106
1 34 106
2 34 106
3 34 106
0 35 106
1 35 106
2 35 106
3 35 106
0 36 106
1 36 106
2 36 106
3 36 106
0 37 106
1 37 106
2 37 106
3 37 106
0 38 106
1 38 106
2 38 106
3 38 106
0 39 106
1 39 106
2 39 106
3 39 106
0 40 106
1 40 106
2 40 106
3 40 106
0 41 106
1 41 106
2 41 106
3 41 106
0 42 106
1 42 106
2 42 106
3 42 106
0 43 106
1 43 106
2 43 106
3 43 106
0 44 106
1 44 106
2 44 106
3 44 106
0 45 106
1 45 106
2 45 106
3 45 106
0 46 106
1 46 106
2 46 106
3 46 106
0 47 106
1 47 106
2 47 106
3 47 106
0 48 106
1 48 106
2 48 106
3 48 106
0 49 106
1 49 106
2 49 106
3 49 106
0 50 106
1 50 106
2 50 106
3 50 106
0 51 106
1 51 106
2 51 106
3 51 106
0 52 106
1 52 106
2 52 106
3 52 106
0 53 106
1 53 106
2 53 106
3 53 106
0 54 106
1 54 106
2 54 106
3 54 106
0 55 106
1 55 106
2 55 106
3 55 106
0 56 106
1 56 106
2 56 106
3 56 106
0 57 106
1 57 106
2 57 106
3 57 106
0 58 106
1 58 106
2 58 106
3 58 106
0 59 106
1 59 106
2 59 106
3 59 106
0 60 106
1 60 106
2 60 106
3 60 106
0 61 106
1 61 106
2 61 106
3 61 106
0 62 106
1 62 106
2 62 106
3 62 106
0 63 106
1 63 106
2 63 106
3 63 106
0 64 106
1 64 106
2 64 106
3 64 106
0 65 106
1 65 106
2 65 106
3 65 106
0 66 106
1 66 106
2 66 106
3 66 106
0 0 107
1 0 107
2 0 107
3 0 107
0 1 107
1 1 107
2 1 107
3 1 107
0 2 107
1 2 107
2 2 107
3 2 107
0 3 107
1 3 107
2 3 107
3 3 107
0 4 107
1 4 107
2 4 107
3 4 107
0 5 107
1 5 107
2 5 107
3 5 107
0 6 107
1 6 107
2 6 107
3 6 107
0 7 107
1 7 107
2 7 107
3 7 107
0 8 107
1 8 107
2 8 107
3 8 107
0 9 107
1 9 107
2 9 107
3 9 107
0 10 107
1 10 107
2 10 107
3 10 107
0 11 107
1 11 107
2 11 107
3 11 107
0 12 107
1 12 107
2 12 107
3 12 107
0 13 107
1 13 107
2 13 107
3 13 107
0 14 107
1 14 107
2 14 107
3 14 107
0 15 107
1 15 107
2 15 107
3 15 107
0 16 107
1 16 107
2 16 107
3 16 107
0 17 107
1 17 107
2 17 107
3 17 107
0 18 107
1 18 107
2 18 107
3 18 107
0 19 107
1 19 107
2 19 107
3 19 107
0 20 107
1 20 107
2 20 107
3 20 107
0 21 107
1 21 107
2 21 107
3 21 107
0 22 107
1 22 107
2 22 107
3 22 107
0 23 107
1 23 107
2 23 107
3 23 107
0 24 107
1 24 107
2 24 107
3 24 107
0 25 107
1 25 107
2 25 107
3 25 107
0 26 107
1 26 107
2 26 107
3 26 107
0 27 107
1 27 107
2 27 107
3 27 107
0 28 107
1 28 107
2 28 107
3 28 107
0 29 107
1 29 107
2 29 107
3 29 107
0 30 107
1 30 107
2 30 107
3 30 107
0 31 107
1 31 107
2 31 107
3 31 107
0 32 107
1 32 107
2 32 107
3 32 107
0 33 107
1 33 107
2 33 107
3 33 107
0 34 107
1 34 107
2 34 107
3 34 107
0 35 107
1 35 107
2 35 107
3 35 107
0 36 107
1 36 107
2 36 107
3 36 107
0 37 107
1 37 107
2 37 107
3 37 107
0 38 107
1 38 107
2 38 107
3 38 107
0 39 107
1 39 107
2 39 107
3 39 107
0 40 107
1 40 107
2 40 107
3 40 107
0 41 107
1 41 107
2 41 107
3 41 107
0 42 107
1 42 107
2 42 107
3 42 107
0 43 107
1 43 107
2 43 107
3 43 107
0 44 107
1 44 107
2 44 107
3 44 107
0 45 107
1 45 107
2 45 107
3 45 107
0 46 107
1 46 107
2 46 107
3 46 107
0 47 107
1 47 107
2 47 107
3 47 107
0 48 107
1 48 107
2 48 107
3 48 107
0 49 107
1 49 107
2 49 107
3 49 107
0 50 107
1 50 107
2 50 107
3 50 107
0 51 107
1 51 107
2 51 107
3 51 107
0 52 107
1 52 107
2 52 107
3 52 107
0 53 107
1 53 107
2 53 107
3 53 107
0 54 107
1 54 107
2 54 107
3 54 107
0 55 107
1 55 107
2 55 107
3 55 107
0 56 107
1 56 107
2 56 107
3 56 107
0 57 107
1 57 107
2 57 107
3 57 107
0 58 107
1 58 107
2 58 107
3 58 107
0 59 107
1 59 107
2 59 107
3 59 107
0 60 107
1 60 107
2 60 107
3 60 107
0 61 107
1 61 107
2 61 107
3 61 107
0 62 107
1 62 107
2 62 107
3 62 107
0 63 107
1 63 107
2 63 107
3 63 107
0 64 107
1 64 107
2 64 107
3 64 107
0 65 107
1 65 107
2 65 107
3 65 107
0 66 107
1 66 107
2 66 107
3 66 107
0 0 108
1 0 108
2 0 108
3 0 108
0 1 108
1 1 108
2 1 108
3 1 108
0 2 108
1 2 108
2 2 108
3 2 108
0 3 108
1 3 108
2 3 108
3 3 108
0 4 108
1 4 108
2 4 108
3 4 108
0 5 108
1 5 108
2 5 108
3 5 108
0 6 108
1 6 108
2 6 108
3 6 108
0 7 108
1 7 108
2 7 108
3 7 108
0 8 108
1 8 108
2 8 108
3 8 108
0 9 108
1 9 108
2 9 108
3 9 108
0 10 108
1 10 108
2 10 108
3 10 108
0 11 108
1 11 108
2 11 108
3 11 108
0 12 108
1 12 108
2 12 108
3 12 108
0 13 108
1 13 108
2 13 108
3 13 108
0 14 108
1 14 108
2 14 108
3 14 108
0 15 108
1 15 108
2 15 108
3 15 108
0 16 108
1 16 108
2 16 108
3 16 108
0 17 108
1 17 108
2 17 108
3 17 108
0 18 108
1 18 108
2 18 108
3 18 108
0 19 108
1 19 108
2 19 108
3 19 108
0 20 108
1 20 108
2 20 108
3 20 108
0 21 108
1 21 108
2 21 108
3 21 108
0 22 108
1 22 108
2 22 108
3 22 108
0 23 108
1 23 108
2 23 108
3 23 108
0 24 108
1 24 108
2 24 108
3 24 108
0 25 108
1 25 108
2 25 108
3 25 108
0 26 108
1 26 108
2 26 108
3 26 108
0 27 108
1 27 108
2 27 108
3 27 108
0 28 108
1 28 108
2 28 108
3 28 108
0 29 108
1 29 108
2 29 108
3 29 108
0 30 108
1 30 108
2 30 108
3 30 108
0 31 108
1 31 108
2 31 108
3 31 108
0 32 108
1 32 108
2 32 108
3 32 108
0 33 108
1 33 108
2 33 108
3 33 108
0 34 108
1 34 108
2 34 108
3 34 108
0 35 108
1 35 108
2 35 108
3 35 108
0 36 108
1 36 108
2 36 108
3 36 108
0 37 108
1 37 108
2 37 108
3 37 108
0 38 108
1 38 108
2 38 108
3 38 108
0 39 108
1 39 108
2 39 108
3 39 108
0 40 108
1 40 108
2 40 108
3 40 108
0 41 108
1 41 108
2 41 108
3 41 108
0 42 108
1 42 108
2 42 108
3 42 108
0 43 108
1 43 108
2 43 108
3 43 108
0 44 108
1 44 108
2 44 108
3 44 108
0 45 108
1 45 108
2 45 108
3 45 108
0 46 108
1 46 108
2 46 108
3 46 108
0 47 108
1 47 108
2 47 108
3 47 108
0 48 108
1 48 108
2 48 108
3 48 108
0 49 108
1 49 108
2 49 108
3 49 108
0 50 108
1 50 108
2 50 108
3 50 108
0 51 108
1 51 108
2 51 108
3 51 108
0 52 108
1 52 108
2 52 108
3 52 108
0 53 108
1 53 108
2 53 108
3 53 108
0 54 108
1 54 108
2 54 108
3 54 108
0 55 108
1 55 108
2 55 108
3 55 108
0 56 108
1 56 108
2 56 108
3 56 108
0 57 108
1 57 108
2 57 108
3 57 108
0 58 108
1 58 108
2 58 108
3 58 108
0 59 108
1 59 108
2 59 108
3 59 108
0 60 108
1 60 108
2 60 108
3 60 108
0 61 108
1 61 108
2 61 108
3 61 108
0 62 108
1 62 108
2 62 108
3 62 108
0 63 108
1 63 108
2 63 108
3 63 108
0 64 108
1 64 108
2 64 108
3 64 108
0 65 108
1 65 108
2 65 108
3 65 108
0 66 108
1 66 108
2 66 108
3 66 108
0 0 109
1 0 109
2 0 109
3 0 109
0 1 109
1 1 109
2 1 109
3 1 109
0 2 109
1 2 109
2 2 109
3 2 109
0 3 109
1 3 109
2 3 109
3 3 109
0 4 109
1 4 109
2 4 109
3 4 109
0 5 109
1 5 109
2 5 109
3 5 109
0 6 109
1 6 109
2 6 109
3 6 109
0 7 109
1 7 109
2 7 109
3 7 109
0 8 109
1 8 109
2 8 109
3 8 109
0 9 109
1 9 109
2 9 109
3 9 109
0 10 109
1 10 109
2 10 109
3 10 109
0 11 109
1 11 109
2 11 109
3 11 109
0 12 109
1 12 109
2 12 109
3 12 109
0 13 109
1 13 109
2 13 109
3 13 109
0 14 109
1 14 109
2 14 109
3 14 109
0 15 109
1 15 109
2 15 109
3 15 109
0 16 109
1 16 109
2 16 109
3 16 109
0 17 109
1 17 109
2 17 109
3 17 109
0 18 109
1 18 109
2 18 109
3 18 109
0 19 109
1 19 109
2 19 109
3 19 109
0 20 109
1 20 109
2 20 109
3 20 109
0 21 109
1 21 109
2 21 109
3 21 109
0 22 109
1 22 109
2 22 109
3 22 109
0 23 109
1 23 109
2 23 109
3 23 109
0 24 109
1 24 109
2 24 109
3 24 109
0 25 109
1 25 109
2 25 109
3 25 109
0 26 109
1 26 109
2 26 109
3 26 109
0 27 109
1 27 109
2 27 109
3 27 109
0 28 109
1 28 109
2 28 109
3 28 109
0 29 109
1 29 109
2 29 109
3 29 109
0 30 109
1 30 109
2 30 109
3 30 109
0 31 109
1 31 109
2 31 109
3 31 109
0 32 109
1 32 109
2 32 109
3 32 109
0 33 109
1 33 109
2 33 109
3 33 109
0 34 109
1 34 109
2 34 109
3 34 109
0 35 109
1 35 109
2 35 109
3 35 109
0 36 109
1 36 109
2 36 109
3 36 109
0 37 109
1 37 109
2 37 109
3 37 109
0 38 109
1 38 109
2 38 109
3 38 109
0 39 109
1 39 109
2 39 109
3 39 109
0 40 109
1 40 109
2 40 109
3 40 109
0 41 109
1 41 109
2 41 109
3 41 109
0 42 109
1 42 109
2 42 109
3 42 109
0 43 109
1 43 109
2 43 109
3 43 109
0 44 109
1 44 109
2 44 109
3 44 109
0 45 109
1 45 109
2 45 109
3 45 109
0 46 109
1 46 109
2 46 109
3 46 109
0 47 109
1 47 109
2 47 109
3 47 109
0 48 109
1 48 109
2 48 109
3 48 109
0 49 109
1 49 109
2 49 109
3 49 109
0 50 109
1 50 109
2 50 109
3 50 109
0 51 109
1 51 109
2 51 109
3 51 109
0 52 109
1 52 109
2 52 109
3 52 109
0 53 109
1 53 109
2 53 109
3 53 109
0 54 109
1 54 109
2 54 109
3 54 109
0 55 109
1 55 109
2 55 109
3 55 109
0 56 109
1 56 109
2 56 109
3 56 109
0 57 109
1 57 109
2 57 109
3 57 109
0 58 109
1 58 109
2 58 109
3 58 109
0 59 109
1 59 109
2 59 109
3 59 109
0 60 109
1 60 109
2 60 109
3 60 109
0 61 109
1 61 109
2 61 109
3 61 109
0 62 109
1 62 109
2 62 109
3 62 109
0 63 109
1 63 109
2 63 109
3 63 109
0 64 109
1 64 109
2 64 109
3 64 109
0 65 109
1 65 109
2 65 109
3 65 109
0 66 109
1 66 109
2 66 109
3 66 109
0 0 110
1 0 110
2 0 110
3 0 110
0 1 110
1 1 110
2 1 110
3 1 110
0 2 110
1 2 110
2 2 110
3 2 110
0 3 110
1 3 110
2 3 110
3 3 110
0 4 110
1 4 110
2 4 110
3 4 110
0 5 110
1 5 110
2 5 110
3 5 110
0 6 110
1 6 110
2 6 110
3 6 110
0 7 110
1 7 110
2 7 110
3 7 110
0 8 110
1 8 110
2 8 110
3 8 110
0 9 110
1 9 110
2 9 110
3 9 110
0 10 110
1 10 110
2 10 110
3 10 110
0 11 110
1 11 110
2 11 110
3 11 110
0 12 110
1 12 110
2 12 110
3 12 110
0 13 110
1 13 110
2 13 110
3 13 110
0 14 110
1 14 110
2 14 110
3 14 110
0 15 110
1 15 110
2 15 110
3 15 110
0 16 110
1 16 110
2 16 110
3 16 110
0 17 110
1 17 110
2 17 110
3 17 110
0 18 110
1 18 110
2 18 110
3 18 110
0 19 110
1 19 110
2 19 110
3 19 110
0 20 110
1 20 110
2 20 110
3 20 110
0 21 110
1 21 110
2 21 110
3 21 110
0 22 110
1 22 110
2 22 110
3 22 110
0 23 110
1 23 110
2 23 110
3 23 110
0 24 110
1 24 110
2 24 110
3 24 110
0 25 110
1 25 110
2 25 110
3 25 110
0 26 110
1 26 110
2 26 110
3 26 110
0 27 110
1 27 110
2 27 110
3 27 110
0 28 110
1 28 110
2 28 110
3 28 110
0 29 110
1 29 110
2 29 110
3 29 110
0 30 110
1 30 110
2 30 110
3 30 110
0 31 110
1 31 110
2 31 110
3 31 110
0 32 110
1 32 110
2 32 110
3 32 110
0 33 110
1 33 110
2 33 110
3 33 110
0 34 110
1 34 110
2 34 110
3 34 110
0 35 110
1 35 110
2 35 110
3 35 110
0 36 110
1 36 110
2 36 110
3 36 110
0 37 110
1 37 110
2 37 110
3 37 110
0 38 110
1 38 110
2 38 110
3 38 110
0 39 110
1 39 110
2 39 110
3 39 110
0 40 110
1 40 110
2 40 110
3 40 110
0 41 110
1 41 110
2 41 110
3 41 110
0 42 110
1 42 110
2 42 110
3 42 110
0 43 110
1 43 110
2 43 110
3 43 110
0 44 110
1 44 110
2 44 110
3 44 110
0 45 110
1 45 110
2 45 110
3 45 110
0 46 110
1 46 110
2 46 110
3 46 110
0 47 110
1 47 110
2 47 110
3 47 110
0 48 110
1 48 110
2 48 110
3 48 110
0 49 110
1 49 110
2 49 110
3 49 110
0 50 110
1 50 110
2 50 110
3 50 110
0 51 110
1 51 110
2 51 110
3 51 110
0 52 110
1 52 110
2 52 110
3 52 110
0 53 110
1 53 110
2 53 110
3 53 110
0 54 110
1 54 110
2 54 110
3 54 110
0 55 110
1 55 110
2 55 110
3 55 110
0 56 110
1 56 110
2 56 110
3 56 110
0 57 110
1 57 110
2 57 110
3 57 110
0 58 110
1 58 110
2 58 110
3 58 110
0 59 110
1 59 110
2 59 110
3 59 110
0 60 110
1 60 110
2 60 110
3 60 110
0 61 110
1 61 110
2 61 110
3 61 110
0 62 110
1 62 110
2 62 110
3 62 110
0 63 110
1 63 110
2 63 110
3 63 110
0 64 110
1 64 110
2 64 110
3 64 110
0 65 110
1 65 110
2 65 110
3 65 110
0 66 110
1 66 110
2 66 110
3 66 110
0 0 111
1 0 111
2 0 111
3 0 111
0 1 111
1 1 111
2 1 111
3 1 111
0 2 111
1 2 111
2 2 111
3 2 111
0 3 111
1 3 111
2 3 111
3 3 111
0 4 111
1 4 111
2 4 111
3 4 111
0 5 111
1 5 111
2 5 111
3 5 111
0 6 111
1 6 111
2 6 111
3 6 111
0 7 111
1 7 111
2 7 111
3 7 111
0 8 111
1 8 111
2 8 111
3 8 111
0 9 111
1 9 111
2 9 111
3 9 111
0 10 111
1 10 111
2 10 111
3 10 111
0 11 111
1 11 111
2 11 111
3 11 111
0 12 111
1 12 111
2 12 111
3 12 111
0 13 111
1 13 111
2 13 111
3 13 111
0 14 111
1 14 111
2 14 111
3 14 111
0 15 111
1 15 111
2 15 111
3 15 111
0 16 111
1 16 111
2 16 111
3 16 111
0 17 111
1 17 111
2 17 111
3 17 111
0 18 111
1 18 111
2 18 111
3 18 111
0 19 111
1 19 111
2 19 111
3 19 111
0 20 111
1 20 111
2 20 111
3 20 111
0 21 111
1 21 111
2 21 111
3 21 111
0 22 111
1 22 111
2 22 111
3 22 111
0 23 111
1 23 111
2 23 111
3 23 111
0 24 111
1 24 111
2 24 111
3 24 111
0 25 111
1 25 111
2 25 111
3 25 111
0 26 111
1 26 111
2 26 111
3 26 111
0 27 111
1 27 111
2 27 111
3 27 111
0 28 111
1 28 111
2 28 111
3 28 111
0 29 111
1 29 111
2 29 111
3 29 111
0 30 111
1 30 111
2 30 111
3 30 111
0 31 111
1 31 111
2 31 111
3 31 111
0 32 111
1 32 111
2 32 111
3 32 111
0 33 111
1 33 111
2 33 111
3 33 111
0 34 111
1 34 111
2 34 111
3 34 111
0 35 111
1 35 111
2 35 111
3 35 111
0 36 111
1 36 111
2 36 111
3 36 111
0 37 111
1 37 111
2 37 111
3 37 111
0 38 111
1 38 111
2 38 111
3 38 111
0 39 111
1 39 111
2 39 111
3 39 111
0 40 111
1 40 111
2 40 111
3 40 111
0 41 111
1 41 111
2 41 111
3 41 111
0 42 111
1 42 111
2 42 111
3 42 111
0 43 111
1 43 111
2 43 111
3 43 111
0 44 111
1 44 111
2 44 111
3 44 111
0 45 111
1 45 111
2 45 111
3 45 111
0 46 111
1 46 111
2 46 111
3 46 111
0 47 111
1 47 111
2 47 111
3 47 111
0 48 111
1 48 111
2 48 111
3 48 111
0 49 111
1 49 111
2 49 111
3 49 111
0 50 111
1 50 111
2 50 111
3 50 111
0 51 111
1 51 111
2 51 111
3 51 111
0 52 111
1 52 111
2 52 111
3 52 111
0 53 111
1 53 111
2 53 111
3 53 111
0 54 111
1 54 111
2 54 111
3 54 111
0 55 111
1 55 111
2 55 111
3 55 111
0 56 111
1 56 111
2 56 111
3 56 111
0 57 111
1 57 111
2 57 111
3 57 111
0 58 111
1 58 111
2 58 111
3 58 111
0 59 111
1 59 111
2 59 111
3 59 111
0 60 111
1 60 111
2 60 111
3 60 111
0 61 111
1 61 111
2 61 111
3 61 111
0 62 111
1 62 111
2 62 111
3 62 111
0 63 111
1 63 111
2 63 111
3 63 111
0 64 111
1 64 111
2 64 111
3 64 111
0 65 111
1 65 111
2 65 111
3 65 111
0 66 111
1 66 111
2 66 111
3 66 111
0 0 112
1 0 112
2 0 112
3 0 112
0 1 112
1 1 112
2 1 112
3 1 112
0 2 112
1 2 112
2 2 112
3 2 112
0 3 112
1 3 112
2 3 112
3 3 112
0 4 112
1 4 112
2 4 112
3 4 112
0 5 112
1 5 112
2 5 112
3 5 112
0 6 112
1 6 112
2 6 112
3 6 112
0 7 112
1 7 112
2 7 112
3 7 112
0 8 112
1 8 112
2 8 112
3 8 112
0 9 112
1 9 112
2 9 112
3 9 112
0 10 112
1 10 112
2 10 112
3 10 112
0 11 112
1 11 112
2 11 112
3 11 112
0 12 112
1 12 112
2 12 112
3 12 112
0 13 112
1 13 112
2 13 112
3 13 112
0 14 112
1 14 112
2 14 112
3 14 112
0 15 112
1 15 112
2 15 112
3 15 112
0 16 112
1 16 112
2 16 112
3 16 112
0 17 112
1 17 112
2 17 112
3 17 112
0 18 112
1 18 112
2 18 112
3 18 112
0 19 112
1 19 112
2 19 112
3 19 112
0 20 112
1 20 112
2 20 112
3 20 112
0 21 112
1 21 112
2 21 112
3 21 112
0 22 112
1 22 112
2 22 112
3 22 112
0 23 112
1 23 112
2 23 112
3 23 112
0 24 112
1 24 112
2 24 112
3 24 112
0 25 112
1 25 112
2 25 112
3 25 112
0 26 112
1 26 112
2 26 112
3 26 112
0 27 112
1 27 112
2 27 112
3 27 112
0 28 112
1 28 112
2 28 112
3 28 112
0 29 112
1 29 112
2 29 112
3 29 112
0 30 112
1 30 112
2 30 112
3 30 112
0 31 112
1 31 112
2 31 112
3 31 112
0 32 112
1 32 112
2 32 112
3 32 112
0 33 112
1 33 112
2 33 112
3 33 112
0 34 112
1 34 112
2 34 112
3 34 112
0 35 112
1 35 112
2 35 112
3 35 112
0 36 112
1 36 112
2 36 112
3 36 112
0 37 112
1 37 112
2 37 112
3 37 112
0 38 112
1 38 112
2 38 112
3 38 112
0 39 112
1 39 112
2 39 112
3 39 112
0 40 112
1 40 112
2 40 112
3 40 112
0 41 112
1 41 112
2 41 112
3 41 112
0 42 112
1 42 112
2 42 112
3 42 112
0 43 112
1 43 112
2 43 112
3 43 112
0 44 112
1 44 112
2 44 112
3 44 112
0 45 112
1 45 112
2 45 112
3 45 112
0 46 112
1 46 112
2 46 112
3 46 112
0 47 112
1 47 112
2 47 112
3 47 112
0 48 112
1 48 112
2 48 112
3 48 112
0 49 112
1 49 112
2 49 112
3 49 112
0 50 112
1 50 112
2 50 112
3 50 112
0 51 112
1 51 112
2 51 112
3 51 112
0 52 112
1 52 112
2 52 112
3 52 112
0 53 112
1 53 112
2 53 112
3 53 112
0 54 112
1 54 112
2 54 112
3 54 112
0 55 112
1 55 112
2 55 112
3 55 112
0 56 112
1 56 112
2 56 112
3 56 112
0 57 112
1 57 112
2 57 112
3 57 112
0 58 112
1 58 112
2 58 112
3 58 112
0 59 112
1 59 112
2 59 112
3 59 112
0 60 112
1 60 112
2 60 112
3 60 112
0 61 112
1 61 112
2 61 112
3 61 112
0 62 112
1 62 112
2 62 112
3 62 112
0 63 112
1 63 112
2 63 112
3 63 112
0 64 112
1 64 112
2 64 112
3 64 112
0 65 112
1 65 112
2 65 112
3 65 112
0 66 112
1 66 112
2 66 112
3 66 112
0 0 113
1 0 113
2 0 113
3 0 113
0 1 113
1 1 113
2 1 113
3 1 113
0 2 113
1 2 113
2 2 113
3 2 113
0 3 113
1 3 113
2 3 113
3 3 113
0 4 113
1 4 113
2 4 113
3 4 113
0 5 113
1 5 113
2 5 113
3 5 113
0 6 113
1 6 113
2 6 113
3 6 113
0 7 113
1 7 113
2 7 113
3 7 113
0 8 113
1 8 113
2 8 113
3 8 113
0 9 113
1 9 113
2 9 113
3 9 113
0 10 113
1 10 113
2 10 113
3 10 113
0 11 113
1 11 113
2 11 113
3 11 113
0 12 113
1 12 113
2 12 113
3 12 113
0 13 113
1 13 113
2 13 113
3 13 113
0 14 113
1 14 113
2 14 113
3 14 113
0 15 113
1 15 113
2 15 113
3 15 113
0 16 113
1 16 113
2 16 113
3 16 113
0 17 113
1 17 113
2 17 113
3 17 113
0 18 113
1 18 113
2 18 113
3 18 113
0 19 113
1 19 113
2 19 113
3 19 113
0 20 113
1 20 113
2 20 113
3 20 113
0 21 113
1 21 113
2 21 113
3 21 113
0 22 113
1 22 113
2 22 113
3 22 113
0 23 113
1 23 113
2 23 113
3 23 113
0 24 113
1 24 113
2 24 113
3 24 113
0 25 113
1 25 113
2 25 113
3 25 113
0 26 113
1 26 113
2 26 113
3 26 113
0 27 113
1 27 113
2 27 113
3 27 113
0 28 113
1 28 113
2 28 113
3 28 113
0 29 113
1 29 113
2 29 113
3 29 113
0 30 113
1 30 113
2 30 113
3 30 113
0 31 113
1 31 113
2 31 113
3 31 113
0 32 113
1 32 113
2 32 113
3 32 113
0 33 113
1 33 113
2 33 113
3 33 113
0 34 113
1 34 113
2 34 113
3 34 113
0 35 113
1 35 113
2 35 113
3 35 113
0 36 113
1 36 113
2 36 113
3 36 113
0 37 113
1 37 113
2 37 113
3 37 113
0 38 113
1 38 113
2 38 113
3 38 113
0 39 113
1 39 113
2 39 113
3 39 113
0 40 113
1 40 113
2 40 113
3 40 113
0 41 113
1 41 113
2 41 113
3 41 113
0 42 113
1 42 113
2 42 113
3 42 113
0 43 113
1 43 113
2 43 113
3 43 113
0 44 113
1 44 113
2 44 113
3 44 113
0 45 113
1 45 113
2 45 113
3 45 113
0 46 113
1 46 113
2 46 113
3 46 113
0 47 113
1 47 113
2 47 113
3 47 113
0 48 113
1 48 113
2 48 113
3 48 113
0 49 113
1 49 113
2 49 113
3 49 113
0 50 113
1 50 113
2 50 113
3 50 113
0 51 113
1 51 113
2 51 113
3 51 113
0 52 113
1 52 113
2 52 113
3 52 113
0 53 113
1 53 113
2 53 113
3 53 113
0 54 113
1 54 113
2 54 113
3 54 113
0 55 113
1 55 113
2 55 113
3 55 113
0 56 113
1 56 113
2 56 113
3 56 113
0 57 113
1 57 113
2 57 113
3 57 113
0 58 113
1 58 113
2 58 113
3 58 113
0 59 113
1 59 113
2 59 113
3 59 113
0 60 113
1 60 113
2 60 113
3 60 113
0 61 113
1 61 113
2 61 113
3 61 113
0 62 113
1 62 113
2 62 113
3 62 113
0 63 113
1 63 113
2 63 113
3 63 113
0 64 113
1 64 113
2 64 113
3 64 113
0 65 113
1 65 113
2 65 113
3 65 113
0 66 113
1 66 113
2 66 113
3 66 113
0 0 114
1 0 114
2 0 114
3 0 114
0 1 114
1 1 114
2 1 114
3 1 114
0 2 114
1 2 114
2 2 114
3 2 114
0 3 114
1 3 114
2 3 114
3 3 114
0 4 114
1 4 114
2 4 114
3 4 114
0 5 114
1 5 114
2 5 114
3 5 114
0 6 114
1 6 114
2 6 114
3 6 114
0 7 114
1 7 114
2 7 114
3 7 114
0 8 114
1 8 114
2 8 114
3 8 114
0 9 114
1 9 114
2 9 114
3 9 114
0 10 114
1 10 114
2 10 114
3 10 114
0 11 114
1 11 114
2 11 114
3 11 114
0 12 114
1 12 114
2 12 114
3 12 114
0 13 114
1 13 114
2 13 114
3 13 114
0 14 114
1 14 114
2 14 114
3 14 114
0 15 114
1 15 114
2 15 114
3 15 114
0 16 114
1 16 114
2 16 114
3 16 114
0 17 114
1 17 114
2 17 114
3 17 114
0 18 114
1 18 114
2 18 114
3 18 114
0 19 114
1 19 114
2 19 114
3 19 114
0 20 114
1 20 114
2 20 114
3 20 114
0 21 114
1 21 114
2 21 114
3 21 114
0 22 114
1 22 114
2 22 114
3 22 114
0 23 114
1 23 114
2 23 114
3 23 114
0 24 114
1 24 114
2 24 114
3 24 114
0 25 114
1 25 114
2 25 114
3 25 114
0 26 114
1 26 114
2 26 114
3 26 114
0 27 114
1 27 114
2 27 114
3 27 114
0 28 114
1 28 114
2 28 114
3 28 114
0 29 114
1 29 114
2 29 114
3 29 114
0 30 114
1 30 114
2 30 114
3 30 114
0 31 114
1 31 114
2 31 114
3 31 114
0 32 114
1 32 114
2 32 114
3 32 114
0 33 114
1 33 114
2 33 114
3 33 114
0 34 114
1 34 114
2 34 114
3 34 114
0 35 114
1 35 114
2 35 114
3 35 114
0 36 114
1 36 114
2 36 114
3 36 114
0 37 114
1 37 114
2 37 114
3 37 114
0 38 114
1 38 114
2 38 114
3 38 114
0 39 114
1 39 114
2 39 114
3 39 114
0 40 114
1 40 114
2 40 114
3 40 114
0 41 114
1 41 114
2 41 114
3 41 114
0 42 114
1 42 114
2 42 114
3 42 114
0 43 114
1 43 114
2 43 114
3 43 114
0 44 114
1 44 114
2 44 114
3 44 114
0 45 114
1 45 114
2 45 114
3 45 114
0 46 114
1 46 114
2 46 114
3 46 114
0 47 114
1 47 114
2 47 114
3 47 114
0 48 114
1 48 114
2 48 114
3 48 114
0 49 114
1 49 114
2 49 114
3 49 114
0 50 114
1 50 114
2 50 114
3 50 114
0 51 114
1 51 114
2 51 114
3 51 114
0 52 114
1 52 114
2 52 114
3 52 114
0 53 114
1 53 114
2 53 114
3 53 114
0 54 114
1 54 114
2 54 114
3 54 114
0 55 114
1 55 114
2 55 114
3 55 114
0 56 114
1 56 114
2 56 114
3 56 114
0 57 114
1 57 114
2 57 114
3 57 114
0 58 114
1 58 114
2 58 114
3 58 114
0 59 114
1 59 114
2 59 114
3 59 114
0 60 114
1 60 114
2 60 114
3 60 114
0 61 114
1 61 114
2 61 114
3 61 114
0 62 114
1 62 114
2 62 114
3 62 114
0 63 114
1 63 114
2 63 114
3 63 114
0 64 114
1 64 114
2 64 114
3 64 114
0 65 114
1 65 114
2 65 114
3 65 114
0 66 114
1 66 114
2 66 114
3 66 114
0 0 115
1 0 115
2 0 115
3 0 115
0 1 115
1 1 115
2 1 115
3 1 115
0 2 115
1 2 115
2 2 115
3 2 115
0 3 115
1 3 115
2 3 115
3 3 115
0 4 115
1 4 115
2 4 115
3 4 115
0 5 115
1 5 115
2 5 115
3 5 115
0 6 115
1 6 115
2 6 115
3 6 115
0 7 115
1 7 115
2 7 115
3 7 115
0 8 115
1 8 115
2 8 115
3 8 115
0 9 115
1 9 115
2 9 115
3 9 115
0 10 115
1 10 115
2 10 115
3 10 115
0 11 115
1 11 115
2 11 115
3 11 115
0 12 115
1 12 115
2 12 115
3 12 115
0 13 115
1 13 115
2 13 115
3 13 115
0 14 115
1 14 115
2 14 115
3 14 115
0 15 115
1 15 115
2 15 115
3 15 115
0 16 115
1 16 115
2 16 115
3 16 115
0 17 115
1 17 115
2 17 115
3 17 115
0 18 115
1 18 115
2 18 115
3 18 115
0 19 115
1 19 115
2 19 115
3 19 115
0 20 115
1 20 115
2 20 115
3 20 115
0 21 115
1 21 115
2 21 115
3 21 115
0 22 115
1 22 115
2 22 115
3 22 115
0 23 115
1 23 115
2 23 115
3 23 115
0 24 115
1 24 115
2 24 115
3 24 115
0 25 115
1 25 115
2 25 115
3 25 115
0 26 115
1 26 115
2 26 115
3 26 115
0 27 115
1 27 115
2 27 115
3 27 115
0 28 115
1 28 115
2 28 115
3 28 115
0 29 115
1 29 115
2 29 115
3 29 115
0 30 115
1 30 115
2 30 115
3 30 115
0 31 115
1 31 115
2 31 115
3 31 115
0 32 115
1 32 115
2 32 115
3 32 115
0 33 115
1 33 115
2 33 115
3 33 115
0 34 115
1 34 115
2 34 115
3 34 115
0 35 115
1 35 115
2 35 115
3 35 115
0 36 115
1 36 115
2 36 115
3 36 115
0 37 115
1 37 115
2 37 115
3 37 115
0 38 115
1 38 115
2 38 115
3 38 115
0 39 115
1 39 115
2 39 115
3 39 115
0 40 115
1 40 115
2 40 115
3 40 115
0 41 115
1 41 115
2 41 115
3 41 115
0 42 115
1 42 115
2 42 115
3 42 115
0 43 115
1 43 115
2 43 115
3 43 115
0 44 115
1 44 115
2 44 115
3 44 115
0 45 115
1 45 115
2 45 115
3 45 115
0 46 115
1 46 115
2 46 115
3 46 115
0 47 115
1 47 115
2 47 115
3 47 115
0 48 115
1 48 115
2 48 115
3 48 115
0 49 115
1 49 115
2 49 115
3 49 115
0 50 115
1 50 115
2 50 115
3 50 115
0 51 115
1 51 115
2 51 115
3 51 115
0 52 115
1 52 115
2 52 115
3 52 115
0 53 115
1 53 115
2 53 115
3 53 115
0 54 115
1 54 115
2 54 115
3 54 115
0 55 115
1 55 115
2 55 115
3 55 115
0 56 115
1 56 115
2 56 115
3 56 115
0 57 115
1 57 115
2 57 115
3 57 115
0 58 115
1 58 115
2 58 115
3 58 115
0 59 115
1 59 115
2 59 115
3 59 115
0 60 115
1 60 115
2 60 115
3 60 115
0 61 115
1 61 115
2 61 115
3 61 115
0 62 115
1 62 115
2 62 115
3 62 115
0 63 115
1 63 115
2 63 115
3 63 115
0 64 115
1 64 115
2 64 115
3 64 115
0 65 115
1 65 115
2 65 115
3 65 115
0 66 115
1 66 115
2 66 115
3 66 115
0 0 116
1 0 116
2 0 116
3 0 116
0 1 116
1 1 116
2 1 116
3 1 116
0 2 116
1 2 116
2 2 116
3 2 116
0 3 116
1 3 116
2 3 116
3 3 116
0 4 116
1 4 116
2 4 116
3 4 116
0 5 116
1 5 116
2 5 116
3 5 116
0 6 116
1 6 116
2 6 116
3 6 116
0 7 116
1 7 116
2 7 116
3 7 116
0 8 116
1 8 116
2 8 116
3 8 116
0 9 116
1 9 116
2 9 116
3 9 116
0 10 116
1 10 116
2 10 116
3 10 116
0 11 116
1 11 116
2 11 116
3 11 116
0 12 116
1 12 116
2 12 116
3 12 116
0 13 116
1 13 116
2 13 116
3 13 116
0 14 116
1 14 116
2 14 116
3 14 116
0 15 116
1 15 116
2 15 116
3 15 116
0 16 116
1 16 116
2 16 116
3 16 116
0 17 116
1 17 116
2 17 116
3 17 116
0 18 116
1 18 116
2 18 116
3 18 116
0 19 116
1 19 116
2 19 116
3 19 116
0 20 116
1 20 116
2 20 116
3 20 116
0 21 116
1 21 116
2 21 116
3 21 116
0 22 116
1 22 116
2 22 116
3 22 116
0 23 116
1 23 116
2 23 116
3 23 116
0 24 116
1 24 116
2 24 116
3 24 116
0 25 116
1 25 116
2 25 116
3 25 116
0 26 116
1 26 116
2 26 116
3 26 116
0 27 116
1 27 116
2 27 116
3 27 116
0 28 116
1 28 116
2 28 116
3 28 116
0 29 116
1 29 116
2 29 116
3 29 116
0 30 116
1 30 116
2 30 116
3 30 116
0 31 116
1 31 116
2 31 116
3 31 116
0 32 116
1 32 116
2 32 116
3 32 116
0 33 116
1 33 116
2 33 116
3 33 116
0 34 116
1 34 116
2 34 116
3 34 116
0 35 116
1 35 116
2 35 116
3 35 116
0 36 116
1 36 116
2 36 116
3 36 116
0 37 116
1 37 116
2 37 116
3 37 116
0 38 116
1 38 116
2 38 116
3 38 116
0 39 116
1 39 116
2 39 116
3 39 116
0 40 116
1 40 116
2 40 116
3 40 116
0 41 116
1 41 116
2 41 116
3 41 116
0 42 116
1 42 116
2 42 116
3 42 116
0 43 116
1 43 116
2 43 116
3 43 116
0 44 116
1 44 116
2 44 116
3 44 116
0 45 116
1 45 116
2 45 116
3 45 116
0 46 116
1 46 116
2 46 116
3 46 116
0 47 116
1 47 116
2 47 116
3 47 116
0 48 116
1 48 116
2 48 116
3 48 116
0 49 116
1 49 116
2 49 116
3 49 116
0 50 116
1 50 116
2 50 116
3 50 116
0 51 116
1 51 116
2 51 116
3 51 116
0 52 116
1 52 116
2 52 116
3 52 116
0 53 116
1 53 116
2 53 116
3 53 116
0 54 116
1 54 116
2 54 116
3 54 116
0 55 116
1 55 116
2 55 116
3 55 116
0 56 116
1 56 116
2 56 116
3 56 116
0 57 116
1 57 116
2 57 116
3 57 116
0 58 116
1 58 116
2 58 116
3 58 116
0 59 116
1 59 116
2 59 116
3 59 116
0 60 116
1 60 116
2 60 116
3 60 116
0 61 116
1 61 116
2 61 116
3 61 116
0 62 116
1 62 116
2 62 116
3 62 116
0 63 116
1 63 116
2 63 116
3 63 116
0 64 116
1 64 116
2 64 116
3 64 116
0 65 116
1 65 116
2 65 116
3 65 116
0 66 116
1 66 116
2 66 116
3 66 116
0 0 117
1 0 117
2 0 117
3 0 117
0 1 117
1 1 117
2 1 117
3 1 117
0 2 117
1 2 117
2 2 117
3 2 117
0 3 117
1 3 117
2 3 117
3 3 117
0 4 117
1 4 117
2 4 117
3 4 117
0 5 117
1 5 117
2 5 117
3 5 117
0 6 117
1 6 117
2 6 117
3 6 117
0 7 117
1 7 117
2 7 117
3 7 117
0 8 117
1 8 117
2 8 117
3 8 117
0 9 117
1 9 117
2 9 117
3 9 117
0 10 117
1 10 117
2 10 117
3 10 117
0 11 117
1 11 117
2 11 117
3 11 117
0 12 117
1 12 117
2 12 117
3 12 117
0 13 117
1 13 117
2 13 117
3 13 117
0 14 117
1 14 117
2 14 117
3 14 117
0 15 117
1 15 117
2 15 117
3 15 117
0 16 117
1 16 117
2 16 117
3 16 117
0 17 117
1 17 117
2 17 117
3 17 117
0 18 117
1 18 117
2 18 117
3 18 117
0 19 117
1 19 117
2 19 117
3 19 117
0 20 117
1 20 117
2 20 117
3 20 117
0 21 117
1 21 117
2 21 117
3 21 117
0 22 117
1 22 117
2 22 117
3 22 117
0 23 117
1 23 117
2 23 117
3 23 117
0 24 117
1 24 117
2 24 117
3 24 117
0 25 117
1 25 117
2 25 117
3 25 117
0 26 117
1 26 117
2 26 117
3 26 117
0 27 117
1 27 117
2 27 117
3 27 117
0 28 117
1 28 117
2 28 117
3 28 117
0 29 117
1 29 117
2 29 117
3 29 117
0 30 117
1 30 117
2 30 117
3 30 117
0 31 117
1 31 117
2 31 117
3 31 117
0 32 117
1 32 117
2 32 117
3 32 117
0 33 117
1 33 117
2 33 117
3 33 117
0 34 117
1 34 117
2 34 117
3 34 117
0 35 117
1 35 117
2 35 117
3 35 117
0 36 117
1 36 117
2 36 117
3 36 117
0 37 117
1 37 117
2 37 117
3 37 117
0 38 117
1 38 117
2 38 117
3 38 117
0 39 117
1 39 117
2 39 117
3 39 117
0 40 117
1 40 117
2 40 117
3 40 117
0 41 117
1 41 117
2 41 117
3 41 117
0 42 117
1 42 117
2 42 117
3 42 117
0 43 117
1 43 117
2 43 117
3 43 117
0 44 117
1 44 117
2 44 117
3 44 117
0 45 117
1 45 117
2 45 117
3 45 117
0 46 117
1 46 117
2 46 117
3 46 117
0 47 117
1 47 117
2 47 117
3 47 117
0 48 117
1 48 117
2 48 117
3 48 117
0 49 117
1 49 117
2 49 117
3 49 117
0 50 117
1 50 117
2 50 117
3 50 117
0 51 117
1 51 117
2 51 117
3 51 117
0 52 117
1 52 117
2 52 117
3 52 117
0 53 117
1 53 117
2 53 117
3 53 117
0 54 117
1 54 117
2 54 117
3 54 117
0 55 117
1 55 117
2 55 117
3 55 117
0 56 117
1 56 117
2 56 117
3 56 117
0 57 117
1 57 117
2 57 117
3 57 117
0 58 117
1 58 117
2 58 117
3 58 117
0 59 117
1 59 117
2 59 117
3 59 117
0 60 117
1 60 117
2 60 117
3 60 117
0 61 117
1 61 117
2 61 117
3 61 117
0 62 117
1 62 117
2 62 117
3 62 117
0 63 117
1 63 117
2 63 117
3 63 117
0 64 117
1 64 117
2 64 117
3 64 117
0 65 117
1 65 117
2 65 117
3 65 117
0 66 117
1 66 117
2 66 117
3 66 117
0 0 118
1 0 118
2 0 118
3 0 118
0 1 118
1 1 118
2 1 118
3 1 118
0 2 118
1 2 118
2 2 118
3 2 118
0 3 118
1 3 118
2 3 118
3 3 118
0 4 118
1 4 118
2 4 118
3 4 118
0 5 118
1 5 118
2 5 118
3 5 118
0 6 118
1 6 118
2 6 118
3 6 118
0 7 118
1 7 118
2 7 118
3 7 118
0 8 118
1 8 118
2 8 118
3 8 118
0 9 118
1 9 118
2 9 118
3 9 118
0 10 118
1 10 118
2 10 118
3 10 118
0 11 118
1 11 118
2 11 118
3 11 118
0 12 118
1 12 118
2 12 118
3 12 118
0 13 118
1 13 118
2 13 118
3 13 118
0 14 118
1 14 118
2 14 118
3 14 118
0 15 118
1 15 118
2 15 118
3 15 118
0 16 118
1 16 118
2 16 118
3 16 118
0 17 118
1 17 118
2 17 118
3 17 118
0 18 118
1 18 118
2 18 118
3 18 118
0 19 118
1 19 118
2 19 118
3 19 118
0 20 118
1 20 118
2 20 118
3 20 118
0 21 118
1 21 118
2 21 118
3 21 118
0 22 118
1 22 118
2 22 118
3 22 118
0 23 118
1 23 118
2 23 118
3 23 118
0 24 118
1 24 118
2 24 118
3 24 118
0 25 118
1 25 118
2 25 118
3 25 118
0 26 118
1 26 118
2 26 118
3 26 118
0 27 118
1 27 118
2 27 118
3 27 118
0 28 118
1 28 118
2 28 118
3 28 118
0 29 118
1 29 118
2 29 118
3 29 118
0 30 118
1 30 118
2 30 118
3 30 118
0 31 118
1 31 118
2 31 118
3 31 118
0 32 118
1 32 118
2 32 118
3 32 118
0 33 118
1 33 118
2 33 118
3 33 118
0 34 118
1 34 118
2 34 118
3 34 118
0 35 118
1 35 118
2 35 118
3 35 118
0 36 118
1 36 118
2 36 118
3 36 118
0 37 118
1 37 118
2 37 118
3 37 118
0 38 118
1 38 118
2 38 118
3 38 118
0 39 118
1 39 118
2 39 118
3 39 118
0 40 118
1 40 118
2 40 118
3 40 118
0 41 118
1 41 118
2 41 118
3 41 118
0 42 118
1 42 118
2 42 118
3 42 118
0 43 118
1 43 118
2 43 118
3 43 118
0 44 118
1 44 118
2 44 118
3 44 118
0 45 118
1 45 118
2 45 118
3 45 118
0 46 118
1 46 118
2 46 118
3 46 118
0 47 118
1 47 118
2 47 118
3 47 118
0 48 118
1 48 118
2 48 118
3 48 118
0 49 118
1 49 118
2 49 118
3 49 118
0 50 118
1 50 118
2 50 118
3 50 118
0 51 118
1 51 118
2 51 118
3 51 118
0 52 118
1 52 118
2 52 118
3 52 118
0 53 118
1 53 118
2 53 118
3 53 118
0 54 118
1 54 118
2 54 118
3 54 118
0 55 118
1 55 118
2 55 118
3 55 118
0 56 118
1 56 118
2 56 118
3 56 118
0 57 118
1 57 118
2 57 118
3 57 118
0 58 118
1 58 118
2 58 118
3 58 118
0 59 118
1 59 118
2 59 118
3 59 118
0 60 118
1 60 118
2 60 118
3 60 118
0 61 118
1 61 118
2 61 118
3 61 118
0 62 118
1 62 118
2 62 118
3 62 118
0 63 118
1 63 118
2 63 118
3 63 118
0 64 118
1 64 118
2 64 118
3 64 118
0 65 118
1 65 118
2 65 118
3 65 118
0 66 118
1 66 118
2 66 118
3 66 118
0 0 119
1 0 119
2 0 119
3 0 119
0 1 119
1 1 119
2 1 119
3 1 119
0 2 119
1 2 119
2 2 119
3 2 119
0 3 119
1 3 119
2 3 119
3 3 119
0 4 119
1 4 119
2 4 119
3 4 119
0 5 119
1 5 119
2 5 119
3 5 119
0 6 119
1 6 119
2 6 119
3 6 119
0 7 119
1 7 119
2 7 119
3 7 119
0 8 119
1 8 119
2 8 119
3 8 119
0 9 119
1 9 119
2 9 119
3 9 119
0 10 119
1 10 119
2 10 119
3 10 119
0 11 119
1 11 119
2 11 119
3 11 119
0 12 119
1 12 119
2 12 119
3 12 119
0 13 119
1 13 119
2 13 119
3 13 119
0 14 119
1 14 119
2 14 119
3 14 119
0 15 119
1 15 119
2 15 119
3 15 119
0 16 119
1 16 119
2 16 119
3 16 119
0 17 119
1 17 119
2 17 119
3 17 119
0 18 119
1 18 119
2 18 119
3 18 119
0 19 119
1 19 119
2 19 119
3 19 119
0 20 119
1 20 119
2 20 119
3 20 119
0 21 119
1 21 119
2 21 119
3 21 119
0 22 119
1 22 119
2 22 119
3 22 119
0 23 119
1 23 119
2 23 119
3 23 119
0 24 119
1 24 119
2 24 119
3 24 119
0 25 119
1 25 119
2 25 119
3 25 119
0 26 119
1 26 119
2 26 119
3 26 119
0 27 119
1 27 119
2 27 119
3 27 119
0 28 119
1 28 119
2 28 119
3 28 119
0 29 119
1 29 119
2 29 119
3 29 119
0 30 119
1 30 119
2 30 119
3 30 119
0 31 119
1 31 119
2 31 119
3 31 119
0 32 119
1 32 119
2 32 119
3 32 119
0 33 119
1 33 119
2 33 119
3 33 119
0 34 119
1 34 119
2 34 119
3 34 119
0 35 119
1 35 119
2 35 119
3 35 119
0 36 119
1 36 119
2 36 119
3 36 119
0 37 119
1 37 119
2 37 119
3 37 119
0 38 119
1 38 119
2 38 119
3 38 119
0 39 119
1 39 119
2 39 119
3 39 119
0 40 119
1 40 119
2 40 119
3 40 119
0 41 119
1 41 119
2 41 119
3 41 119
0 42 119
1 42 119
2 42 119
3 42 119
0 43 119
1 43 119
2 43 119
3 43 119
0 44 119
1 44 119
2 44 119
3 44 119
0 45 119
1 45 119
2 45 119
3 45 119
0 46 119
1 46 119
2 46 119
3 46 119
0 47 119
1 47 119
2 47 119
3 47 119
0 48 119
1 48 119
2 48 119
3 48 119
0 49 119
1 49 119
2 49 119
3 49 119
0 50 119
1 50 119
2 50 119
3 50 119
0 51 119
1 51 119
2 51 119
3 51 119
0 52 119
1 52 119
2 52 119
3 52 119
0 53 119
1 53 119
2 53 119
3 53 119
0 54 119
1 54 119
2 54 119
3 54 119
0 55 119
1 55 119
2 55 119
3 55 119
0 56 119
1 56 119
2 56 119
3 56 119
0 57 119
1 57 119
2 57 119
3 57 119
0 58 119
1 58 119
2 58 119
3 58 119
0 59 119
1 59 119
2 59 119
3 59 119
0 60 119
1 60 119
2 60 119
3 60 119
0 61 119
1 61 119
2 61 119
3 61 119
0 62 119
1 62 119
2 62 119
3 62 119
0 63 119
1 63 119
2 63 119
3 63 119
0 64 119
1 64 119
2 64 119
3 64 119
0 65 119
1 65 119
2 65 119
3 65 119
0 66 119
1 66 119
2 66 119
3 66 119
0 0 120
1 0 120
2 0 120
3 0 120
0 1 120
1 1 120
2 1 120
3 1 120
0 2 120
1 2 120
2 2 120
3 2 120
0 3 120
1 3 120
2 3 120
3 3 120
0 4 120
1 4 120
2 4 120
3 4 120
0 5 120
1 5 120
2 5 120
3 5 120
0 6 120
1 6 120
2 6 120
3 6 120
0 7 120
1 7 120
2 7 120
3 7 120
0 8 120
1 8 120
2 8 120
3 8 120
0 9 120
1 9 120
2 9 120
3 9 120
0 10 120
1 10 120
2 10 120
3 10 120
0 11 120
1 11 120
2 11 120
3 11 120
0 12 120
1 12 120
2 12 120
3 12 120
0 13 120
1 13 120
2 13 120
3 13 120
0 14 120
1 14 120
2 14 120
3 14 120
0 15 120
1 15 120
2 15 120
3 15 120
0 16 120
1 16 120
2 16 120
3 16 120
0 17 120
1 17 120
2 17 120
3 17 120
0 18 120
1 18 120
2 18 120
3 18 120
0 19 120
1 19 120
2 19 120
3 19 120
0 20 120
1 20 120
2 20 120
3 20 120
0 21 120
1 21 120
2 21 120
3 21 120
0 22 120
1 22 120
2 22 120
3 22 120
0 23 120
1 23 120
2 23 120
3 23 120
0 24 120
1 24 120
2 24 120
3 24 120
0 25 120
1 25 120
2 25 120
3 25 120
0 26 120
1 26 120
2 26 120
3 26 120
0 27 120
1 27 120
2 27 120
3 27 120
0 28 120
1 28 120
2 28 120
3 28 120
0 29 120
1 29 120
2 29 120
3 29 120
0 30 120
1 30 120
2 30 120
3 30 120
0 31 120
1 31 120
2 31 120
3 31 120
0 32 120
1 32 120
2 32 120
3 32 120
0 33 120
1 33 120
2 33 120
3 33 120
0 34 120
1 34 120
2 34 120
3 34 120
0 35 120
1 35 120
2 35 120
3 35 120
0 36 120
1 36 120
2 36 120
3 36 120
0 37 120
1 37 120
2 37 120
3 37 120
0 38 120
1 38 120
2 38 120
3 38 120
0 39 120
1 39 120
2 39 120
3 39 120
0 40 120
1 40 120
2 40 120
3 40 120
0 41 120
1 41 120
2 41 120
3 41 120
0 42 120
1 42 120
2 42 120
3 42 120
0 43 120
1 43 120
2 43 120
3 43 120
0 44 120
1 44 120
2 44 120
3 44 120
0 45 120
1 45 120
2 45 120
3 45 120
0 46 120
1 46 120
2 46 120
3 46 120
0 47 120
1 47 120
2 47 120
3 47 120
0 48 120
1 48 120
2 48 120
3 48 120
0 49 120
1 49 120
2 49 120
3 49 120
0 50 120
1 50 120
2 50 120
3 50 120
0 51 120
1 51 120
2 51 120
3 51 120
0 52 120
1 52 120
2 52 120
3 52 120
0 53 120
1 53 120
2 53 120
3 53 120
0 54 120
1 54 120
2 54 120
3 54 120
0 55 120
1 55 120
2 55 120
3 55 120
0 56 120
1 56 120
2 56 120
3 56 120
0 57 120
1 57 120
2 57 120
3 57 120
0 58 120
1 58 120
2 58 120
3 58 120
0 59 120
1 59 120
2 59 120
3 59 120
0 60 120
1 60 120
2 60 120
3 60 120
0 61 120
1 61 120
2 61 120
3 61 120
0 62 120
1 62 120
2 62 120
3 62 120
0 63 120
1 63 120
2 63 120
3 63 120
0 64 120
1 64 120
2 64 120
3 64 120
0 65 120
1 65 120
2 65 120
3 65 120
0 66 120
1 66 120
2 66 120
3 66 120
0 0 121
1 0 121
2 0 121
3 0 121
0 1 121
1 1 121
2 1 121
3 1 121
0 2 121
1 2 121
2 2 121
3 2 121
0 3 121
1 3 121
2 3 121
3 3 121
0 4 121
1 4 121
2 4 121
3 4 121
0 5 121
1 5 121
2 5 121
3 5 121
0 6 121
1 6 121
2 6 121
3 6 121
0 7 121
1 7 121
2 7 121
3 7 121
0 8 121
1 8 121
2 8 121
3 8 121
0 9 121
1 9 121
2 9 121
3 9 121
0 10 121
1 10 121
2 10 121
3 10 121
0 11 121
1 11 121
2 11 121
3 11 121
0 12 121
1 12 121
2 12 121
3 12 121
0 13 121
1 13 121
2 13 121
3 13 121
0 14 121
1 14 121
2 14 121
3 14 121
0 15 121
1 15 121
2 15 121
3 15 121
0 16 121
1 16 121
2 16 121
3 16 121
0 17 121
1 17 121
2 17 121
3 17 121
0 18 121
1 18 121
2 18 121
3 18 121
0 19 121
1 19 121
2 19 121
3 19 121
0 20 121
1 20 121
2 20 121
3 20 121
0 21 121
1 21 121
2 21 121
3 21 121
0 22 121
1 22 121
2 22 121
3 22 121
0 23 121
1 23 121
2 23 121
3 23 121
0 24 121
1 24 121
2 24 121
3 24 121
0 25 121
1 25 121
2 25 121
3 25 121
0 26 121
1 26 121
2 26 121
3 26 121
0 27 121
1 27 121
2 27 121
3 27 121
0 28 121
1 28 121
2 28 121
3 28 121
0 29 121
1 29 121
2 29 121
3 29 121
0 30 121
1 30 121
2 30 121
3 30 121
0 31 121
1 31 121
2 31 121
3 31 121
0 32 121
1 32 121
2 32 121
3 32 121
0 33 121
1 33 121
2 33 121
3 33 121
0 34 121
1 34 121
2 34 121
3 34 121
0 35 121
1 35 121
2 35 121
3 35 121
0 36 121
1 36 121
2 36 121
3 36 121
0 37 121
1 37 121
2 37 121
3 37 121
0 38 121
1 38 121
2 38 121
3 38 121
0 39 121
1 39 121
2 39 121
3 39 121
0 40 121
1 40 121
2 40 121
3 40 121
0 41 121
1 41 121
2 41 121
3 41 121
0 42 121
1 42 121
2 42 121
3 42 121
0 43 121
1 43 121
2 43 121
3 43 121
0 44 121
1 44 121
2 44 121
3 44 121
0 45 121
1 45 121
2 45 121
3 45 121
0 46 121
1 46 121
2 46 121
3 46 121
0 47 121
1 47 121
2 47 121
3 47 121
0 48 121
1 48 121
2 48 121
3 48 121
0 49 121
1 49 121
2 49 121
3 49 121
0 50 121
1 50 121
2 50 121
3 50 121
0 51 121
1 51 121
2 51 121
3 51 121
0 52 121
1 52 121
2 52 121
3 52 121
0 53 121
1 53 121
2 53 121
3 53 121
0 54 121
1 54 121
2 54 121
3 54 121
0 55 121
1 55 121
2 55 121
3 55 121
0 56 121
1 56 121
2 56 121
3 56 121
0 57 121
1 57 121
2 57 121
3 57 121
0 58 121
1 58 121
2 58 121
3 58 121
0 59 121
1 59 121
2 59 121
3 59 121
0 60 121
1 60 121
2 60 121
3 60 121
0 61 121
1 61 121
2 61 121
3 61 121
0 62 121
1 62 121
2 62 121
3 62 121
0 63 121
1 63 121
2 63 121
3 63 121
0 64 121
1 64 121
2 64 121
3 64 121
0 65 121
1 65 121
2 65 121
3 65 121
0 66 121
1 66 121
2 66 121
3 66 121
0 0 122
1 0 122
2 0 122
3 0 122
0 1 122
1 1 122
2 1 122
3 1 122
0 2 122
1 2 122
2 2 122
3 2 122
0 3 122
1 3 122
2 3 122
3 3 122
0 4 122
1 4 122
2 4 122
3 4 122
0 5 122
1 5 122
2 5 122
3 5 122
0 6 122
1 6 122
2 6 122
3 6 122
0 7 122
1 7 122
2 7 122
3 7 122
0 8 122
1 8 122
2 8 122
3 8 122
0 9 122
1 9 122
2 9 122
3 9 122
0 10 122
1 10 122
2 10 122
3 10 122
0 11 122
1 11 122
2 11 122
3 11 122
0 12 122
1 12 122
2 12 122
3 12 122
0 13 122
1 13 122
2 13 122
3 13 122
0 14 122
1 14 122
2 14 122
3 14 122
0 15 122
1 15 122
2 15 122
3 15 122
0 16 122
1 16 122
2 16 122
3 16 122
0 17 122
1 17 122
2 17 122
3 17 122
0 18 122
1 18 122
2 18 122
3 18 122
0 19 122
1 19 122
2 19 122
3 19 122
0 20 122
1 20 122
2 20 122
3 20 122
0 21 122
1 21 122
2 21 122
3 21 122
0 22 122
1 22 122
2 22 122
3 22 122
0 23 122
1 23 122
2 23 122
3 23 122
0 24 122
1 24 122
2 24 122
3 24 122
0 25 122
1 25 122
2 25 122
3 25 122
0 26 122
1 26 122
2 26 122
3 26 122
0 27 122
1 27 122
2 27 122
3 27 122
0 28 122
1 28 122
2 28 122
3 28 122
0 29 122
1 29 122
2 29 122
3 29 122
0 30 122
1 30 122
2 30 122
3 30 122
0 31 122
1 31 122
2 31 122
3 31 122
0 32 122
1 32 122
2 32 122
3 32 122
0 33 122
1 33 122
2 33 122
3 33 122
0 34 122
1 34 122
2 34 122
3 34 122
0 35 122
1 35 122
2 35 122
3 35 122
0 36 122
1 36 122
2 36 122
3 36 122
0 37 122
1 37 122
2 37 122
3 37 122
0 38 122
1 38 122
2 38 122
3 38 122
0 39 122
1 39 122
2 39 122
3 39 122
0 40 122
1 40 122
2 40 122
3 40 122
0 41 122
1 41 122
2 41 122
3 41 122
0 42 122
1 42 122
2 42 122
3 42 122
0 43 122
1 43 122
2 43 122
3 43 122
0 44 122
1 44 122
2 44 122
3 44 122
0 45 122
1 45 122
2 45 122
3 45 122
0 46 122
1 46 122
2 46 122
3 46 122
0 47 122
1 47 122
2 47 122
3 47 122
0 48 122
1 48 122
2 48 122
3 48 122
0 49 122
1 49 122
2 49 122
3 49 122
0 50 122
1 50 122
2 50 122
3 50 122
0 51 122
1 51 122
2 51 122
3 51 122
0 52 122
1 52 122
2 52 122
3 52 122
0 53 122
1 53 122
2 53 122
3 53 122
0 54 122
1 54 122
2 54 122
3 54 122
0 55 122
1 55 122
2 55 122
3 55 122
0 56 122
1 56 122
2 56 122
3 56 122
0 57 122
1 57 122
2 57 122
3 57 122
0 58 122
1 58 122
2 58 122
3 58 122
0 59 122
1 59 122
2 59 122
3 59 122
0 60 122
1 60 122
2 60 122
3 60 122
0 61 122
1 61 122
2 61 122
3 61 122
0 62 122
1 62 122
2 62 122
3 62 122
0 63 122
1 63 122
2 63 122
3 63 122
0 64 122
1 64 122
2 64 122
3 64 122
0 65 122
1 65 122
2 65 122
3 65 122
0 66 122
1 66 122
2 66 122
3 66 122
0 0 123
1 0 123
2 0 123
3 0 123
0 1 123
1 1 123
2 1 123
3 1 123
0 2 123
1 2 123
2 2 123
3 2 123
0 3 123
1 3 123
2 3 123
3 3 123
0 4 123
1 4 123
2 4 123
3 4 123
0 5 123
1 5 123
2 5 123
3 5 123
0 6 123
1 6 123
2 6 123
3 6 123
0 7 123
1 7 123
2 7 123
3 7 123
0 8 123
1 8 123
2 8 123
3 8 123
0 9 123
1 9 123
2 9 123
3 9 123
0 10 123
1 10 123
2 10 123
3 10 123
0 11 123
1 11 123
2 11 123
3 11 123
0 12 123
1 12 123
2 12 123
3 12 123
0 13 123
1 13 123
2 13 123
3 13 123
0 14 123
1 14 123
2 14 123
3 14 123
0 15 123
1 15 123
2 15 123
3 15 123
0 16 123
1 16 123
2 16 123
3 16 123
0 17 123
1 17 123
2 17 123
3 17 123
0 18 123
1 18 123
2 18 123
3 18 123
0 19 123
1 19 123
2 19 123
3 19 123
0 20 123
1 20 123
2 20 123
3 20 123
0 21 123
1 21 123
2 21 123
3 21 123
0 22 123
1 22 123
2 22 123
3 22 123
0 23 123
1 23 123
2 23 123
3 23 123
0 24 123
1 24 123
2 24 123
3 24 123
0 25 123
1 25 123
2 25 123
3 25 123
0 26 123
1 26 123
2 26 123
3 26 123
0 27 123
1 27 123
2 27 123
3 27 123
0 28 123
1 28 123
2 28 123
3 28 123
0 29 123
1 29 123
2 29 123
3 29 123
0 30 123
1 30 123
2 30 123
3 30 123
0 31 123
1 31 123
2 31 123
3 31 123
0 32 123
1 32 123
2 32 123
3 32 123
0 33 123
1 33 123
2 33 123
3 33 123
0 34 123
1 34 123
2 34 123
3 34 123
0 35 123
1 35 123
2 35 123
3 35 123
0 36 123
1 36 123
2 36 123
3 36 123
0 37 123
1 37 123
2 37 123
3 37 123
0 38 123
1 38 123
2 38 123
3 38 123
0 39 123
1 39 123
2 39 123
3 39 123
0 40 123
1 40 123
2 40 123
3 40 123
0 41 123
1 41 123
2 41 123
3 41 123
0 42 123
1 42 123
2 42 123
3 42 123
0 43 123
1 43 123
2 43 123
3 43 123
0 44 123
1 44 123
2 44 123
3 44 123
0 45 123
1 45 123
2 45 123
3 45 123
0 46 123
1 46 123
2 46 123
3 46 123
0 47 123
1 47 123
2 47 123
3 47 123
0 48 123
1 48 123
2 48 123
3 48 123
0 49 123
1 49 123
2 49 123
3 49 123
0 50 123
1 50 123
2 50 123
3 50 123
0 51 123
1 51 123
2 51 123
3 51 123
0 52 123
1 52 123
2 52 123
3 52 123
0 53 123
1 53 123
2 53 123
3 53 123
0 54 123
1 54 123
2 54 123
3 54 123
0 55 123
1 55 123
2 55 123
3 55 123
0 56 123
1 56 123
2 56 123
3 56 123
0 57 123
1 57 123
2 57 123
3 57 123
0 58 123
1 58 123
2 58 123
3 58 123
0 59 123
1 59 123
2 59 123
3 59 123
0 60 123
1 60 123
2 60 123
3 60 123
0 61 123
1 61 123
2 61 123
3 61 123
0 62 123
1 62 123
2 62 123
3 62 123
0 63 123
1 63 123
2 63 123
3 63 123
0 64 123
1 64 123
2 64 123
3 64 123
0 65 123
1 65 123
2 65 123
3 65 123
0 66 123
1 66 123
2 66 123
3 66 123
0 0 124
1 0 124
2 0 124
3 0 124
0 1 124
1 1 124
2 1 124
3 1 124
0 2 124
1 2 124
2 2 124
3 2 124
0 3 124
1 3 124
2 3 124
3 3 124
0 4 124
1 4 124
2 4 124
3 4 124
0 5 124
1 5 124
2 5 124
3 5 124
0 6 124
1 6 124
2 6 124
3 6 124
0 7 124
1 7 124
2 7 124
3 7 124
0 8 124
1 8 124
2 8 124
3 8 124
0 9 124
1 9 124
2 9 124
3 9 124
0 10 124
1 10 124
2 10 124
3 10 124
0 11 124
1 11 124
2 11 124
3 11 124
0 12 124
1 12 124
2 12 124
3 12 124
0 13 124
1 13 124
2 13 124
3 13 124
0 14 124
1 14 124
2 14 124
3 14 124
0 15 124
1 15 124
2 15 124
3 15 124
0 16 124
1 16 124
2 16 124
3 16 124
0 17 124
1 17 124
2 17 124
3 17 124
0 18 124
1 18 124
2 18 124
3 18 124
0 19 124
1 19 124
2 19 124
3 19 124
0 20 124
1 20 124
2 20 124
3 20 124
0 21 124
1 21 124
2 21 124
3 21 124
0 22 124
1 22 124
2 22 124
3 22 124
0 23 124
1 23 124
2 23 124
3 23 124
0 24 124
1 24 124
2 24 124
3 24 124
0 25 124
1 25 124
2 25 124
3 25 124
0 26 124
1 26 124
2 26 124
3 26 124
0 27 124
1 27 124
2 27 124
3 27 124
0 28 124
1 28 124
2 28 124
3 28 124
0 29 124
1 29 124
2 29 124
3 29 124
0 30 124
1 30 124
2 30 124
3 30 124
0 31 124
1 31 124
2 31 124
3 31 124
0 32 124
1 32 124
2 32 124
3 32 124
0 33 124
1 33 124
2 33 124
3 33 124
0 34 124
1 34 124
2 34 124
3 34 124
0 35 124
1 35 124
2 35 124
3 35 124
0 36 124
1 36 124
2 36 124
3 36 124
0 37 124
1 37 124
2 37 124
3 37 124
0 38 124
1 38 124
2 38 124
3 38 124
0 39 124
1 39 124
2 39 124
3 39 124
0 40 124
1 40 124
2 40 124
3 40 124
0 41 124
1 41 124
2 41 124
3 41 124
0 42 124
1 42 124
2 42 124
3 42 124
0 43 124
1 43 124
2 43 124
3 43 124
0 44 124
1 44 124
2 44 124
3 44 124
0 45 124
1 45 124
2 45 124
3 45 124
0 46 124
1 46 124
2 46 124
3 46 124
0 47 124
1 47 124
2 47 124
3 47 124
0 48 124
1 48 124
2 48 124
3 48 124
0 49 124
1 49 124
2 49 124
3 49 124
0 50 124
1 50 124
2 50 124
3 50 124
0 51 124
1 51 124
2 51 124
3 51 124
0 52 124
1 52 124
2 52 124
3 52 124
0 53 124
1 53 124
2 53 124
3 53 124
0 54 124
1 54 124
2 54 124
3 54 124
0 55 124
1 55 124
2 55 124
3 55 124
0 56 124
1 56 124
2 56 124
3 56 124
0 57 124
1 57 124
2 57 124
3 57 124
0 58 124
1 58 124
2 58 124
3 58 124
0 59 124
1 59 124
2 59 124
3 59 124
0 60 124
1 60 124
2 60 124
3 60 124
0 61 124
1 61 124
2 61 124
3 61 124
0 62 124
1 62 124
2 62 124
3 62 124
0 63 124
1 63 124
2 63 124
3 63 124
0 64 124
1 64 124
2 64 124
3 64 124
0 65 124
1 65 124
2 65 124
3 65 124
0 66 124
1 66 124
2 66 124
3 66 124
0 0 125
1 0 125
2 0 125
3 0 125
0 1 125
1 1 125
2 1 125
3 1 125
0 2 125
1 2 125
2 2 125
3 2 125
0 3 125
1 3 125
2 3 125
3 3 125
0 4 125
1 4 125
2 4 125
3 4 125
0 5 125
1 5 125
2 5 125
3 5 125
0 6 125
1 6 125
2 6 125
3 6 125
0 7 125
1 7 125
2 7 125
3 7 125
0 8 125
1 8 125
2 8 125
3 8 125
0 9 125
1 9 125
2 9 125
3 9 125
0 10 125
1 10 125
2 10 125
3 10 125
0 11 125
1 11 125
2 11 125
3 11 125
0 12 125
1 12 125
2 12 125
3 12 125
0 13 125
1 13 125
2 13 125
3 13 125
0 14 125
1 14 125
2 14 125
3 14 125
0 15 125
1 15 125
2 15 125
3 15 125
0 16 125
1 16 125
2 16 125
3 16 125
0 17 125
1 17 125
2 17 125
3 17 125
0 18 125
1 18 125
2 18 125
3 18 125
0 19 125
1 19 125
2 19 125
3 19 125
0 20 125
1 20 125
2 20 125
3 20 125
0 21 125
1 21 125
2 21 125
3 21 125
0 22 125
1 22 125
2 22 125
3 22 125
0 23 125
1 23 125
2 23 125
3 23 125
0 24 125
1 24 125
2 24 125
3 24 125
0 25 125
1 25 125
2 25 125
3 25 125
0 26 125
1 26 125
2 26 125
3 26 125
0 27 125
1 27 125
2 27 125
3 27 125
0 28 125
1 28 125
2 28 125
3 28 125
0 29 125
1 29 125
2 29 125
3 29 125
0 30 125
1 30 125
2 30 125
3 30 125
0 31 125
1 31 125
2 31 125
3 31 125
0 32 125
1 32 125
2 32 125
3 32 125
0 33 125
1 33 125
2 33 125
3 33 125
0 34 125
1 34 125
2 34 125
3 34 125
0 35 125
1 35 125
2 35 125
3 35 125
0 36 125
1 36 125
2 36 125
3 36 125
0 37 125
1 37 125
2 37 125
3 37 125
0 38 125
1 38 125
2 38 125
3 38 125
0 39 125
1 39 125
2 39 125
3 39 125
0 40 125
1 40 125
2 40 125
3 40 125
0 41 125
1 41 125
2 41 125
3 41 125
0 42 125
1 42 125
2 42 125
3 42 125
0 43 125
1 43 125
2 43 125
3 43 125
0 44 125
1 44 125
2 44 125
3 44 125
0 45 125
1 45 125
2 45 125
3 45 125
0 46 125
1 46 125
2 46 125
3 46 125
0 47 125
1 47 125
2 47 125
3 47 125
0 48 125
1 48 125
2 48 125
3 48 125
0 49 125
1 49 125
2 49 125
3 49 125
0 50 125
1 50 125
2 50 125
3 50 125
0 51 125
1 51 125
2 51 125
3 51 125
0 52 125
1 52 125
2 52 125
3 52 125
0 53 125
1 53 125
2 53 125
3 53 125
0 54 125
1 54 125
2 54 125
3 54 125
0 55 125
1 55 125
2 55 125
3 55 125
0 56 125
1 56 125
2 56 125
3 56 125
0 57 125
1 57 125
2 57 125
3 57 125
0 58 125
1 58 125
2 58 125
3 58 125
0 59 125
1 59 125
2 59 125
3 59 125
0 60 125
1 60 125
2 60 125
3 60 125
0 61 125
1 61 125
2 61 125
3 61 125
0 62 125
1 62 125
2 62 125
3 62 125
0 63 125
1 63 125
2 63 125
3 63 125
0 64 125
1 64 125
2 64 125
3 64 125
0 65 125
1 65 125
2 65 125
3 65 125
0 66 125
1 66 125
2 66 125
3 66 125
0 0 126
1 0 126
2 0 126
3 0 126
0 1 126
1 1 126
2 1 126
3 1 126
0 2 126
1 2 126
2 2 126
3 2 126
0 3 126
1 3 126
2 3 126
3 3 126
0 4 126
1 4 126
2 4 126
3 4 126
0 5 126
1 5 126
2 5 126
3 5 126
0 6 126
1 6 126
2 6 126
3 6 126
0 7 126
1 7 126
2 7 126
3 7 126
0 8 126
1 8 126
2 8 126
3 8 126
0 9 126
1 9 126
2 9 126
3 9 126
0 10 126
1 10 126
2 10 126
3 10 126
0 11 126
1 11 126
2 11 126
3 11 126
0 12 126
1 12 126
2 12 126
3 12 126
0 13 126
1 13 126
2 13 126
3 13 126
0 14 126
1 14 126
2 14 126
3 14 126
0 15 126
1 15 126
2 15 126
3 15 126
0 16 126
1 16 126
2 16 126
3 16 126
0 17 126
1 17 126
2 17 126
3 17 126
0 18 126
1 18 126
2 18 126
3 18 126
0 19 126
1 19 126
2 19 126
3 19 126
0 20 126
1 20 126
2 20 126
3 20 126
0 21 126
1 21 126
2 21 126
3 21 126
0 22 126
1 22 126
2 22 126
3 22 126
0 23 126
1 23 126
2 23 126
3 23 126
0 24 126
1 24 126
2 24 126
3 24 126
0 25 126
1 25 126
2 25 126
3 25 126
0 26 126
1 26 126
2 26 126
3 26 126
0 27 126
1 27 126
2 27 126
3 27 126
0 28 126
1 28 126
2 28 126
3 28 126
0 29 126
1 29 126
2 29 126
3 29 126
0 30 126
1 30 126
2 30 126
3 30 126
0 31 126
1 31 126
2 31 126
3 31 126
0 32 126
1 32 126
2 32 126
3 32 126
0 33 126
1 33 126
2 33 126
3 33 126
0 34 126
1 34 126
2 34 126
3 34 126
0 35 126
1 35 126
2 35 126
3 35 126
0 36 126
1 36 126
2 36 126
3 36 126
0 37 126
1 37 126
2 37 126
3 37 126
0 38 126
1 38 126
2 38 126
3 38 126
0 39 126
1 39 126
2 39 126
3 39 126
0 40 126
1 40 126
2 40 126
3 40 126
0 41 126
1 41 126
2 41 126
3 41 126
0 42 126
1 42 126
2 42 126
3 42 126
0 43 126
1 43 126
2 43 126
3 43 126
0 44 126
1 44 126
2 44 126
3 44 126
0 45 126
1 45 126
2 45 126
3 45 126
0 46 126
1 46 126
2 46 126
3 46 126
0 47 126
1 47 126
2 47 126
3 47 126
0 48 126
1 48 126
2 48 126
3 48 126
0 49 126
1 49 126
2 49 126
3 49 126
0 50 126
1 50 126
2 50 126
3 50 126
0 51 126
1 51 126
2 51 126
3 51 126
0 52 126
1 52 126
2 52 126
3 52 126
0 53 126
1 53 126
2 53 126
3 53 126
0 54 126
1 54 126
2 54 126
3 54 126
0 55 126
1 55 126
2 55 126
3 55 126
0 56 126
1 56 126
2 56 126
3 56 126
0 57 126
1 57 126
2 57 126
3 57 126
0 58 126
1 58 126
2 58 126
3 58 126
0 59 126
1 59 126
2 59 126
3 59 126
0 60 126
1 60 126
2 60 126
3 60 126
0 61 126
1 61 126
2 61 126
3 61 126
0 62 126
1 62 126
2 62 126
3 62 126
0 63 126
1 63 126
2 63 126
3 63 126
0 64 126
1 64 126
2 64 126
3 64 126
0 65 126
1 65 126
2 65 126
3 65 126
0 66 126
1 66 126
2 66 126
3 66 126
0 0 127
1 0 127
2 0 127
3 0 127
0 1 127
1 1 127
2 1 127
3 1 127
0 2 127
1 2 127
2 2 127
3 2 127
0 3 127
1 3 127
2 3 127
3 3 127
0 4 127
1 4 127
2 4 127
3 4 127
0 5 127
1 5 127
2 5 127
3 5 127
0 6 127
1 6 127
2 6 127
3 6 127
0 7 127
1 7 127
2 7 127
3 7 127
0 8 127
1 8 127
2 8 127
3 8 127
0 9 127
1 9 127
2 9 127
3 9 127
0 10 127
1 10 127
2 10 127
3 10 127
0 11 127
1 11 127
2 11 127
3 11 127
0 12 127
1 12 127
2 12 127
3 12 127
0 13 127
1 13 127
2 13 127
3 13 127
0 14 127
1 14 127
2 14 127
3 14 127
0 15 127
1 15 127
2 15 127
3 15 127
0 16 127
1 16 127
2 16 127
3 16 127
0 17 127
1 17 127
2 17 127
3 17 127
0 18 127
1 18 127
2 18 127
3 18 127
0 19 127
1 19 127
2 19 127
3 19 127
0 20 127
1 20 127
2 20 127
3 20 127
0 21 127
1 21 127
2 21 127
3 21 127
0 22 127
1 22 127
2 22 127
3 22 127
0 23 127
1 23 127
2 23 127
3 23 127
0 24 127
1 24 127
2 24 127
3 24 127
0 25 127
1 25 127
2 25 127
3 25 127
0 26 127
1 26 127
2 26 127
3 26 127
0 27 127
1 27 127
2 27 127
3 27 127
0 28 127
1 28 127
2 28 127
3 28 127
0 29 127
1 29 127
2 29 127
3 29 127
0 30 127
1 30 127
2 30 127
3 30 127
0 31 127
1 31 127
2 31 127
3 31 127
0 32 127
1 32 127
2 32 127
3 32 127
0 33 127
1 33 127
2 33 127
3 33 127
0 34 127
1 34 127
2 34 127
3 34 127
0 35 127
1 35 127
2 35 127
3 35 127
0 36 127
1 36 127
2 36 127
3 36 127
0 37 127
1 37 127
2 37 127
3 37 127
0 38 127
1 38 127
2 38 127
3 38 127
0 39 127
1 39 127
2 39 127
3 39 127
0 40 127
1 40 127
2 40 127
3 40 127
0 41 127
1 41 127
2 41 127
3 41 127
0 42 127
1 42 127
2 42 127
3 42 127
0 43 127
1 43 127
2 43 127
3 43 127
0 44 127
1 44 127
2 44 127
3 44 127
0 45 127
1 45 127
2 45 127
3 45 127
0 46 127
1 46 127
2 46 127
3 46 127
0 47 127
1 47 127
2 47 127
3 47 127
0 48 127
1 48 127
2 48 127
3 48 127
0 49 127
1 49 127
2 49 127
3 49 127
0 50 127
1 50 127
2 50 127
3 50 127
0 51 127
1 51 127
2 51 127
3 51 127
0 52 127
1 52 127
2 52 127
3 52 127
0 53 127
1 53 127
2 53 127
3 53 127
0 54 127
1 54 127
2 54 127
3 54 127
0 55 127
1 55 127
2 55 127
3 55 127
0 56 127
1 56 127
2 56 127
3 56 127
0 57 127
1 57 127
2 57 127
3 57 127
0 58 127
1 58 127
2 58 127
3 58 127
0 59 127
1 59 127
2 59 127
3 59 127
0 60 127
1 60 127
2 60 127
3 60 127
0 61 127
1 61 127
2 61 127
3 61 127
0 62 127
1 62 127
2 62 127
3 62 127
0 63 127
1 63 127
2 63 127
3 63 127
0 64 127
1 64 127
2 64 127
3 64 127
0 65 127
1 65 127
2 65 127
3 65 127
0 66 127
1 66 127
2 66 127
3 66 127
0 0 128
1 0 128
2 0 128
3 0 128
0 1 128
1 1 128
2 1 128
3 1 128
0 2 128
1 2 128
2 2 128
3 2 128
0 3 128
1 3 128
2 3 128
3 3 128
0 4 128
1 4 128
2 4 128
3 4 128
0 5 128
1 5 128
2 5 128
3 5 128
0 6 128
1 6 128
2 6 128
3 6 128
0 7 128
1 7 128
2 7 128
3 7 128
0 8 128
1 8 128
2 8 128
3 8 128
0 9 128
1 9 128
2 9 128
3 9 128
0 10 128
1 10 128
2 10 128
3 10 128
0 11 128
1 11 128
2 11 128
3 11 128
0 12 128
1 12 128
2 12 128
3 12 128
0 13 128
1 13 128
2 13 128
3 13 128
0 14 128
1 14 128
2 14 128
3 14 128
0 15 128
1 15 128
2 15 128
3 15 128
0 16 128
1 16 128
2 16 128
3 16 128
0 17 128
1 17 128
2 17 128
3 17 128
0 18 128
1 18 128
2 18 128
3 18 128
0 19 128
1 19 128
2 19 128
3 19 128
0 20 128
1 20 128
2 20 128
3 20 128
0 21 128
1 21 128
2 21 128
3 21 128
0 22 128
1 22 128
2 22 128
3 22 128
0 23 128
1 23 128
2 23 128
3 23 128
0 24 128
1 24 128
2 24 128
3 24 128
0 25 128
1 25 128
2 25 128
3 25 128
0 26 128
1 26 128
2 26 128
3 26 128
0 27 128
1 27 128
2 27 128
3 27 128
0 28 128
1 28 128
2 28 128
3 28 128
0 29 128
1 29 128
2 29 128
3 29 128
0 30 128
1 30 128
2 30 128
3 30 128
0 31 128
1 31 128
2 31 128
3 31 128
0 32 128
1 32 128
2 32 128
3 32 128
0 33 128
1 33 128
2 33 128
3 33 128
0 34 128
1 34 128
2 34 128
3 34 128
0 35 128
1 35 128
2 35 128
3 35 128
0 36 128
1 36 128
2 36 128
3 36 128
0 37 128
1 37 128
2 37 128
3 37 128
0 38 128
1 38 128
2 38 128
3 38 128
0 39 128
1 39 128
2 39 128
3 39 128
0 40 128
1 40 128
2 40 128
3 40 128
0 41 128
1 41 128
2 41 128
3 41 128
0 42 128
1 42 128
2 42 128
3 42 128
0 43 128
1 43 128
2 43 128
3 43 128
0 44 128
1 44 128
2 44 128
3 44 128
0 45 128
1 45 128
2 45 128
3 45 128
0 46 128
1 46 128
2 46 128
3 46 128
0 47 128
1 47 128
2 47 128
3 47 128
0 48 128
1 48 128
2 48 128
3 48 128
0 49 128
1 49 128
2 49 128
3 49 128
0 50 128
1 50 128
2 50 128
3 50 128
0 51 128
1 51 128
2 51 128
3 51 128
0 52 128
1 52 128
2 52 128
3 52 128
0 53 128
1 53 128
2 53 128
3 53 128
0 54 128
1 54 128
2 54 128
3 54 128
0 55 128
1 55 128
2 55 128
3 55 128
0 56 128
1 56 128
2 56 128
3 56 128
0 57 128
1 57 128
2 57 128
3 57 128
0 58 128
1 58 128
2 58 128
3 58 128
0 59 128
1 59 128
2 59 128
3 59 128
0 60 128
1 60 128
2 60 128
3 60 128
0 61 128
1 61 128
2 61 128
3 61 128
0 62 128
1 62 128
2 62 128
3 62 128
0 63 128
1 63 128
2 63 128
3 63 128
0 64 128
1 64 128
2 64 128
3 64 128
0 65 128
1 65 128
2 65 128
3 65 128
0 66 128
1 66 128
2 66 128
3 66 128
0 0 129
1 0 129
2 0 129
3 0 129
0 1 129
1 1 129
2 1 129
3 1 129
0 2 129
1 2 129
2 2 129
3 2 129
0 3 129
1 3 129
2 3 129
3 3 129
0 4 129
1 4 129
2 4 129
3 4 129
0 5 129
1 5 129
2 5 129
3 5 129
0 6 129
1 6 129
2 6 129
3 6 129
0 7 129
1 7 129
2 7 129
3 7 129
0 8 129
1 8 129
2 8 129
3 8 129
0 9 129
1 9 129
2 9 129
3 9 129
0 10 129
1 10 129
2 10 129
3 10 129
0 11 129
1 11 129
2 11 129
3 11 129
0 12 129
1 12 129
2 12 129
3 12 129
0 13 129
1 13 129
2 13 129
3 13 129
0 14 129
1 14 129
2 14 129
3 14 129
0 15 129
1 15 129
2 15 129
3 15 129
0 16 129
1 16 129
2 16 129
3 16 129
0 17 129
1 17 129
2 17 129
3 17 129
0 18 129
1 18 129
2 18 129
3 18 129
0 19 129
1 19 129
2 19 129
3 19 129
0 20 129
1 20 129
2 20 129
3 20 129
0 21 129
1 21 129
2 21 129
3 21 129
0 22 129
1 22 129
2 22 129
3 22 129
0 23 129
1 23 129
2 23 129
3 23 129
0 24 129
1 24 129
2 24 129
3 24 129
0 25 129
1 25 129
2 25 129
3 25 129
0 26 129
1 26 129
2 26 129
3 26 129
0 27 129
1 27 129
2 27 129
3 27 129
0 28 129
1 28 129
2 28 129
3 28 129
0 29 129
1 29 129
2 29 129
3 29 129
0 30 129
1 30 129
2 30 129
3 30 129
0 31 129
1 31 129
2 31 129
3 31 129
0 32 129
1 32 129
2 32 129
3 32 129
0 33 129
1 33 129
2 33 129
3 33 129
0 34 129
1 34 129
2 34 129
3 34 129
0 35 129
1 35 129
2 35 129
3 35 129
0 36 129
1 36 129
2 36 129
3 36 129
0 37 129
1 37 129
2 37 129
3 37 129
0 38 129
1 38 129
2 38 129
3 38 129
0 39 129
1 39 129
2 39 129
3 39 129
0 40 129
1 40 129
2 40 129
3 40 129
0 41 129
1 41 129
2 41 129
3 41 129
0 42 129
1 42 129
2 42 129
3 42 129
0 43 129
1 43 129
2 43 129
3 43 129
0 44 129
1 44 129
2 44 129
3 44 129
0 45 129
1 45 129
2 45 129
3 45 129
0 46 129
1 46 129
2 46 129
3 46 129
0 47 129
1 47 129
2 47 129
3 47 129
0 48 129
1 48 129
2 48 129
3 48 129
0 49 129
1 49 129
2 49 129
3 49 129
0 50 129
1 50 129
2 50 129
3 50 129
0 51 129
1 51 129
2 51 129
3 51 129
0 52 129
1 52 129
2 52 129
3 52 129
0 53 129
1 53 129
2 53 129
3 53 129
0 54 129
1 54 129
2 54 129
3 54 129
0 55 129
1 55 129
2 55 129
3 55 129
0 56 129
1 56 129
2 56 129
3 56 129
0 57 129
1 57 129
2 57 129
3 57 129
0 58 129
1 58 129
2 58 129
3 58 129
0 59 129
1 59 129
2 59 129
3 59 129
0 60 129
1 60 129
2 60 129
3 60 129
0 61 129
1 61 129
2 61 129
3 61 129
0 62 129
1 62 129
2 62 129
3 62 129
0 63 129
1 63 129
2 63 129
3 63 129
0 64 129
1 64 129
2 64 129
3 64 129
0 65 129
1 65 129
2 65 129
3 65 129
0 66 129
1 66 129
2 66 129
3 66 129
0 0 130
1 0 130
2 0 130
3 0 130
0 1 130
1 1 130
2 1 130
3 1 130
0 2 130
1 2 130
2 2 130
3 2 130
0 3 130
1 3 130
2 3 130
3 3 130
0 4 130
1 4 130
2 4 130
3 4 130
0 5 130
1 5 130
2 5 130
3 5 130
0 6 130
1 6 130
2 6 130
3 6 130
0 7 130
1 7 130
2 7 130
3 7 130
0 8 130
1 8 130
2 8 130
3 8 130
0 9 130
1 9 130
2 9 130
3 9 130
0 10 130
1 10 130
2 10 130
3 10 130
0 11 130
1 11 130
2 11 130
3 11 130
0 12 130
1 12 130
2 12 130
3 12 130
0 13 130
1 13 130
2 13 130
3 13 130
0 14 130
1 14 130
2 14 130
3 14 130
0 15 130
1 15 130
2 15 130
3 15 130
0 16 130
1 16 130
2 16 130
3 16 130
0 17 130
1 17 130
2 17 130
3 17 130
0 18 130
1 18 130
2 18 130
3 18 130
0 19 130
1 19 130
2 19 130
3 19 130
0 20 130
1 20 130
2 20 130
3 20 130
0 21 130
1 21 130
2 21 130
3 21 130
0 22 130
1 22 130
2 22 130
3 22 130
0 23 130
1 23 130
2 23 130
3 23 130
0 24 130
1 24 130
2 24 130
3 24 130
0 25 130
1 25 130
2 25 130
3 25 130
0 26 130
1 26 130
2 26 130
3 26 130
0 27 130
1 27 130
2 27 130
3 27 130
0 28 130
1 28 130
2 28 130
3 28 130
0 29 130
1 29 130
2 29 130
3 29 130
0 30 130
1 30 130
2 30 130
3 30 130
0 31 130
1 31 130
2 31 130
3 31 130
0 32 130
1 32 130
2 32 130
3 32 130
0 33 130
1 33 130
2 33 130
3 33 130
0 34 130
1 34 130
2 34 130
3 34 130
0 35 130
1 35 130
2 35 130
3 35 130
0 36 130
1 36 130
2 36 130
3 36 130
0 37 130
1 37 130
2 37 130
3 37 130
0 38 130
1 38 130
2 38 130
3 38 130
0 39 130
1 39 130
2 39 130
3 39 130
0 40 130
1 40 130
2 40 130
3 40 130
0 41 130
1 41 130
2 41 130
3 41 130
0 42 130
1 42 130
2 42 130
3 42 130
0 43 130
1 43 130
2 43 130
3 43 130
0 44 130
1 44 130
2 44 130
3 44 130
0 45 130
1 45 130
2 45 130
3 45 130
0 46 130
1 46 130
2 46 130
3 46 130
0 47 130
1 47 130
2 47 130
3 47 130
0 48 130
1 48 130
2 48 130
3 48 130
0 49 130
1 49 130
2 49 130
3 49 130
0 50 130
1 50 130
2 50 130
3 50 130
0 51 130
1 51 130
2 51 130
3 51 130
0 52 130
1 52 130
2 52 130
3 52 130
0 53 130
1 53 130
2 53 130
3 53 130
0 54 130
1 54 130
2 54 130
3 54 130
0 55 130
1 55 130
2 55 130
3 55 130
0 56 130
1 56 130
2 56 130
3 56 130
0 57 130
1 57 130
2 57 130
3 57 130
0 58 130
1 58 130
2 58 130
3 58 130
0 59 130
1 59 130
2 59 130
3 59 130
0 60 130
1 60 130
2 60 130
3 60 130
0 61 130
1 61 130
2 61 130
3 61 130
0 62 130
1 62 130
2 62 130
3 62 130
0 63 130
1 63 130
2 63 130
3 63 130
0 64 130
1 64 130
2 64 130
3 64 130
0 65 130
1 65 130
2 65 130
3 65 130
0 66 130
1 66 130
2 66 130
3 66 130
0 0 131
1 0 131
2 0 131
3 0 131
0 1 131
1 1 131
2 1 131
3 1 131
0 2 131
1 2 131
2 2 131
3 2 131
0 3 131
1 3 131
2 3 131
3 3 131
0 4 131
1 4 131
2 4 131
3 4 131
0 5 131
1 5 131
2 5 131
3 5 131
0 6 131
1 6 131
2 6 131
3 6 131
0 7 131
1 7 131
2 7 131
3 7 131
0 8 131
1 8 131
2 8 131
3 8 131
0 9 131
1 9 131
2 9 131
3 9 131
0 10 131
1 10 131
2 10 131
3 10 131
0 11 131
1 11 131
2 11 131
3 11 131
0 12 131
1 12 131
2 12 131
3 12 131
0 13 131
1 13 131
2 13 131
3 13 131
0 14 131
1 14 131
2 14 131
3 14 131
0 15 131
1 15 131
2 15 131
3 15 131
0 16 131
1 16 131
2 16 131
3 16 131
0 17 131
1 17 131
2 17 131
3 17 131
0 18 131
1 18 131
2 18 131
3 18 131
0 19 131
1 19 131
2 19 131
3 19 131
0 20 131
1 20 131
2 20 131
3 20 131
0 21 131
1 21 131
2 21 131
3 21 131
0 22 131
1 22 131
2 22 131
3 22 131
0 23 131
1 23 131
2 23 131
3 23 131
0 24 131
1 24 131
2 24 131
3 24 131
0 25 131
1 25 131
2 25 131
3 25 131
0 26 131
1 26 131
2 26 131
3 26 131
0 27 131
1 27 131
2 27 131
3 27 131
0 28 131
1 28 131
2 28 131
3 28 131
0 29 131
1 29 131
2 29 131
3 29 131
0 30 131
1 30 131
2 30 131
3 30 131
0 31 131
1 31 131
2 31 131
3 31 131
0 32 131
1 32 131
2 32 131
3 32 131
0 33 131
1 33 131
2 33 131
3 33 131
0 34 131
1 34 131
2 34 131
3 34 131
0 35 131
1 35 131
2 35 131
3 35 131
0 36 131
1 36 131
2 36 131
3 36 131
0 37 131
1 37 131
2 37 131
3 37 131
0 38 131
1 38 131
2 38 131
3 38 131
0 39 131
1 39 131
2 39 131
3 39 131
0 40 131
1 40 131
2 40 131
3 40 131
0 41 131
1 41 131
2 41 131
3 41 131
0 42 131
1 42 131
2 42 131
3 42 131
0 43 131
1 43 131
2 43 131
3 43 131
0 44 131
1 44 131
2 44 131
3 44 131
0 45 131
1 45 131
2 45 131
3 45 131
0 46 131
1 46 131
2 46 131
3 46 131
0 47 131
1 47 131
2 47 131
3 47 131
0 48 131
1 48 131
2 48 131
3 48 131
0 49 131
1 49 131
2 49 131
3 49 131
0 50 131
1 50 131
2 50 131
3 50 131
0 51 131
1 51 131
2 51 131
3 51 131
0 52 131
1 52 131
2 52 131
3 52 131
0 53 131
1 53 131
2 53 131
3 53 131
0 54 131
1 54 131
2 54 131
3 54 131
0 55 131
1 55 131
2 55 131
3 55 131
0 56 131
1 56 131
2 56 131
3 56 131
0 57 131
1 57 131
2 57 131
3 57 131
0 58 131
1 58 131
2 58 131
3 58 131
0 59 131
1 59 131
2 59 131
3 59 131
0 60 131
1 60 131
2 60 131
3 60 131
0 61 131
1 61 131
2 61 131
3 61 131
0 62 131
1 62 131
2 62 131
3 62 131
0 63 131
1 63 131
2 63 131
3 63 131
0 64 131
1 64 131
2 64 131
3 64 131
0 65 131
1 65 131
2 65 131
3 65 131
0 66 131
1 66 131
2 66 131
3 66 131
0 0 132
1 0 132
2 0 132
3 0 132
0 1 132
1 1 132
2 1 132
3 1 132
0 2 132
1 2 132
2 2 132
3 2 132
0 3 132
1 3 132
2 3 132
3 3 132
0 4 132
1 4 132
2 4 132
3 4 132
0 5 132
1 5 132
2 5 132
3 5 132
0 6 132
1 6 132
2 6 132
3 6 132
0 7 132
1 7 132
2 7 132
3 7 132
0 8 132
1 8 132
2 8 132
3 8 132
0 9 132
1 9 132
2 9 132
3 9 132
0 10 132
1 10 132
2 10 132
3 10 132
0 11 132
1 11 132
2 11 132
3 11 132
0 12 132
1 12 132
2 12 132
3 12 132
0 13 132
1 13 132
2 13 132
3 13 132
0 14 132
1 14 132
2 14 132
3 14 132
0 15 132
1 15 132
2 15 132
3 15 132
0 16 132
1 16 132
2 16 132
3 16 132
0 17 132
1 17 132
2 17 132
3 17 132
0 18 132
1 18 132
2 18 132
3 18 132
0 19 132
1 19 132
2 19 132
3 19 132
0 20 132
1 20 132
2 20 132
3 20 132
0 21 132
1 21 132
2 21 132
3 21 132
0 22 132
1 22 132
2 22 132
3 22 132
0 23 132
1 23 132
2 23 132
3 23 132
0 24 132
1 24 132
2 24 132
3 24 132
0 25 132
1 25 132
2 25 132
3 25 132
0 26 132
1 26 132
2 26 132
3 26 132
0 27 132
1 27 132
2 27 132
3 27 132
0 28 132
1 28 132
2 28 132
3 28 132
0 29 132
1 29 132
2 29 132
3 29 132
0 30 132
1 30 132
2 30 132
3 30 132
0 31 132
1 31 132
2 31 132
3 31 132
0 32 132
1 32 132
2 32 132
3 32 132
0 33 132
1 33 132
2 33 132
3 33 132
0 34 132
1 34 132
2 34 132
3 34 132
0 35 132
1 35 132
2 35 132
3 35 132
0 36 132
1 36 132
2 36 132
3 36 132
0 37 132
1 37 132
2 37 132
3 37 132
0 38 132
1 38 132
2 38 132
3 38 132
0 39 132
1 39 132
2 39 132
3 39 132
0 40 132
1 40 132
2 40 132
3 40 132
0 41 132
1 41 132
2 41 132
3 41 132
0 42 132
1 42 132
2 42 132
3 42 132
0 43 132
1 43 132
2 43 132
3 43 132
0 44 132
1 44 132
2 44 132
3 44 132
0 45 132
1 45 132
2 45 132
3 45 132
0 46 132
1 46 132
2 46 132
3 46 132
0 47 132
1 47 132
2 47 132
3 47 132
0 48 132
1 48 132
2 48 132
3 48 132
0 49 132
1 49 132
2 49 132
3 49 132
0 50 132
1 50 132
2 50 132
3 50 132
0 51 132
1 51 132
2 51 132
3 51 132
0 52 132
1 52 132
2 52 132
3 52 132
0 53 132
1 53 132
2 53 132
3 53 132
0 54 132
1 54 132
2 54 132
3 54 132
0 55 132
1 55 132
2 55 132
3 55 132
0 56 132
1 56 132
2 56 132
3 56 132
0 57 132
1 57 132
2 57 132
3 57 132
0 58 132
1 58 132
2 58 132
3 58 132
0 59 132
1 59 132
2 59 132
3 59 132
0 60 132
1 60 132
2 60 132
3 60 132
0 61 132
1 61 132
2 61 132
3 61 132
0 62 132
1 62 132
2 62 132
3 62 132
0 63 132
1 63 132
2 63 132
3 63 132
0 64 132
1 64 132
2 64 132
3 64 132
0 65 132
1 65 132
2 65 132
3 65 132
0 66 132
1 66 132
2 66 132
3 66 132
0 0 133
1 0 133
2 0 133
3 0 133
0 1 133
1 1 133
2 1 133
3 1 133
0 2 133
1 2 133
2 2 133
3 2 133
0 3 133
1 3 133
2 3 133
3 3 133
0 4 133
1 4 133
2 4 133
3 4 133
0 5 133
1 5 133
2 5 133
3 5 133
0 6 133
1 6 133
2 6 133
3 6 133
0 7 133
1 7 133
2 7 133
3 7 133
0 8 133
1 8 133
2 8 133
3 8 133
0 9 133
1 9 133
2 9 133
3 9 133
0 10 133
1 10 133
2 10 133
3 10 133
0 11 133
1 11 133
2 11 133
3 11 133
0 12 133
1 12 133
2 12 133
3 12 133
0 13 133
1 13 133
2 13 133
3 13 133
0 14 133
1 14 133
2 14 133
3 14 133
0 15 133
1 15 133
2 15 133
3 15 133
0 16 133
1 16 133
2 16 133
3 16 133
0 17 133
1 17 133
2 17 133
3 17 133
0 18 133
1 18 133
2 18 133
3 18 133
0 19 133
1 19 133
2 19 133
3 19 133
0 20 133
1 20 133
2 20 133
3 20 133
0 21 133
1 21 133
2 21 133
3 21 133
0 22 133
1 22 133
2 22 133
3 22 133
0 23 133
1 23 133
2 23 133
3 23 133
0 24 133
1 24 133
2 24 133
3 24 133
0 25 133
1 25 133
2 25 133
3 25 133
0 26 133
1 26 133
2 26 133
3 26 133
0 27 133
1 27 133
2 27 133
3 27 133
0 28 133
1 28 133
2 28 133
3 28 133
0 29 133
1 29 133
2 29 133
3 29 133
0 30 133
1 30 133
2 30 133
3 30 133
0 31 133
1 31 133
2 31 133
3 31 133
0 32 133
1 32 133
2 32 133
3 32 133
0 33 133
1 33 133
2 33 133
3 33 133
0 34 133
1 34 133
2 34 133
3 34 133
0 35 133
1 35 133
2 35 133
3 35 133
0 36 133
1 36 133
2 36 133
3 36 133
0 37 133
1 37 133
2 37 133
3 37 133
0 38 133
1 38 133
2 38 133
3 38 133
0 39 133
1 39 133
2 39 133
3 39 133
0 40 133
1 40 133
2 40 133
3 40 133
0 41 133
1 41 133
2 41 133
3 41 133
0 42 133
1 42 133
2 42 133
3 42 133
0 43 133
1 43 133
2 43 133
3 43 133
0 44 133
1 44 133
2 44 133
3 44 133
0 45 133
1 45 133
2 45 133
3 45 133
0 46 133
1 46 133
2 46 133
3 46 133
0 47 133
1 47 133
2 47 133
3 47 133
0 48 133
1 48 133
2 48 133
3 48 133
0 49 133
1 49 133
2 49 133
3 49 133
0 50 133
1 50 133
2 50 133
3 50 133
0 51 133
1 51 133
2 51 133
3 51 133
0 52 133
1 52 133
2 52 133
3 52 133
0 53 133
1 53 133
2 53 133
3 53 133
0 54 133
1 54 133
2 54 133
3 54 133
0 55 133
1 55 133
2 55 133
3 55 133
0 56 133
1 56 133
2 56 133
3 56 133
0 57 133
1 57 133
2 57 133
3 57 133
0 58 133
1 58 133
2 58 133
3 58 133
0 59 133
1 59 133
2 59 133
3 59 133
0 60 133
1 60 133
2 60 133
3 60 133
0 61 133
1 61 133
2 61 133
3 61 133
0 62 133
1 62 133
2 62 133
3 62 133
0 63 133
1 63 133
2 63 133
3 63 133
0 64 133
1 64 133
2 64 133
3 64 133
0 65 133
1 65 133
2 65 133
3 65 133
0 66 133
1 66 133
2 66 133
3 66 133
0 0 134
1 0 134
2 0 134
3 0 134
0 1 134
1 1 134
2 1 134
3 1 134
0 2 134
1 2 134
2 2 134
3 2 134
0 3 134
1 3 134
2 3 134
3 3 134
0 4 134
1 4 134
2 4 134
3 4 134
0 5 134
1 5 134
2 5 134
3 5 134
0 6 134
1 6 134
2 6 134
3 6 134
0 7 134
1 7 134
2 7 134
3 7 134
0 8 134
1 8 134
2 8 134
3 8 134
0 9 134
1 9 134
2 9 134
3 9 134
0 10 134
1 10 134
2 10 134
3 10 134
0 11 134
1 11 134
2 11 134
3 11 134
0 12 134
1 12 134
2 12 134
3 12 134
0 13 134
1 13 134
2 13 134
3 13 134
0 14 134
1 14 134
2 14 134
3 14 134
0 15 134
1 15 134
2 15 134
3 15 134
0 16 134
1 16 134
2 16 134
3 16 134
0 17 134
1 17 134
2 17 134
3 17 134
0 18 134
1 18 134
2 18 134
3 18 134
0 19 134
1 19 134
2 19 134
3 19 134
0 20 134
1 20 134
2 20 134
3 20 134
0 21 134
1 21 134
2 21 134
3 21 134
0 22 134
1 22 134
2 22 134
3 22 134
0 23 134
1 23 134
2 23 134
3 23 134
0 24 134
1 24 134
2 24 134
3 24 134
0 25 134
1 25 134
2 25 134
3 25 134
0 26 134
1 26 134
2 26 134
3 26 134
0 27 134
1 27 134
2 27 134
3 27 134
0 28 134
1 28 134
2 28 134
3 28 134
0 29 134
1 29 134
2 29 134
3 29 134
0 30 134
1 30 134
2 30 134
3 30 134
0 31 134
1 31 134
2 31 134
3 31 134
0 32 134
1 32 134
2 32 134
3 32 134
0 33 134
1 33 134
2 33 134
3 33 134
0 34 134
1 34 134
2 34 134
3 34 134
0 35 134
1 35 134
2 35 134
3 35 134
0 36 134
1 36 134
2 36 134
3 36 134
0 37 134
1 37 134
2 37 134
3 37 134
0 38 134
1 38 134
2 38 134
3 38 134
0 39 134
1 39 134
2 39 134
3 39 134
0 40 134
1 40 134
2 40 134
3 40 134
0 41 134
1 41 134
2 41 134
3 41 134
0 42 134
1 42 134
2 42 134
3 42 134
0 43 134
1 43 134
2 43 134
3 43 134
0 44 134
1 44 134
2 44 134
3 44 134
0 45 134
1 45 134
2 45 134
3 45 134
0 46 134
1 46 134
2 46 134
3 46 134
0 47 134
1 47 134
2 47 134
3 47 134
0 48 134
1 48 134
2 48 134
3 48 134
0 49 134
1 49 134
2 49 134
3 49 134
0 50 134
1 50 134
2 50 134
3 50 134
0 51 134
1 51 134
2 51 134
3 51 134
0 52 134
1 52 134
2 52 134
3 52 134
0 53 134
1 53 134
2 53 134
3 53 134
0 54 134
1 54 134
2 54 134
3 54 134
0 55 134
1 55 134
2 55 134
3 55 134
0 56 134
1 56 134
2 56 134
3 56 134
0 57 134
1 57 134
2 57 134
3 57 134
0 58 134
1 58 134
2 58 134
3 58 134
0 59 134
1 59 134
2 59 134
3 59 134
0 60 134
1 60 134
2 60 134
3 60 134
0 61 134
1 61 134
2 61 134
3 61 134
0 62 134
1 62 134
2 62 134
3 62 134
0 63 134
1 63 134
2 63 134
3 63 134
0 64 134
1 64 134
2 64 134
3 64 134
0 65 134
1 65 134
2 65 134
3 65 134
0 66 134
1 66 134
2 66 134
3 66 134
0 0 135
1 0 135
2 0 135
3 0 135
0 1 135
1 1 135
2 1 135
3 1 135
0 2 135
1 2 135
2 2 135
3 2 135
0 3 135
1 3 135
2 3 135
3 3 135
0 4 135
1 4 135
2 4 135
3 4 135
0 5 135
1 5 135
2 5 135
3 5 135
0 6 135
1 6 135
2 6 135
3 6 135
0 7 135
1 7 135
2 7 135
3 7 135
0 8 135
1 8 135
2 8 135
3 8 135
0 9 135
1 9 135
2 9 135
3 9 135
0 10 135
1 10 135
2 10 135
3 10 135
0 11 135
1 11 135
2 11 135
3 11 135
0 12 135
1 12 135
2 12 135
3 12 135
0 13 135
1 13 135
2 13 135
3 13 135
0 14 135
1 14 135
2 14 135
3 14 135
0 15 135
1 15 135
2 15 135
3 15 135
0 16 135
1 16 135
2 16 135
3 16 135
0 17 135
1 17 135
2 17 135
3 17 135
0 18 135
1 18 135
2 18 135
3 18 135
0 19 135
1 19 135
2 19 135
3 19 135
0 20 135
1 20 135
2 20 135
3 20 135
0 21 135
1 21 135
2 21 135
3 21 135
0 22 135
1 22 135
2 22 135
3 22 135
0 23 135
1 23 135
2 23 135
3 23 135
0 24 135
1 24 135
2 24 135
3 24 135
0 25 135
1 25 135
2 25 135
3 25 135
0 26 135
1 26 135
2 26 135
3 26 135
0 27 135
1 27 135
2 27 135
3 27 135
0 28 135
1 28 135
2 28 135
3 28 135
0 29 135
1 29 135
2 29 135
3 29 135
0 30 135
1 30 135
2 30 135
3 30 135
0 31 135
1 31 135
2 31 135
3 31 135
0 32 135
1 32 135
2 32 135
3 32 135
0 33 135
1 33 135
2 33 135
3 33 135
0 34 135
1 34 135
2 34 135
3 34 135
0 35 135
1 35 135
2 35 135
3 35 135
0 36 135
1 36 135
2 36 135
3 36 135
0 37 135
1 37 135
2 37 135
3 37 135
0 38 135
1 38 135
2 38 135
3 38 135
0 39 135
1 39 135
2 39 135
3 39 135
0 40 135
1 40 135
2 40 135
3 40 135
0 41 135
1 41 135
2 41 135
3 41 135
0 42 135
1 42 135
2 42 135
3 42 135
0 43 135
1 43 135
2 43 135
3 43 135
0 44 135
1 44 135
2 44 135
3 44 135
0 45 135
1 45 135
2 45 135
3 45 135
0 46 135
1 46 135
2 46 135
3 46 135
0 47 135
1 47 135
2 47 135
3 47 135
0 48 135
1 48 135
2 48 135
3 48 135
0 49 135
1 49 135
2 49 135
3 49 135
0 50 135
1 50 135
2 50 135
3 50 135
0 51 135
1 51 135
2 51 135
3 51 135
0 52 135
1 52 135
2 52 135
3 52 135
0 53 135
1 53 135
2 53 135
3 53 135
0 54 135
1 54 135
2 54 135
3 54 135
0 55 135
1 55 135
2 55 135
3 55 135
0 56 135
1 56 135
2 56 135
3 56 135
0 57 135
1 57 135
2 57 135
3 57 135
0 58 135
1 58 135
2 58 135
3 58 135
0 59 135
1 59 135
2 59 135
3 59 135
0 60 135
1 60 135
2 60 135
3 60 135
0 61 135
1 61 135
2 61 135
3 61 135
0 62 135
1 62 135
2 62 135
3 62 135
0 63 135
1 63 135
2 63 135
3 63 135
0 64 135
1 64 135
2 64 135
3 64 135
0 65 135
1 65 135
2 65 135
3 65 135
0 66 135
1 66 135
2 66 135
3 66 135
0 0 136
1 0 136
2 0 136
3 0 136
0 1 136
1 1 136
2 1 136
3 1 136
0 2 136
1 2 136
2 2 136
3 2 136
0 3 136
1 3 136
2 3 136
3 3 136
0 4 136
1 4 136
2 4 136
3 4 136
0 5 136
1 5 136
2 5 136
3 5 136
0 6 136
1 6 136
2 6 136
3 6 136
0 7 136
1 7 136
2 7 136
3 7 136
0 8 136
1 8 136
2 8 136
3 8 136
0 9 136
1 9 136
2 9 136
3 9 136
0 10 136
1 10 136
2 10 136
3 10 136
0 11 136
1 11 136
2 11 136
3 11 136
0 12 136
1 12 136
2 12 136
3 12 136
0 13 136
1 13 136
2 13 136
3 13 136
0 14 136
1 14 136
2 14 136
3 14 136
0 15 136
1 15 136
2 15 136
3 15 136
0 16 136
1 16 136
2 16 136
3 16 136
0 17 136
1 17 136
2 17 136
3 17 136
0 18 136
1 18 136
2 18 136
3 18 136
0 19 136
1 19 136
2 19 136
3 19 136
0 20 136
1 20 136
2 20 136
3 20 136
0 21 136
1 21 136
2 21 136
3 21 136
0 22 136
1 22 136
2 22 136
3 22 136
0 23 136
1 23 136
2 23 136
3 23 136
0 24 136
1 24 136
2 24 136
3 24 136
0 25 136
1 25 136
2 25 136
3 25 136
0 26 136
1 26 136
2 26 136
3 26 136
0 27 136
1 27 136
2 27 136
3 27 136
0 28 136
1 28 136
2 28 136
3 28 136
0 29 136
1 29 136
2 29 136
3 29 136
0 30 136
1 30 136
2 30 136
3 30 136
0 31 136
1 31 136
2 31 136
3 31 136
0 32 136
1 32 136
2 32 136
3 32 136
0 33 136
1 33 136
2 33 136
3 33 136
0 34 136
1 34 136
2 34 136
3 34 136
0 35 136
1 35 136
2 35 136
3 35 136
0 36 136
1 36 136
2 36 136
3 36 136
0 37 136
1 37 136
2 37 136
3 37 136
0 38 136
1 38 136
2 38 136
3 38 136
0 39 136
1 39 136
2 39 136
3 39 136
0 40 136
1 40 136
2 40 136
3 40 136
0 41 136
1 41 136
2 41 136
3 41 136
0 42 136
1 42 136
2 42 136
3 42 136
0 43 136
1 43 136
2 43 136
3 43 136
0 44 136
1 44 136
2 44 136
3 44 136
0 45 136
1 45 136
2 45 136
3 45 136
0 46 136
1 46 136
2 46 136
3 46 136
0 47 136
1 47 136
2 47 136
3 47 136
0 48 136
1 48 136
2 48 136
3 48 136
0 49 136
1 49 136
2 49 136
3 49 136
0 50 136
1 50 136
2 50 136
3 50 136
0 51 136
1 51 136
2 51 136
3 51 136
0 52 136
1 52 136
2 52 136
3 52 136
0 53 136
1 53 136
2 53 136
3 53 136
0 54 136
1 54 136
2 54 136
3 54 136
0 55 136
1 55 136
2 55 136
3 55 136
0 56 136
1 56 136
2 56 136
3 56 136
0 57 136
1 57 136
2 57 136
3 57 136
0 58 136
1 58 136
2 58 136
3 58 136
0 59 136
1 59 136
2 59 136
3 59 136
0 60 136
1 60 136
2 60 136
3 60 136
0 61 136
1 61 136
2 61 136
3 61 136
0 62 136
1 62 136
2 62 136
3 62 136
0 63 136
1 63 136
2 63 136
3 63 136
0 64 136
1 64 136
2 64 136
3 64 136
0 65 136
1 65 136
2 65 136
3 65 136
0 66 136
1 66 136
2 66 136
3 66 136
0 0 137
1 0 137
2 0 137
3 0 137
0 1 137
1 1 137
2 1 137
3 1 137
0 2 137
1 2 137
2 2 137
3 2 137
0 3 137
1 3 137
2 3 137
3 3 137
0 4 137
1 4 137
2 4 137
3 4 137
0 5 137
1 5 137
2 5 137
3 5 137
0 6 137
1 6 137
2 6 137
3 6 137
0 7 137
1 7 137
2 7 137
3 7 137
0 8 137
1 8 137
2 8 137
3 8 137
0 9 137
1 9 137
2 9 137
3 9 137
0 10 137
1 10 137
2 10 137
3 10 137
0 11 137
1 11 137
2 11 137
3 11 137
0 12 137
1 12 137
2 12 137
3 12 137
0 13 137
1 13 137
2 13 137
3 13 137
0 14 137
1 14 137
2 14 137
3 14 137
0 15 137
1 15 137
2 15 137
3 15 137
0 16 137
1 16 137
2 16 137
3 16 137
0 17 137
1 17 137
2 17 137
3 17 137
0 18 137
1 18 137
2 18 137
3 18 137
0 19 137
1 19 137
2 19 137
3 19 137
0 20 137
1 20 137
2 20 137
3 20 137
0 21 137
1 21 137
2 21 137
3 21 137
0 22 137
1 22 137
2 22 137
3 22 137
0 23 137
1 23 137
2 23 137
3 23 137
0 24 137
1 24 137
2 24 137
3 24 137
0 25 137
1 25 137
2 25 137
3 25 137
0 26 137
1 26 137
2 26 137
3 26 137
0 27 137
1 27 137
2 27 137
3 27 137
0 28 137
1 28 137
2 28 137
3 28 137
0 29 137
1 29 137
2 29 137
3 29 137
0 30 137
1 30 137
2 30 137
3 30 137
0 31 137
1 31 137
2 31 137
3 31 137
0 32 137
1 32 137
2 32 137
3 32 137
0 33 137
1 33 137
2 33 137
3 33 137
0 34 137
1 34 137
2 34 137
3 34 137
0 35 137
1 35 137
2 35 137
3 35 137
0 36 137
1 36 137
2 36 137
3 36 137
0 37 137
1 37 137
2 37 137
3 37 137
0 38 137
1 38 137
2 38 137
3 38 137
0 39 137
1 39 137
2 39 137
3 39 137
0 40 137
1 40 137
2 40 137
3 40 137
0 41 137
1 41 137
2 41 137
3 41 137
0 42 137
1 42 137
2 42 137
3 42 137
0 43 137
1 43 137
2 43 137
3 43 137
0 44 137
1 44 137
2 44 137
3 44 137
0 45 137
1 45 137
2 45 137
3 45 137
0 46 137
1 46 137
2 46 137
3 46 137
0 47 137
1 47 137
2 47 137
3 47 137
0 48 137
1 48 137
2 48 137
3 48 137
0 49 137
1 49 137
2 49 137
3 49 137
0 50 137
1 50 137
2 50 137
3 50 137
0 51 137
1 51 137
2 51 137
3 51 137
0 52 137
1 52 137
2 52 137
3 52 137
0 53 137
1 53 137
2 53 137
3 53 137
0 54 137
1 54 137
2 54 137
3 54 137
0 55 137
1 55 137
2 55 137
3 55 137
0 56 137
1 56 137
2 56 137
3 56 137
0 57 137
1 57 137
2 57 137
3 57 137
0 58 137
1 58 137
2 58 137
3 58 137
0 59 137
1 59 137
2 59 137
3 59 137
0 60 137
1 60 137
2 60 137
3 60 137
0 61 137
1 61 137
2 61 137
3 61 137
0 62 137
1 62 137
2 62 137
3 62 137
0 63 137
1 63 137
2 63 137
3 63 137
0 64 137
1 64 137
2 64 137
3 64 137
0 65 137
1 65 137
2 65 137
3 65 137
0 66 137
1 66 137
2 66 137
3 66 137
0 0 138
1 0 138
2 0 138
3 0 138
0 1 138
1 1 138
2 1 138
3 1 138
0 2 138
1 2 138
2 2 138
3 2 138
0 3 138
1 3 138
2 3 138
3 3 138
0 4 138
1 4 138
2 4 138
3 4 138
0 5 138
1 5 138
2 5 138
3 5 138
0 6 138
1 6 138
2 6 138
3 6 138
0 7 138
1 7 138
2 7 138
3 7 138
0 8 138
1 8 138
2 8 138
3 8 138
0 9 138
1 9 138
2 9 138
3 9 138
0 10 138
1 10 138
2 10 138
3 10 138
0 11 138
1 11 138
2 11 138
3 11 138
0 12 138
1 12 138
2 12 138
3 12 138
0 13 138
1 13 138
2 13 138
3 13 138
0 14 138
1 14 138
2 14 138
3 14 138
0 15 138
1 15 138
2 15 138
3 15 138
0 16 138
1 16 138
2 16 138
3 16 138
0 17 138
1 17 138
2 17 138
3 17 138
0 18 138
1 18 138
2 18 138
3 18 138
0 19 138
1 19 138
2 19 138
3 19 138
0 20 138
1 20 138
2 20 138
3 20 138
0 21 138
1 21 138
2 21 138
3 21 138
0 22 138
1 22 138
2 22 138
3 22 138
0 23 138
1 23 138
2 23 138
3 23 138
0 24 138
1 24 138
2 24 138
3 24 138
0 25 138
1 25 138
2 25 138
3 25 138
0 26 138
1 26 138
2 26 138
3 26 138
0 27 138
1 27 138
2 27 138
3 27 138
0 28 138
1 28 138
2 28 138
3 28 138
0 29 138
1 29 138
2 29 138
3 29 138
0 30 138
1 30 138
2 30 138
3 30 138
0 31 138
1 31 138
2 31 138
3 31 138
0 32 138
1 32 138
2 32 138
3 32 138
0 33 138
1 33 138
2 33 138
3 33 138
0 34 138
1 34 138
2 34 138
3 34 138
0 35 138
1 35 138
2 35 138
3 35 138
0 36 138
1 36 138
2 36 138
3 36 138
0 37 138
1 37 138
2 37 138
3 37 138
0 38 138
1 38 138
2 38 138
3 38 138
0 39 138
1 39 138
2 39 138
3 39 138
0 40 138
1 40 138
2 40 138
3 40 138
0 41 138
1 41 138
2 41 138
3 41 138
0 42 138
1 42 138
2 42 138
3 42 138
0 43 138
1 43 138
2 43 138
3 43 138
0 44 138
1 44 138
2 44 138
3 44 138
0 45 138
1 45 138
2 45 138
3 45 138
0 46 138
1 46 138
2 46 138
3 46 138
0 47 138
1 47 138
2 47 138
3 47 138
0 48 138
1 48 138
2 48 138
3 48 138
0 49 138
1 49 138
2 49 138
3 49 138
0 50 138
1 50 138
2 50 138
3 50 138
0 51 138
1 51 138
2 51 138
3 51 138
0 52 138
1 52 138
2 52 138
3 52 138
0 53 138
1 53 138
2 53 138
3 53 138
0 54 138
1 54 138
2 54 138
3 54 138
0 55 138
1 55 138
2 55 138
3 55 138
0 56 138
1 56 138
2 56 138
3 56 138
0 57 138
1 57 138
2 57 138
3 57 138
0 58 138
1 58 138
2 58 138
3 58 138
0 59 138
1 59 138
2 59 138
3 59 138
0 60 138
1 60 138
2 60 138
3 60 138
0 61 138
1 61 138
2 61 138
3 61 138
0 62 138
1 62 138
2 62 138
3 62 138
0 63 138
1 63 138
2 63 138
3 63 138
0 64 138
1 64 138
2 64 138
3 64 138
0 65 138
1 65 138
2 65 138
3 65 138
0 66 138
1 66 138
2 66 138
3 66 138
0 0 139
1 0 139
2 0 139
3 0 139
0 1 139
1 1 139
2 1 139
3 1 139
0 2 139
1 2 139
2 2 139
3 2 139
0 3 139
1 3 139
2 3 139
3 3 139
0 4 139
1 4 139
2 4 139
3 4 139
0 5 139
1 5 139
2 5 139
3 5 139
0 6 139
1 6 139
2 6 139
3 6 139
0 7 139
1 7 139
2 7 139
3 7 139
0 8 139
1 8 139
2 8 139
3 8 139
0 9 139
1 9 139
2 9 139
3 9 139
0 10 139
1 10 139
2 10 139
3 10 139
0 11 139
1 11 139
2 11 139
3 11 139
0 12 139
1 12 139
2 12 139
3 12 139
0 13 139
1 13 139
2 13 139
3 13 139
0 14 139
1 14 139
2 14 139
3 14 139
0 15 139
1 15 139
2 15 139
3 15 139
0 16 139
1 16 139
2 16 139
3 16 139
0 17 139
1 17 139
2 17 139
3 17 139
0 18 139
1 18 139
2 18 139
3 18 139
0 19 139
1 19 139
2 19 139
3 19 139
0 20 139
1 20 139
2 20 139
3 20 139
0 21 139
1 21 139
2 21 139
3 21 139
0 22 139
1 22 139
2 22 139
3 22 139
0 23 139
1 23 139
2 23 139
3 23 139
0 24 139
1 24 139
2 24 139
3 24 139
0 25 139
1 25 139
2 25 139
3 25 139
0 26 139
1 26 139
2 26 139
3 26 139
0 27 139
1 27 139
2 27 139
3 27 139
0 28 139
1 28 139
2 28 139
3 28 139
0 29 139
1 29 139
2 29 139
3 29 139
0 30 139
1 30 139
2 30 139
3 30 139
0 31 139
1 31 139
2 31 139
3 31 139
0 32 139
1 32 139
2 32 139
3 32 139
0 33 139
1 33 139
2 33 139
3 33 139
0 34 139
1 34 139
2 34 139
3 34 139
0 35 139
1 35 139
2 35 139
3 35 139
0 36 139
1 36 139
2 36 139
3 36 139
0 37 139
1 37 139
2 37 139
3 37 139
0 38 139
1 38 139
2 38 139
3 38 139
0 39 139
1 39 139
2 39 139
3 39 139
0 40 139
1 40 139
2 40 139
3 40 139
0 41 139
1 41 139
2 41 139
3 41 139
0 42 139
1 42 139
2 42 139
3 42 139
0 43 139
1 43 139
2 43 139
3 43 139
0 44 139
1 44 139
2 44 139
3 44 139
0 45 139
1 45 139
2 45 139
3 45 139
0 46 139
1 46 139
2 46 139
3 46 139
0 47 139
1 47 139
2 47 139
3 47 139
0 48 139
1 48 139
2 48 139
3 48 139
0 49 139
1 49 139
2 49 139
3 49 139
0 50 139
1 50 139
2 50 139
3 50 139
0 51 139
1 51 139
2 51 139
3 51 139
0 52 139
1 52 139
2 52 139
3 52 139
0 53 139
1 53 139
2 53 139
3 53 139
0 54 139
1 54 139
2 54 139
3 54 139
0 55 139
1 55 139
2 55 139
3 55 139
0 56 139
1 56 139
2 56 139
3 56 139
0 57 139
1 57 139
2 57 139
3 57 139
0 58 139
1 58 139
2 58 139
3 58 139
0 59 139
1 59 139
2 59 139
3 59 139
0 60 139
1 60 139
2 60 139
3 60 139
0 61 139
1 61 139
2 61 139
3 61 139
0 62 139
1 62 139
2 62 139
3 62 139
0 63 139
1 63 139
2 63 139
3 63 139
0 64 139
1 64 139
2 64 139
3 64 139
0 65 139
1 65 139
2 65 139
3 65 139
0 66 139
1 66 139
2 66 139
3 66 139
0 0 140
1 0 140
2 0 140
3 0 140
0 1 140
1 1 140
2 1 140
3 1 140
0 2 140
1 2 140
2 2 140
3 2 140
0 3 140
1 3 140
2 3 140
3 3 140
0 4 140
1 4 140
2 4 140
3 4 140
0 5 140
1 5 140
2 5 140
3 5 140
0 6 140
1 6 140
2 6 140
3 6 140
0 7 140
1 7 140
2 7 140
3 7 140
0 8 140
1 8 140
2 8 140
3 8 140
0 9 140
1 9 140
2 9 140
3 9 140
0 10 140
1 10 140
2 10 140
3 10 140
0 11 140
1 11 140
2 11 140
3 11 140
0 12 140
1 12 140
2 12 140
3 12 140
0 13 140
1 13 140
2 13 140
3 13 140
0 14 140
1 14 140
2 14 140
3 14 140
0 15 140
1 15 140
2 15 140
3 15 140
0 16 140
1 16 140
2 16 140
3 16 140
0 17 140
1 17 140
2 17 140
3 17 140
0 18 140
1 18 140
2 18 140
3 18 140
0 19 140
1 19 140
2 19 140
3 19 140
0 20 140
1 20 140
2 20 140
3 20 140
0 21 140
1 21 140
2 21 140
3 21 140
0 22 140
1 22 140
2 22 140
3 22 140
0 23 140
1 23 140
2 23 140
3 23 140
0 24 140
1 24 140
2 24 140
3 24 140
0 25 140
1 25 140
2 25 140
3 25 140
0 26 140
1 26 140
2 26 140
3 26 140
0 27 140
1 27 140
2 27 140
3 27 140
0 28 140
1 28 140
2 28 140
3 28 140
0 29 140
1 29 140
2 29 140
3 29 140
0 30 140
1 30 140
2 30 140
3 30 140
0 31 140
1 31 140
2 31 140
3 31 140
0 32 140
1 32 140
2 32 140
3 32 140
0 33 140
1 33 140
2 33 140
3 33 140
0 34 140
1 34 140
2 34 140
3 34 140
0 35 140
1 35 140
2 35 140
3 35 140
0 36 140
1 36 140
2 36 140
3 36 140
0 37 140
1 37 140
2 37 140
3 37 140
0 38 140
1 38 140
2 38 140
3 38 140
0 39 140
1 39 140
2 39 140
3 39 140
0 40 140
1 40 140
2 40 140
3 40 140
0 41 140
1 41 140
2 41 140
3 41 140
0 42 140
1 42 140
2 42 140
3 42 140
0 43 140
1 43 140
2 43 140
3 43 140
0 44 140
1 44 140
2 44 140
3 44 140
0 45 140
1 45 140
2 45 140
3 45 140
0 46 140
1 46 140
2 46 140
3 46 140
0 47 140
1 47 140
2 47 140
3 47 140
0 48 140
1 48 140
2 48 140
3 48 140
0 49 140
1 49 140
2 49 140
3 49 140
0 50 140
1 50 140
2 50 140
3 50 140
0 51 140
1 51 140
2 51 140
3 51 140
0 52 140
1 52 140
2 52 140
3 52 140
0 53 140
1 53 140
2 53 140
3 53 140
0 54 140
1 54 140
2 54 140
3 54 140
0 55 140
1 55 140
2 55 140
3 55 140
0 56 140
1 56 140
2 56 140
3 56 140
0 57 140
1 57 140
2 57 140
3 57 140
0 58 140
1 58 140
2 58 140
3 58 140
0 59 140
1 59 140
2 59 140
3 59 140
0 60 140
1 60 140
2 60 140
3 60 140
0 61 140
1 61 140
2 61 140
3 61 140
0 62 140
1 62 140
2 62 140
3 62 140
0 63 140
1 63 140
2 63 140
3 63 140
0 64 140
1 64 140
2 64 140
3 64 140
0 65 140
1 65 140
2 65 140
3 65 140
0 66 140
1 66 140
2 66 140
3 66 140
0 0 141
1 0 141
2 0 141
3 0 141
0 1 141
1 1 141
2 1 141
3 1 141
0 2 141
1 2 141
2 2 141
3 2 141
0 3 141
1 3 141
2 3 141
3 3 141
0 4 141
1 4 141
2 4 141
3 4 141
0 5 141
1 5 141
2 5 141
3 5 141
0 6 141
1 6 141
2 6 141
3 6 141
0 7 141
1 7 141
2 7 141
3 7 141
0 8 141
1 8 141
2 8 141
3 8 141
0 9 141
1 9 141
2 9 141
3 9 141
0 10 141
1 10 141
2 10 141
3 10 141
0 11 141
1 11 141
2 11 141
3 11 141
0 12 141
1 12 141
2 12 141
3 12 141
0 13 141
1 13 141
2 13 141
3 13 141
0 14 141
1 14 141
2 14 141
3 14 141
0 15 141
1 15 141
2 15 141
3 15 141
0 16 141
1 16 141
2 16 141
3 16 141
0 17 141
1 17 141
2 17 141
3 17 141
0 18 141
1 18 141
2 18 141
3 18 141
0 19 141
1 19 141
2 19 141
3 19 141
0 20 141
1 20 141
2 20 141
3 20 141
0 21 141
1 21 141
2 21 141
3 21 141
0 22 141
1 22 141
2 22 141
3 22 141
0 23 141
1 23 141
2 23 141
3 23 141
0 24 141
1 24 141
2 24 141
3 24 141
0 25 141
1 25 141
2 25 141
3 25 141
0 26 141
1 26 141
2 26 141
3 26 141
0 27 141
1 27 141
2 27 141
3 27 141
0 28 141
1 28 141
2 28 141
3 28 141
0 29 141
1 29 141
2 29 141
3 29 141
0 30 141
1 30 141
2 30 141
3 30 141
0 31 141
1 31 141
2 31 141
3 31 141
0 32 141
1 32 141
2 32 141
3 32 141
0 33 141
1 33 141
2 33 141
3 33 141
0 34 141
1 34 141
2 34 141
3 34 141
0 35 141
1 35 141
2 35 141
3 35 141
0 36 141
1 36 141
2 36 141
3 36 141
0 37 141
1 37 141
2 37 141
3 37 141
0 38 141
1 38 141
2 38 141
3 38 141
0 39 141
1 39 141
2 39 141
3 39 141
0 40 141
1 40 141
2 40 141
3 40 141
0 41 141
1 41 141
2 41 141
3 41 141
0 42 141
1 42 141
2 42 141
3 42 141
0 43 141
1 43 141
2 43 141
3 43 141
0 44 141
1 44 141
2 44 141
3 44 141
0 45 141
1 45 141
2 45 141
3 45 141
0 46 141
1 46 141
2 46 141
3 46 141
0 47 141
1 47 141
2 47 141
3 47 141
0 48 141
1 48 141
2 48 141
3 48 141
0 49 141
1 49 141
2 49 141
3 49 141
0 50 141
1 50 141
2 50 141
3 50 141
0 51 141
1 51 141
2 51 141
3 51 141
0 52 141
1 52 141
2 52 141
3 52 141
0 53 141
1 53 141
2 53 141
3 53 141
0 54 141
1 54 141
2 54 141
3 54 141
0 55 141
1 55 141
2 55 141
3 55 141
0 56 141
1 56 141
2 56 141
3 56 141
0 57 141
1 57 141
2 57 141
3 57 141
0 58 141
1 58 141
2 58 141
3 58 141
0 59 141
1 59 141
2 59 141
3 59 141
0 60 141
1 60 141
2 60 141
3 60 141
0 61 141
1 61 141
2 61 141
3 61 141
0 62 141
1 62 141
2 62 141
3 62 141
0 63 141
1 63 141
2 63 141
3 63 141
0 64 141
1 64 141
2 64 141
3 64 141
0 65 141
1 65 141
2 65 141
3 65 141
0 66 141
1 66 141
2 66 141
3 66 141
0 0 142
1 0 142
2 0 142
3 0 142
0 1 142
1 1 142
2 1 142
3 1 142
0 2 142
1 2 142
2 2 142
3 2 142
0 3 142
1 3 142
2 3 142
3 3 142
0 4 142
1 4 142
2 4 142
3 4 142
0 5 142
1 5 142
2 5 142
3 5 142
0 6 142
1 6 142
2 6 142
3 6 142
0 7 142
1 7 142
2 7 142
3 7 142
0 8 142
1 8 142
2 8 142
3 8 142
0 9 142
1 9 142
2 9 142
3 9 142
0 10 142
1 10 142
2 10 142
3 10 142
0 11 142
1 11 142
2 11 142
3 11 142
0 12 142
1 12 142
2 12 142
3 12 142
0 13 142
1 13 142
2 13 142
3 13 142
0 14 142
1 14 142
2 14 142
3 14 142
0 15 142
1 15 142
2 15 142
3 15 142
0 16 142
1 16 142
2 16 142
3 16 142
0 17 142
1 17 142
2 17 142
3 17 142
0 18 142
1 18 142
2 18 142
3 18 142
0 19 142
1 19 142
2 19 142
3 19 142
0 20 142
1 20 142
2 20 142
3 20 142
0 21 142
1 21 142
2 21 142
3 21 142
0 22 142
1 22 142
2 22 142
3 22 142
0 23 142
1 23 142
2 23 142
3 23 142
0 24 142
1 24 142
2 24 142
3 24 142
0 25 142
1 25 142
2 25 142
3 25 142
0 26 142
1 26 142
2 26 142
3 26 142
0 27 142
1 27 142
2 27 142
3 27 142
0 28 142
1 28 142
2 28 142
3 28 142
0 29 142
1 29 142
2 29 142
3 29 142
0 30 142
1 30 142
2 30 142
3 30 142
0 31 142
1 31 142
2 31 142
3 31 142
0 32 142
1 32 142
2 32 142
3 32 142
0 33 142
1 33 142
2 33 142
3 33 142
0 34 142
1 34 142
2 34 142
3 34 142
0 35 142
1 35 142
2 35 142
3 35 142
0 36 142
1 36 142
2 36 142
3 36 142
0 37 142
1 37 142
2 37 142
3 37 142
0 38 142
1 38 142
2 38 142
3 38 142
0 39 142
1 39 142
2 39 142
3 39 142
0 40 142
1 40 142
2 40 142
3 40 142
0 41 142
1 41 142
2 41 142
3 41 142
0 42 142
1 42 142
2 42 142
3 42 142
0 43 142
1 43 142
2 43 142
3 43 142
0 44 142
1 44 142
2 44 142
3 44 142
0 45 142
1 45 142
2 45 142
3 45 142
0 46 142
1 46 142
2 46 142
3 46 142
0 47 142
1 47 142
2 47 142
3 47 142
0 48 142
1 48 142
2 48 142
3 48 142
0 49 142
1 49 142
2 49 142
3 49 142
0 50 142
1 50 142
2 50 142
3 50 142
0 51 142
1 51 142
2 51 142
3 51 142
0 52 142
1 52 142
2 52 142
3 52 142
0 53 142
1 53 142
2 53 142
3 53 142
0 54 142
1 54 142
2 54 142
3 54 142
0 55 142
1 55 142
2 55 142
3 55 142
0 56 142
1 56 142
2 56 142
3 56 142
0 57 142
1 57 142
2 57 142
3 57 142
0 58 142
1 58 142
2 58 142
3 58 142
0 59 142
1 59 142
2 59 142
3 59 142
0 60 142
1 60 142
2 60 142
3 60 142
0 61 142
1 61 142
2 61 142
3 61 142
0 62 142
1 62 142
2 62 142
3 62 142
0 63 142
1 63 142
2 63 142
3 63 142
0 64 142
1 64 142
2 64 142
3 64 142
0 65 142
1 65 142
2 65 142
3 65 142
0 66 142
1 66 142
2 66 142
3 66 142
0 0 143
1 0 143
2 0 143
3 0 143
0 1 143
1 1 143
2 1 143
3 1 143
0 2 143
1 2 143
2 2 143
3 2 143
0 3 143
1 3 143
2 3 143
3 3 143
0 4 143
1 4 143
2 4 143
3 4 143
0 5 143
1 5 143
2 5 143
3 5 143
0 6 143
1 6 143
2 6 143
3 6 143
0 7 143
1 7 143
2 7 143
3 7 143
0 8 143
1 8 143
2 8 143
3 8 143
0 9 143
1 9 143
2 9 143
3 9 143
0 10 143
1 10 143
2 10 143
3 10 143
0 11 143
1 11 143
2 11 143
3 11 143
0 12 143
1 12 143
2 12 143
3 12 143
0 13 143
1 13 143
2 13 143
3 13 143
0 14 143
1 14 143
2 14 143
3 14 143
0 15 143
1 15 143
2 15 143
3 15 143
0 16 143
1 16 143
2 16 143
3 16 143
0 17 143
1 17 143
2 17 143
3 17 143
0 18 143
1 18 143
2 18 143
3 18 143
0 19 143
1 19 143
2 19 143
3 19 143
0 20 143
1 20 143
2 20 143
3 20 143
0 21 143
1 21 143
2 21 143
3 21 143
0 22 143
1 22 143
2 22 143
3 22 143
0 23 143
1 23 143
2 23 143
3 23 143
0 24 143
1 24 143
2 24 143
3 24 143
0 25 143
1 25 143
2 25 143
3 25 143
0 26 143
1 26 143
2 26 143
3 26 143
0 27 143
1 27 143
2 27 143
3 27 143
0 28 143
1 28 143
2 28 143
3 28 143
0 29 143
1 29 143
2 29 143
3 29 143
0 30 143
1 30 143
2 30 143
3 30 143
0 31 143
1 31 143
2 31 143
3 31 143
0 32 143
1 32 143
2 32 143
3 32 143
0 33 143
1 33 143
2 33 143
3 33 143
0 34 143
1 34 143
2 34 143
3 34 143
0 35 143
1 35 143
2 35 143
3 35 143
0 36 143
1 36 143
2 36 143
3 36 143
0 37 143
1 37 143
2 37 143
3 37 143
0 38 143
1 38 143
2 38 143
3 38 143
0 39 143
1 39 143
2 39 143
3 39 143
0 40 143
1 40 143
2 40 143
3 40 143
0 41 143
1 41 143
2 41 143
3 41 143
0 42 143
1 42 143
2 42 143
3 42 143
0 43 143
1 43 143
2 43 143
3 43 143
0 44 143
1 44 143
2 44 143
3 44 143
0 45 143
1 45 143
2 45 143
3 45 143
0 46 143
1 46 143
2 46 143
3 46 143
0 47 143
1 47 143
2 47 143
3 47 143
0 48 143
1 48 143
2 48 143
3 48 143
0 49 143
1 49 143
2 49 143
3 49 143
0 50 143
1 50 143
2 50 143
3 50 143
0 51 143
1 51 143
2 51 143
3 51 143
0 52 143
1 52 143
2 52 143
3 52 143
0 53 143
1 53 143
2 53 143
3 53 143
0 54 143
1 54 143
2 54 143
3 54 143
0 55 143
1 55 143
2 55 143
3 55 143
0 56 143
1 56 143
2 56 143
3 56 143
0 57 143
1 57 143
2 57 143
3 57 143
0 58 143
1 58 143
2 58 143
3 58 143
0 59 143
1 59 143
2 59 143
3 59 143
0 60 143
1 60 143
2 60 143
3 60 143
0 61 143
1 61 143
2 61 143
3 61 143
0 62 143
1 62 143
2 62 143
3 62 143
0 63 143
1 63 143
2 63 143
3 63 143
0 64 143
1 64 143
2 64 143
3 64 143
0 65 143
1 65 143
2 65 143
3 65 143
0 66 143
1 66 143
2 66 143
3 66 143
0 0 144
1 0 144
2 0 144
3 0 144
0 1 144
1 1 144
2 1 144
3 1 144
0 2 144
1 2 144
2 2 144
3 2 144
0 3 144
1 3 144
2 3 144
3 3 144
0 4 144
1 4 144
2 4 144
3 4 144
0 5 144
1 5 144
2 5 144
3 5 144
0 6 144
1 6 144
2 6 144
3 6 144
0 7 144
1 7 144
2 7 144
3 7 144
0 8 144
1 8 144
2 8 144
3 8 144
0 9 144
1 9 144
2 9 144
3 9 144
0 10 144
1 10 144
2 10 144
3 10 144
0 11 144
1 11 144
2 11 144
3 11 144
0 12 144
1 12 144
2 12 144
3 12 144
0 13 144
1 13 144
2 13 144
3 13 144
0 14 144
1 14 144
2 14 144
3 14 144
0 15 144
1 15 144
2 15 144
3 15 144
0 16 144
1 16 144
2 16 144
3 16 144
0 17 144
1 17 144
2 17 144
3 17 144
0 18 144
1 18 144
2 18 144
3 18 144
0 19 144
1 19 144
2 19 144
3 19 144
0 20 144
1 20 144
2 20 144
3 20 144
0 21 144
1 21 144
2 21 144
3 21 144
0 22 144
1 22 144
2 22 144
3 22 144
0 23 144
1 23 144
2 23 144
3 23 144
0 24 144
1 24 144
2 24 144
3 24 144
0 25 144
1 25 144
2 25 144
3 25 144
0 26 144
1 26 144
2 26 144
3 26 144
0 27 144
1 27 144
2 27 144
3 27 144
0 28 144
1 28 144
2 28 144
3 28 144
0 29 144
1 29 144
2 29 144
3 29 144
0 30 144
1 30 144
2 30 144
3 30 144
0 31 144
1 31 144
2 31 144
3 31 144
0 32 144
1 32 144
2 32 144
3 32 144
0 33 144
1 33 144
2 33 144
3 33 144
0 34 144
1 34 144
2 34 144
3 34 144
0 35 144
1 35 144
2 35 144
3 35 144
0 36 144
1 36 144
2 36 144
3 36 144
0 37 144
1 37 144
2 37 144
3 37 144
0 38 144
1 38 144
2 38 144
3 38 144
0 39 144
1 39 144
2 39 144
3 39 144
0 40 144
1 40 144
2 40 144
3 40 144
0 41 144
1 41 144
2 41 144
3 41 144
0 42 144
1 42 144
2 42 144
3 42 144
0 43 144
1 43 144
2 43 144
3 43 144
0 44 144
1 44 144
2 44 144
3 44 144
0 45 144
1 45 144
2 45 144
3 45 144
0 46 144
1 46 144
2 46 144
3 46 144
0 47 144
1 47 144
2 47 144
3 47 144
0 48 144
1 48 144
2 48 144
3 48 144
0 49 144
1 49 144
2 49 144
3 49 144
0 50 144
1 50 144
2 50 144
3 50 144
0 51 144
1 51 144
2 51 144
3 51 144
0 52 144
1 52 144
2 52 144
3 52 144
0 53 144
1 53 144
2 53 144
3 53 144
0 54 144
1 54 144
2 54 144
3 54 144
0 55 144
1 55 144
2 55 144
3 55 144
0 56 144
1 56 144
2 56 144
3 56 144
0 57 144
1 57 144
2 57 144
3 57 144
0 58 144
1 58 144
2 58 144
3 58 144
0 59 144
1 59 144
2 59 144
3 59 144
0 60 144
1 60 144
2 60 144
3 60 144
0 61 144
1 61 144
2 61 144
3 61 144
0 62 144
1 62 144
2 62 144
3 62 144
0 63 144
1 63 144
2 63 144
3 63 144
0 64 144
1 64 144
2 64 144
3 64 144
0 65 144
1 65 144
2 65 144
3 65 144
0 66 144
1 66 144
2 66 144
3 66 144
0 0 145
1 0 145
2 0 145
3 0 145
0 1 145
1 1 145
2 1 145
3 1 145
0 2 145
1 2 145
2 2 145
3 2 145
0 3 145
1 3 145
2 3 145
3 3 145
0 4 145
1 4 145
2 4 145
3 4 145
0 5 145
1 5 145
2 5 145
3 5 145
0 6 145
1 6 145
2 6 145
3 6 145
0 7 145
1 7 145
2 7 145
3 7 145
0 8 145
1 8 145
2 8 145
3 8 145
0 9 145
1 9 145
2 9 145
3 9 145
0 10 145
1 10 145
2 10 145
3 10 145
0 11 145
1 11 145
2 11 145
3 11 145
0 12 145
1 12 145
2 12 145
3 12 145
0 13 145
1 13 145
2 13 145
3 13 145
0 14 145
1 14 145
2 14 145
3 14 145
0 15 145
1 15 145
2 15 145
3 15 145
0 16 145
1 16 145
2 16 145
3 16 145
0 17 145
1 17 145
2 17 145
3 17 145
0 18 145
1 18 145
2 18 145
3 18 145
0 19 145
1 19 145
2 19 145
3 19 145
0 20 145
1 20 145
2 20 145
3 20 145
0 21 145
1 21 145
2 21 145
3 21 145
0 22 145
1 22 145
2 22 145
3 22 145
0 23 145
1 23 145
2 23 145
3 23 145
0 24 145
1 24 145
2 24 145
3 24 145
0 25 145
1 25 145
2 25 145
3 25 145
0 26 145
1 26 145
2 26 145
3 26 145
0 27 145
1 27 145
2 27 145
3 27 145
0 28 145
1 28 145
2 28 145
3 28 145
0 29 145
1 29 145
2 29 145
3 29 145
0 30 145
1 30 145
2 30 145
3 30 145
0 31 145
1 31 145
2 31 145
3 31 145
0 32 145
1 32 145
2 32 145
3 32 145
0 33 145
1 33 145
2 33 145
3 33 145
0 34 145
1 34 145
2 34 145
3 34 145
0 35 145
1 35 145
2 35 145
3 35 145
0 36 145
1 36 145
2 36 145
3 36 145
0 37 145
1 37 145
2 37 145
3 37 145
0 38 145
1 38 145
2 38 145
3 38 145
0 39 145
1 39 145
2 39 145
3 39 145
0 40 145
1 40 145
2 40 145
3 40 145
0 41 145
1 41 145
2 41 145
3 41 145
0 42 145
1 42 145
2 42 145
3 42 145
0 43 145
1 43 145
2 43 145
3 43 145
0 44 145
1 44 145
2 44 145
3 44 145
0 45 145
1 45 145
2 45 145
3 45 145
0 46 145
1 46 145
2 46 145
3 46 145
0 47 145
1 47 145
2 47 145
3 47 145
0 48 145
1 48 145
2 48 145
3 48 145
0 49 145
1 49 145
2 49 145
3 49 145
0 50 145
1 50 145
2 50 145
3 50 145
0 51 145
1 51 145
2 51 145
3 51 145
0 52 145
1 52 145
2 52 145
3 52 145
0 53 145
1 53 145
2 53 145
3 53 145
0 54 145
1 54 145
2 54 145
3 54 145
0 55 145
1 55 145
2 55 145
3 55 145
0 56 145
1 56 145
2 56 145
3 56 145
0 57 145
1 57 145
2 57 145
3 57 145
0 58 145
1 58 145
2 58 145
3 58 145
0 59 145
1 59 145
2 59 145
3 59 145
0 60 145
1 60 145
2 60 145
3 60 145
0 61 145
1 61 145
2 61 145
3 61 145
0 62 145
1 62 145
2 62 145
3 62 145
0 63 145
1 63 145
2 63 145
3 63 145
0 64 145
1 64 145
2 64 145
3 64 145
0 65 145
1 65 145
2 65 145
3 65 145
0 66 145
1 66 145
2 66 145
3 66 145
0 0 146
1 0 146
2 0 146
3 0 146
0 1 146
1 1 146
2 1 146
3 1 146
0 2 146
1 2 146
2 2 146
3 2 146
0 3 146
1 3 146
2 3 146
3 3 146
0 4 146
1 4 146
2 4 146
3 4 146
0 5 146
1 5 146
2 5 146
3 5 146
0 6 146
1 6 146
2 6 146
3 6 146
0 7 146
1 7 146
2 7 146
3 7 146
0 8 146
1 8 146
2 8 146
3 8 146
0 9 146
1 9 146
2 9 146
3 9 146
0 10 146
1 10 146
2 10 146
3 10 146
0 11 146
1 11 146
2 11 146
3 11 146
0 12 146
1 12 146
2 12 146
3 12 146
0 13 146
1 13 146
2 13 146
3 13 146
0 14 146
1 14 146
2 14 146
3 14 146
0 15 146
1 15 146
2 15 146
3 15 146
0 16 146
1 16 146
2 16 146
3 16 146
0 17 146
1 17 146
2 17 146
3 17 146
0 18 146
1 18 146
2 18 146
3 18 146
0 19 146
1 19 146
2 19 146
3 19 146
0 20 146
1 20 146
2 20 146
3 20 146
0 21 146
1 21 146
2 21 146
3 21 146
0 22 146
1 22 146
2 22 146
3 22 146
0 23 146
1 23 146
2 23 146
3 23 146
0 24 146
1 24 146
2 24 146
3 24 146
0 25 146
1 25 146
2 25 146
3 25 146
0 26 146
1 26 146
2 26 146
3 26 146
0 27 146
1 27 146
2 27 146
3 27 146
0 28 146
1 28 146
2 28 146
3 28 146
0 29 146
1 29 146
2 29 146
3 29 146
0 30 146
1 30 146
2 30 146
3 30 146
0 31 146
1 31 146
2 31 146
3 31 146
0 32 146
1 32 146
2 32 146
3 32 146
0 33 146
1 33 146
2 33 146
3 33 146
0 34 146
1 34 146
2 34 146
3 34 146
0 35 146
1 35 146
2 35 146
3 35 146
0 36 146
1 36 146
2 36 146
3 36 146
0 37 146
1 37 146
2 37 146
3 37 146
0 38 146
1 38 146
2 38 146
3 38 146
0 39 146
1 39 146
2 39 146
3 39 146
0 40 146
1 40 146
2 40 146
3 40 146
0 41 146
1 41 146
2 41 146
3 41 146
0 42 146
1 42 146
2 42 146
3 42 146
0 43 146
1 43 146
2 43 146
3 43 146
0 44 146
1 44 146
2 44 146
3 44 146
0 45 146
1 45 146
2 45 146
3 45 146
0 46 146
1 46 146
2 46 146
3 46 146
0 47 146
1 47 146
2 47 146
3 47 146
0 48 146
1 48 146
2 48 146
3 48 146
0 49 146
1 49 146
2 49 146
3 49 146
0 50 146
1 50 146
2 50 146
3 50 146
0 51 146
1 51 146
2 51 146
3 51 146
0 52 146
1 52 146
2 52 146
3 52 146
0 53 146
1 53 146
2 53 146
3 53 146
0 54 146
1 54 146
2 54 146
3 54 146
0 55 146
1 55 146
2 55 146
3 55 146
0 56 146
1 56 146
2 56 146
3 56 146
0 57 146
1 57 146
2 57 146
3 57 146
0 58 146
1 58 146
2 58 146
3 58 146
0 59 146
1 59 146
2 59 146
3 59 146
0 60 146
1 60 146
2 60 146
3 60 146
0 61 146
1 61 146
2 61 146
3 61 146
0 62 146
1 62 146
2 62 146
3 62 146
0 63 146
1 63 146
2 63 146
3 63 146
0 64 146
1 64 146
2 64 146
3 64 146
0 65 146
1 65 146
2 65 146
3 65 146
0 66 146
1 66 146
2 66 146
3 66 146
0 0 147
1 0 147
2 0 147
3 0 147
0 1 147
1 1 147
2 1 147
3 1 147
0 2 147
1 2 147
2 2 147
3 2 147
0 3 147
1 3 147
2 3 147
3 3 147
0 4 147
1 4 147
2 4 147
3 4 147
0 5 147
1 5 147
2 5 147
3 5 147
0 6 147
1 6 147
2 6 147
3 6 147
0 7 147
1 7 147
2 7 147
3 7 147
0 8 147
1 8 147
2 8 147
3 8 147
0 9 147
1 9 147
2 9 147
3 9 147
0 10 147
1 10 147
2 10 147
3 10 147
0 11 147
1 11 147
2 11 147
3 11 147
0 12 147
1 12 147
2 12 147
3 12 147
0 13 147
1 13 147
2 13 147
3 13 147
0 14 147
1 14 147
2 14 147
3 14 147
0 15 147
1 15 147
2 15 147
3 15 147
0 16 147
1 16 147
2 16 147
3 16 147
0 17 147
1 17 147
2 17 147
3 17 147
0 18 147
1 18 147
2 18 147
3 18 147
0 19 147
1 19 147
2 19 147
3 19 147
0 20 147
1 20 147
2 20 147
3 20 147
0 21 147
1 21 147
2 21 147
3 21 147
0 22 147
1 22 147
2 22 147
3 22 147
0 23 147
1 23 147
2 23 147
3 23 147
0 24 147
1 24 147
2 24 147
3 24 147
0 25 147
1 25 147
2 25 147
3 25 147
0 26 147
1 26 147
2 26 147
3 26 147
0 27 147
1 27 147
2 27 147
3 27 147
0 28 147
1 28 147
2 28 147
3 28 147
0 29 147
1 29 147
2 29 147
3 29 147
0 30 147
1 30 147
2 30 147
3 30 147
0 31 147
1 31 147
2 31 147
3 31 147
0 32 147
1 32 147
2 32 147
3 32 147
0 33 147
1 33 147
2 33 147
3 33 147
0 34 147
1 34 147
2 34 147
3 34 147
0 35 147
1 35 147
2 35 147
3 35 147
0 36 147
1 36 147
2 36 147
3 36 147
0 37 147
1 37 147
2 37 147
3 37 147
0 38 147
1 38 147
2 38 147
3 38 147
0 39 147
1 39 147
2 39 147
3 39 147
0 40 147
1 40 147
2 40 147
3 40 147
0 41 147
1 41 147
2 41 147
3 41 147
0 42 147
1 42 147
2 42 147
3 42 147
0 43 147
1 43 147
2 43 147
3 43 147
0 44 147
1 44 147
2 44 147
3 44 147
0 45 147
1 45 147
2 45 147
3 45 147
0 46 147
1 46 147
2 46 147
3 46 147
0 47 147
1 47 147
2 47 147
3 47 147
0 48 147
1 48 147
2 48 147
3 48 147
0 49 147
1 49 147
2 49 147
3 49 147
0 50 147
1 50 147
2 50 147
3 50 147
0 51 147
1 51 147
2 51 147
3 51 147
0 52 147
1 52 147
2 52 147
3 52 147
0 53 147
1 53 147
2 53 147
3 53 147
0 54 147
1 54 147
2 54 147
3 54 147
0 55 147
1 55 147
2 55 147
3 55 147
0 56 147
1 56 147
2 56 147
3 56 147
0 57 147
1 57 147
2 57 147
3 57 147
0 58 147
1 58 147
2 58 147
3 58 147
0 59 147
1 59 147
2 59 147
3 59 147
0 60 147
1 60 147
2 60 147
3 60 147
0 61 147
1 61 147
2 61 147
3 61 147
0 62 147
1 62 147
2 62 147
3 62 147
0 63 147
1 63 147
2 63 147
3 63 147
0 64 147
1 64 147
2 64 147
3 64 147
0 65 147
1 65 147
2 65 147
3 65 147
0 66 147
1 66 147
2 66 147
3 66 147
0 0 148
1 0 148
2 0 148
3 0 148
0 1 148
1 1 148
2 1 148
3 1 148
0 2 148
1 2 148
2 2 148
3 2 148
0 3 148
1 3 148
2 3 148
3 3 148
0 4 148
1 4 148
2 4 148
3 4 148
0 5 148
1 5 148
2 5 148
3 5 148
0 6 148
1 6 148
2 6 148
3 6 148
0 7 148
1 7 148
2 7 148
3 7 148
0 8 148
1 8 148
2 8 148
3 8 148
0 9 148
1 9 148
2 9 148
3 9 148
0 10 148
1 10 148
2 10 148
3 10 148
0 11 148
1 11 148
2 11 148
3 11 148
0 12 148
1 12 148
2 12 148
3 12 148
0 13 148
1 13 148
2 13 148
3 13 148
0 14 148
1 14 148
2 14 148
3 14 148
0 15 148
1 15 148
2 15 148
3 15 148
0 16 148
1 16 148
2 16 148
3 16 148
0 17 148
1 17 148
2 17 148
3 17 148
0 18 148
1 18 148
2 18 148
3 18 148
0 19 148
1 19 148
2 19 148
3 19 148
0 20 148
1 20 148
2 20 148
3 20 148
0 21 148
1 21 148
2 21 148
3 21 148
0 22 148
1 22 148
2 22 148
3 22 148
0 23 148
1 23 148
2 23 148
3 23 148
0 24 148
1 24 148
2 24 148
3 24 148
0 25 148
1 25 148
2 25 148
3 25 148
0 26 148
1 26 148
2 26 148
3 26 148
0 27 148
1 27 148
2 27 148
3 27 148
0 28 148
1 28 148
2 28 148
3 28 148
0 29 148
1 29 148
2 29 148
3 29 148
0 30 148
1 30 148
2 30 148
3 30 148
0 31 148
1 31 148
2 31 148
3 31 148
0 32 148
1 32 148
2 32 148
3 32 148
0 33 148
1 33 148
2 33 148
3 33 148
0 34 148
1 34 148
2 34 148
3 34 148
0 35 148
1 35 148
2 35 148
3 35 148
0 36 148
1 36 148
2 36 148
3 36 148
0 37 148
1 37 148
2 37 148
3 37 148
0 38 148
1 38 148
2 38 148
3 38 148
0 39 148
1 39 148
2 39 148
3 39 148
0 40 148
1 40 148
2 40 148
3 40 148
0 41 148
1 41 148
2 41 148
3 41 148
0 42 148
1 42 148
2 42 148
3 42 148
0 43 148
1 43 148
2 43 148
3 43 148
0 44 148
1 44 148
2 44 148
3 44 148
0 45 148
1 45 148
2 45 148
3 45 148
0 46 148
1 46 148
2 46 148
3 46 148
0 47 148
1 47 148
2 47 148
3 47 148
0 48 148
1 48 148
2 48 148
3 48 148
0 49 148
1 49 148
2 49 148
3 49 148
0 50 148
1 50 148
2 50 148
3 50 148
0 51 148
1 51 148
2 51 148
3 51 148
0 52 148
1 52 148
2 52 148
3 52 148
0 53 148
1 53 148
2 53 148
3 53 148
0 54 148
1 54 148
2 54 148
3 54 148
0 55 148
1 55 148
2 55 148
3 55 148
0 56 148
1 56 148
2 56 148
3 56 148
0 57 148
1 57 148
2 57 148
3 57 148
0 58 148
1 58 148
2 58 148
3 58 148
0 59 148
1 59 148
2 59 148
3 59 148
0 60 148
1 60 148
2 60 148
3 60 148
0 61 148
1 61 148
2 61 148
3 61 148
0 62 148
1 62 148
2 62 148
3 62 148
0 63 148
1 63 148
2 63 148
3 63 148
0 64 148
1 64 148
2 64 148
3 64 148
0 65 148
1 65 148
2 65 148
3 65 148
0 66 148
1 66 148
2 66 148
3 66 148
0 0 149
1 0 149
2 0 149
3 0 149
0 1 149
1 1 149
2 1 149
3 1 149
0 2 149
1 2 149
2 2 149
3 2 149
0 3 149
1 3 149
2 3 149
3 3 149
0 4 149
1 4 149
2 4 149
3 4 149
0 5 149
1 5 149
2 5 149
3 5 149
0 6 149
1 6 149
2 6 149
3 6 149
0 7 149
1 7 149
2 7 149
3 7 149
0 8 149
1 8 149
2 8 149
3 8 149
0 9 149
1 9 149
2 9 149
3 9 149
0 10 149
1 10 149
2 10 149
3 10 149
0 11 149
1 11 149
2 11 149
3 11 149
0 12 149
1 12 149
2 12 149
3 12 149
0 13 149
1 13 149
2 13 149
3 13 149
0 14 149
1 14 149
2 14 149
3 14 149
0 15 149
1 15 149
2 15 149
3 15 149
0 16 149
1 16 149
2 16 149
3 16 149
0 17 149
1 17 149
2 17 149
3 17 149
0 18 149
1 18 149
2 18 149
3 18 149
0 19 149
1 19 149
2 19 149
3 19 149
0 20 149
1 20 149
2 20 149
3 20 149
0 21 149
1 21 149
2 21 149
3 21 149
0 22 149
1 22 149
2 22 149
3 22 149
0 23 149
1 23 149
2 23 149
3 23 149
0 24 149
1 24 149
2 24 149
3 24 149
0 25 149
1 25 149
2 25 149
3 25 149
0 26 149
1 26 149
2 26 149
3 26 149
0 27 149
1 27 149
2 27 149
3 27 149
0 28 149
1 28 149
2 28 149
3 28 149
0 29 149
1 29 149
2 29 149
3 29 149
0 30 149
1 30 149
2 30 149
3 30 149
0 31 149
1 31 149
2 31 149
3 31 149
0 32 149
1 32 149
2 32 149
3 32 149
0 33 149
1 33 149
2 33 149
3 33 149
0 34 149
1 34 149
2 34 149
3 34 149
0 35 149
1 35 149
2 35 149
3 35 149
0 36 149
1 36 149
2 36 149
3 36 149
0 37 149
1 37 149
2 37 149
3 37 149
0 38 149
1 38 149
2 38 149
3 38 149
0 39 149
1 39 149
2 39 149
3 39 149
0 40 149
1 40 149
2 40 149
3 40 149
0 41 149
1 41 149
2 41 149
3 41 149
0 42 149
1 42 149
2 42 149
3 42 149
0 43 149
1 43 149
2 43 149
3 43 149
0 44 149
1 44 149
2 44 149
3 44 149
0 45 149
1 45 149
2 45 149
3 45 149
0 46 149
1 46 149
2 46 149
3 46 149
0 47 149
1 47 149
2 47 149
3 47 149
0 48 149
1 48 149
2 48 149
3 48 149
0 49 149
1 49 149
2 49 149
3 49 149
0 50 149
1 50 149
2 50 149
3 50 149
0 51 149
1 51 149
2 51 149
3 51 149
0 52 149
1 52 149
2 52 149
3 52 149
0 53 149
1 53 149
2 53 149
3 53 149
0 54 149
1 54 149
2 54 149
3 54 149
0 55 149
1 55 149
2 55 149
3 55 149
0 56 149
1 56 149
2 56 149
3 56 149
0 57 149
1 57 149
2 57 149
3 57 149
0 58 149
1 58 149
2 58 149
3 58 149
0 59 149
1 59 149
2 59 149
3 59 149
0 60 149
1 60 149
2 60 149
3 60 149
0 61 149
1 61 149
2 61 149
3 61 149
0 62 149
1 62 149
2 62 149
3 62 149
0 63 149
1 63 149
2 63 149
3 63 149
0 64 149
1 64 149
2 64 149
3 64 149
0 65 149
1 65 149
2 65 149
3 65 149
0 66 149
1 66 149
2 66 149
3 66 149
0 0 150
1 0 150
2 0 150
3 0 150
0 1 150
1 1 150
2 1 150
3 1 150
0 2 150
1 2 150
2 2 150
3 2 150
0 3 150
1 3 150
2 3 150
3 3 150
0 4 150
1 4 150
2 4 150
3 4 150
0 5 150
1 5 150
2 5 150
3 5 150
0 6 150
1 6 150
2 6 150
3 6 150
0 7 150
1 7 150
2 7 150
3 7 150
0 8 150
1 8 150
2 8 150
3 8 150
0 9 150
1 9 150
2 9 150
3 9 150
0 10 150
1 10 150
2 10 150
3 10 150
0 11 150
1 11 150
2 11 150
3 11 150
0 12 150
1 12 150
2 12 150
3 12 150
0 13 150
1 13 150
2 13 150
3 13 150
0 14 150
1 14 150
2 14 150
3 14 150
0 15 150
1 15 150
2 15 150
3 15 150
0 16 150
1 16 150
2 16 150
3 16 150
0 17 150
1 17 150
2 17 150
3 17 150
0 18 150
1 18 150
2 18 150
3 18 150
0 19 150
1 19 150
2 19 150
3 19 150
0 20 150
1 20 150
2 20 150
3 20 150
0 21 150
1 21 150
2 21 150
3 21 150
0 22 150
1 22 150
2 22 150
3 22 150
0 23 150
1 23 150
2 23 150
3 23 150
0 24 150
1 24 150
2 24 150
3 24 150
0 25 150
1 25 150
2 25 150
3 25 150
0 26 150
1 26 150
2 26 150
3 26 150
0 27 150
1 27 150
2 27 150
3 27 150
0 28 150
1 28 150
2 28 150
3 28 150
0 29 150
1 29 150
2 29 150
3 29 150
0 30 150
1 30 150
2 30 150
3 30 150
0 31 150
1 31 150
2 31 150
3 31 150
0 32 150
1 32 150
2 32 150
3 32 150
0 33 150
1 33 150
2 33 150
3 33 150
0 34 150
1 34 150
2 34 150
3 34 150
0 35 150
1 35 150
2 35 150
3 35 150
0 36 150
1 36 150
2 36 150
3 36 150
0 37 150
1 37 150
2 37 150
3 37 150
0 38 150
1 38 150
2 38 150
3 38 150
0 39 150
1 39 150
2 39 150
3 39 150
0 40 150
1 40 150
2 40 150
3 40 150
0 41 150
1 41 150
2 41 150
3 41 150
0 42 150
1 42 150
2 42 150
3 42 150
0 43 150
1 43 150
2 43 150
3 43 150
0 44 150
1 44 150
2 44 150
3 44 150
0 45 150
1 45 150
2 45 150
3 45 150
0 46 150
1 46 150
2 46 150
3 46 150
0 47 150
1 47 150
2 47 150
3 47 150
0 48 150
1 48 150
2 48 150
3 48 150
0 49 150
1 49 150
2 49 150
3 49 150
0 50 150
1 50 150
2 50 150
3 50 150
0 51 150
1 51 150
2 51 150
3 51 150
0 52 150
1 52 150
2 52 150
3 52 150
0 53 150
1 53 150
2 53 150
3 53 150
0 54 150
1 54 150
2 54 150
3 54 150
0 55 150
1 55 150
2 55 150
3 55 150
0 56 150
1 56 150
2 56 150
3 56 150
0 57 150
1 57 150
2 57 150
3 57 150
0 58 150
1 58 150
2 58 150
3 58 150
0 59 150
1 59 150
2 59 150
3 59 150
0 60 150
1 60 150
2 60 150
3 60 150
0 61 150
1 61 150
2 61 150
3 61 150
0 62 150
1 62 150
2 62 150
3 62 150
0 63 150
1 63 150
2 63 150
3 63 150
0 64 150
1 64 150
2 64 150
3 64 150
0 65 150
1 65 150
2 65 150
3 65 150
0 66 150
1 66 150
2 66 150
3 66 150
0 0 151
1 0 151
2 0 151
3 0 151
0 1 151
1 1 151
2 1 151
3 1 151
0 2 151
1 2 151
2 2 151
3 2 151
0 3 151
1 3 151
2 3 151
3 3 151
0 4 151
1 4 151
2 4 151
3 4 151
0 5 151
1 5 151
2 5 151
3 5 151
0 6 151
1 6 151
2 6 151
3 6 151
0 7 151
1 7 151
2 7 151
3 7 151
0 8 151
1 8 151
2 8 151
3 8 151
0 9 151
1 9 151
2 9 151
3 9 151
0 10 151
1 10 151
2 10 151
3 10 151
0 11 151
1 11 151
2 11 151
3 11 151
0 12 151
1 12 151
2 12 151
3 12 151
0 13 151
1 13 151
2 13 151
3 13 151
0 14 151
1 14 151
2 14 151
3 14 151
0 15 151
1 15 151
2 15 151
3 15 151
0 16 151
1 16 151
2 16 151
3 16 151
0 17 151
1 17 151
2 17 151
3 17 151
0 18 151
1 18 151
2 18 151
3 18 151
0 19 151
1 19 151
2 19 151
3 19 151
0 20 151
1 20 151
2 20 151
3 20 151
0 21 151
1 21 151
2 21 151
3 21 151
0 22 151
1 22 151
2 22 151
3 22 151
0 23 151
1 23 151
2 23 151
3 23 151
0 24 151
1 24 151
2 24 151
3 24 151
0 25 151
1 25 151
2 25 151
3 25 151
0 26 151
1 26 151
2 26 151
3 26 151
0 27 151
1 27 151
2 27 151
3 27 151
0 28 151
1 28 151
2 28 151
3 28 151
0 29 151
1 29 151
2 29 151
3 29 151
0 30 151
1 30 151
2 30 151
3 30 151
0 31 151
1 31 151
2 31 151
3 31 151
0 32 151
1 32 151
2 32 151
3 32 151
0 33 151
1 33 151
2 33 151
3 33 151
0 34 151
1 34 151
2 34 151
3 34 151
0 35 151
1 35 151
2 35 151
3 35 151
0 36 151
1 36 151
2 36 151
3 36 151
0 37 151
1 37 151
2 37 151
3 37 151
0 38 151
1 38 151
2 38 151
3 38 151
0 39 151
1 39 151
2 39 151
3 39 151
0 40 151
1 40 151
2 40 151
3 40 151
0 41 151
1 41 151
2 41 151
3 41 151
0 42 151
1 42 151
2 42 151
3 42 151
0 43 151
1 43 151
2 43 151
3 43 151
0 44 151
1 44 151
2 44 151
3 44 151
0 45 151
1 45 151
2 45 151
3 45 151
0 46 151
1 46 151
2 46 151
3 46 151
0 47 151
1 47 151
2 47 151
3 47 151
0 48 151
1 48 151
2 48 151
3 48 151
0 49 151
1 49 151
2 49 151
3 49 151
0 50 151
1 50 151
2 50 151
3 50 151
0 51 151
1 51 151
2 51 151
3 51 151
0 52 151
1 52 151
2 52 151
3 52 151
0 53 151
1 53 151
2 53 151
3 53 151
0 54 151
1 54 151
2 54 151
3 54 151
0 55 151
1 55 151
2 55 151
3 55 151
0 56 151
1 56 151
2 56 151
3 56 151
0 57 151
1 57 151
2 57 151
3 57 151
0 58 151
1 58 151
2 58 151
3 58 151
0 59 151
1 59 151
2 59 151
3 59 151
0 60 151
1 60 151
2 60 151
3 60 151
0 61 151
1 61 151
2 61 151
3 61 151
0 62 151
1 62 151
2 62 151
3 62 151
0 63 151
1 63 151
2 63 151
3 63 151
0 64 151
1 64 151
2 64 151
3 64 151
0 65 151
1 65 151
2 65 151
3 65 151
0 66 151
1 66 151
2 66 151
3 66 151
0 0 152
1 0 152
2 0 152
3 0 152
0 1 152
1 1 152
2 1 152
3 1 152
0 2 152
1 2 152
2 2 152
3 2 152
0 3 152
1 3 152
2 3 152
3 3 152
0 4 152
1 4 152
2 4 152
3 4 152
0 5 152
1 5 152
2 5 152
3 5 152
0 6 152
1 6 152
2 6 152
3 6 152
0 7 152
1 7 152
2 7 152
3 7 152
0 8 152
1 8 152
2 8 152
3 8 152
0 9 152
1 9 152
2 9 152
3 9 152
0 10 152
1 10 152
2 10 152
3 10 152
0 11 152
1 11 152
2 11 152
3 11 152
0 12 152
1 12 152
2 12 152
3 12 152
0 13 152
1 13 152
2 13 152
3 13 152
0 14 152
1 14 152
2 14 152
3 14 152
0 15 152
1 15 152
2 15 152
3 15 152
0 16 152
1 16 152
2 16 152
3 16 152
0 17 152
1 17 152
2 17 152
3 17 152
0 18 152
1 18 152
2 18 152
3 18 152
0 19 152
1 19 152
2 19 152
3 19 152
0 20 152
1 20 152
2 20 152
3 20 152
0 21 152
1 21 152
2 21 152
3 21 152
0 22 152
1 22 152
2 22 152
3 22 152
0 23 152
1 23 152
2 23 152
3 23 152
0 24 152
1 24 152
2 24 152
3 24 152
0 25 152
1 25 152
2 25 152
3 25 152
0 26 152
1 26 152
2 26 152
3 26 152
0 27 152
1 27 152
2 27 152
3 27 152
0 28 152
1 28 152
2 28 152
3 28 152
0 29 152
1 29 152
2 29 152
3 29 152
0 30 152
1 30 152
2 30 152
3 30 152
0 31 152
1 31 152
2 31 152
3 31 152
0 32 152
1 32 152
2 32 152
3 32 152
0 33 152
1 33 152
2 33 152
3 33 152
0 34 152
1 34 152
2 34 152
3 34 152
0 35 152
1 35 152
2 35 152
3 35 152
0 36 152
1 36 152
2 36 152
3 36 152
0 37 152
1 37 152
2 37 152
3 37 152
0 38 152
1 38 152
2 38 152
3 38 152
0 39 152
1 39 152
2 39 152
3 39 152
0 40 152
1 40 152
2 40 152
3 40 152
0 41 152
1 41 152
2 41 152
3 41 152
0 42 152
1 42 152
2 42 152
3 42 152
0 43 152
1 43 152
2 43 152
3 43 152
0 44 152
1 44 152
2 44 152
3 44 152
0 45 152
1 45 152
2 45 152
3 45 152
0 46 152
1 46 152
2 46 152
3 46 152
0 47 152
1 47 152
2 47 152
3 47 152
0 48 152
1 48 152
2 48 152
3 48 152
0 49 152
1 49 152
2 49 152
3 49 152
0 50 152
1 50 152
2 50 152
3 50 152
0 51 152
1 51 152
2 51 152
3 51 152
0 52 152
1 52 152
2 52 152
3 52 152
0 53 152
1 53 152
2 53 152
3 53 152
0 54 152
1 54 152
2 54 152
3 54 152
0 55 152
1 55 152
2 55 152
3 55 152
0 56 152
1 56 152
2 56 152
3 56 152
0 57 152
1 57 152
2 57 152
3 57 152
0 58 152
1 58 152
2 58 152
3 58 152
0 59 152
1 59 152
2 59 152
3 59 152
0 60 152
1 60 152
2 60 152
3 60 152
0 61 152
1 61 152
2 61 152
3 61 152
0 62 152
1 62 152
2 62 152
3 62 152
0 63 152
1 63 152
2 63 152
3 63 152
0 64 152
1 64 152
2 64 152
3 64 152
0 65 152
1 65 152
2 65 152
3 65 152
0 66 152
1 66 152
2 66 152
3 66 152
0 0 153
1 0 153
2 0 153
3 0 153
0 1 153
1 1 153
2 1 153
3 1 153
0 2 153
1 2 153
2 2 153
3 2 153
0 3 153
1 3 153
2 3 153
3 3 153
0 4 153
1 4 153
2 4 153
3 4 153
0 5 153
1 5 153
2 5 153
3 5 153
0 6 153
1 6 153
2 6 153
3 6 153
0 7 153
1 7 153
2 7 153
3 7 153
0 8 153
1 8 153
2 8 153
3 8 153
0 9 153
1 9 153
2 9 153
3 9 153
0 10 153
1 10 153
2 10 153
3 10 153
0 11 153
1 11 153
2 11 153
3 11 153
0 12 153
1 12 153
2 12 153
3 12 153
0 13 153
1 13 153
2 13 153
3 13 153
0 14 153
1 14 153
2 14 153
3 14 153
0 15 153
1 15 153
2 15 153
3 15 153
0 16 153
1 16 153
2 16 153
3 16 153
0 17 153
1 17 153
2 17 153
3 17 153
0 18 153
1 18 153
2 18 153
3 18 153
0 19 153
1 19 153
2 19 153
3 19 153
0 20 153
1 20 153
2 20 153
3 20 153
0 21 153
1 21 153
2 21 153
3 21 153
0 22 153
1 22 153
2 22 153
3 22 153
0 23 153
1 23 153
2 23 153
3 23 153
0 24 153
1 24 153
2 24 153
3 24 153
0 25 153
1 25 153
2 25 153
3 25 153
0 26 153
1 26 153
2 26 153
3 26 153
0 27 153
1 27 153
2 27 153
3 27 153
0 28 153
1 28 153
2 28 153
3 28 153
0 29 153
1 29 153
2 29 153
3 29 153
0 30 153
1 30 153
2 30 153
3 30 153
0 31 153
1 31 153
2 31 153
3 31 153
0 32 153
1 32 153
2 32 153
3 32 153
0 33 153
1 33 153
2 33 153
3 33 153
0 34 153
1 34 153
2 34 153
3 34 153
0 35 153
1 35 153
2 35 153
3 35 153
0 36 153
1 36 153
2 36 153
3 36 153
0 37 153
1 37 153
2 37 153
3 37 153
0 38 153
1 38 153
2 38 153
3 38 153
0 39 153
1 39 153
2 39 153
3 39 153
0 40 153
1 40 153
2 40 153
3 40 153
0 41 153
1 41 153
2 41 153
3 41 153
0 42 153
1 42 153
2 42 153
3 42 153
0 43 153
1 43 153
2 43 153
3 43 153
0 44 153
1 44 153
2 44 153
3 44 153
0 45 153
1 45 153
2 45 153
3 45 153
0 46 153
1 46 153
2 46 153
3 46 153
0 47 153
1 47 153
2 47 153
3 47 153
0 48 153
1 48 153
2 48 153
3 48 153
0 49 153
1 49 153
2 49 153
3 49 153
0 50 153
1 50 153
2 50 153
3 50 153
0 51 153
1 51 153
2 51 153
3 51 153
0 52 153
1 52 153
2 52 153
3 52 153
0 53 153
1 53 153
2 53 153
3 53 153
0 54 153
1 54 153
2 54 153
3 54 153
0 55 153
1 55 153
2 55 153
3 55 153
0 56 153
1 56 153
2 56 153
3 56 153
0 57 153
1 57 153
2 57 153
3 57 153
0 58 153
1 58 153
2 58 153
3 58 153
0 59 153
1 59 153
2 59 153
3 59 153
0 60 153
1 60 153
2 60 153
3 60 153
0 61 153
1 61 153
2 61 153
3 61 153
0 62 153
1 62 153
2 62 153
3 62 153
0 63 153
1 63 153
2 63 153
3 63 153
0 64 153
1 64 153
2 64 153
3 64 153
0 65 153
1 65 153
2 65 153
3 65 153
0 66 153
1 66 153
2 66 153
3 66 153
0 0 154
1 0 154
2 0 154
3 0 154
0 1 154
1 1 154
2 1 154
3 1 154
0 2 154
1 2 154
2 2 154
3 2 154
0 3 154
1 3 154
2 3 154
3 3 154
0 4 154
1 4 154
2 4 154
3 4 154
0 5 154
1 5 154
2 5 154
3 5 154
0 6 154
1 6 154
2 6 154
3 6 154
0 7 154
1 7 154
2 7 154
3 7 154
0 8 154
1 8 154
2 8 154
3 8 154
0 9 154
1 9 154
2 9 154
3 9 154
0 10 154
1 10 154
2 10 154
3 10 154
0 11 154
1 11 154
2 11 154
3 11 154
0 12 154
1 12 154
2 12 154
3 12 154
0 13 154
1 13 154
2 13 154
3 13 154
0 14 154
1 14 154
2 14 154
3 14 154
0 15 154
1 15 154
2 15 154
3 15 154
0 16 154
1 16 154
2 16 154
3 16 154
0 17 154
1 17 154
2 17 154
3 17 154
0 18 154
1 18 154
2 18 154
3 18 154
0 19 154
1 19 154
2 19 154
3 19 154
0 20 154
1 20 154
2 20 154
3 20 154
0 21 154
1 21 154
2 21 154
3 21 154
0 22 154
1 22 154
2 22 154
3 22 154
0 23 154
1 23 154
2 23 154
3 23 154
0 24 154
1 24 154
2 24 154
3 24 154
0 25 154
1 25 154
2 25 154
3 25 154
0 26 154
1 26 154
2 26 154
3 26 154
0 27 154
1 27 154
2 27 154
3 27 154
0 28 154
1 28 154
2 28 154
3 28 154
0 29 154
1 29 154
2 29 154
3 29 154
0 30 154
1 30 154
2 30 154
3 30 154
0 31 154
1 31 154
2 31 154
3 31 154
0 32 154
1 32 154
2 32 154
3 32 154
0 33 154
1 33 154
2 33 154
3 33 154
0 34 154
1 34 154
2 34 154
3 34 154
0 35 154
1 35 154
2 35 154
3 35 154
0 36 154
1 36 154
2 36 154
3 36 154
0 37 154
1 37 154
2 37 154
3 37 154
0 38 154
1 38 154
2 38 154
3 38 154
0 39 154
1 39 154
2 39 154
3 39 154
0 40 154
1 40 154
2 40 154
3 40 154
0 41 154
1 41 154
2 41 154
3 41 154
0 42 154
1 42 154
2 42 154
3 42 154
0 43 154
1 43 154
2 43 154
3 43 154
0 44 154
1 44 154
2 44 154
3 44 154
0 45 154
1 45 154
2 45 154
3 45 154
0 46 154
1 46 154
2 46 154
3 46 154
0 47 154
1 47 154
2 47 154
3 47 154
0 48 154
1 48 154
2 48 154
3 48 154
0 49 154
1 49 154
2 49 154
3 49 154
0 50 154
1 50 154
2 50 154
3 50 154
0 51 154
1 51 154
2 51 154
3 51 154
0 52 154
1 52 154
2 52 154
3 52 154
0 53 154
1 53 154
2 53 154
3 53 154
0 54 154
1 54 154
2 54 154
3 54 154
0 55 154
1 55 154
2 55 154
3 55 154
0 56 154
1 56 154
2 56 154
3 56 154
0 57 154
1 57 154
2 57 154
3 57 154
0 58 154
1 58 154
2 58 154
3 58 154
0 59 154
1 59 154
2 59 154
3 59 154
0 60 154
1 60 154
2 60 154
3 60 154
0 61 154
1 61 154
2 61 154
3 61 154
0 62 154
1 62 154
2 62 154
3 62 154
0 63 154
1 63 154
2 63 154
3 63 154
0 64 154
1 64 154
2 64 154
3 64 154
0 65 154
1 65 154
2 65 154
3 65 154
0 66 154
1 66 154
2 66 154
3 66 154
0 0 155
1 0 155
2 0 155
3 0 155
0 1 155
1 1 155
2 1 155
3 1 155
0 2 155
1 2 155
2 2 155
3 2 155
0 3 155
1 3 155
2 3 155
3 3 155
0 4 155
1 4 155
2 4 155
3 4 155
0 5 155
1 5 155
2 5 155
3 5 155
0 6 155
1 6 155
2 6 155
3 6 155
0 7 155
1 7 155
2 7 155
3 7 155
0 8 155
1 8 155
2 8 155
3 8 155
0 9 155
1 9 155
2 9 155
3 9 155
0 10 155
1 10 155
2 10 155
3 10 155
0 11 155
1 11 155
2 11 155
3 11 155
0 12 155
1 12 155
2 12 155
3 12 155
0 13 155
1 13 155
2 13 155
3 13 155
0 14 155
1 14 155
2 14 155
3 14 155
0 15 155
1 15 155
2 15 155
3 15 155
0 16 155
1 16 155
2 16 155
3 16 155
0 17 155
1 17 155
2 17 155
3 17 155
0 18 155
1 18 155
2 18 155
3 18 155
0 19 155
1 19 155
2 19 155
3 19 155
0 20 155
1 20 155
2 20 155
3 20 155
0 21 155
1 21 155
2 21 155
3 21 155
0 22 155
1 22 155
2 22 155
3 22 155
0 23 155
1 23 155
2 23 155
3 23 155
0 24 155
1 24 155
2 24 155
3 24 155
0 25 155
1 25 155
2 25 155
3 25 155
0 26 155
1 26 155
2 26 155
3 26 155
0 27 155
1 27 155
2 27 155
3 27 155
0 28 155
1 28 155
2 28 155
3 28 155
0 29 155
1 29 155
2 29 155
3 29 155
0 30 155
1 30 155
2 30 155
3 30 155
0 31 155
1 31 155
2 31 155
3 31 155
0 32 155
1 32 155
2 32 155
3 32 155
0 33 155
1 33 155
2 33 155
3 33 155
0 34 155
1 34 155
2 34 155
3 34 155
0 35 155
1 35 155
2 35 155
3 35 155
0 36 155
1 36 155
2 36 155
3 36 155
0 37 155
1 37 155
2 37 155
3 37 155
0 38 155
1 38 155
2 38 155
3 38 155
0 39 155
1 39 155
2 39 155
3 39 155
0 40 155
1 40 155
2 40 155
3 40 155
0 41 155
1 41 155
2 41 155
3 41 155
0 42 155
1 42 155
2 42 155
3 42 155
0 43 155
1 43 155
2 43 155
3 43 155
0 44 155
1 44 155
2 44 155
3 44 155
0 45 155
1 45 155
2 45 155
3 45 155
0 46 155
1 46 155
2 46 155
3 46 155
0 47 155
1 47 155
2 47 155
3 47 155
0 48 155
1 48 155
2 48 155
3 48 155
0 49 155
1 49 155
2 49 155
3 49 155
0 50 155
1 50 155
2 50 155
3 50 155
0 51 155
1 51 155
2 51 155
3 51 155
0 52 155
1 52 155
2 52 155
3 52 155
0 53 155
1 53 155
2 53 155
3 53 155
0 54 155
1 54 155
2 54 155
3 54 155
0 55 155
1 55 155
2 55 155
3 55 155
0 56 155
1 56 155
2 56 155
3 56 155
0 57 155
1 57 155
2 57 155
3 57 155
0 58 155
1 58 155
2 58 155
3 58 155
0 59 155
1 59 155
2 59 155
3 59 155
0 60 155
1 60 155
2 60 155
3 60 155
0 61 155
1 61 155
2 61 155
3 61 155
0 62 155
1 62 155
2 62 155
3 62 155
0 63 155
1 63 155
2 63 155
3 63 155
0 64 155
1 64 155
2 64 155
3 64 155
0 65 155
1 65 155
2 65 155
3 65 155
0 66 155
1 66 155
2 66 155
3 66 155
0 0 156
1 0 156
2 0 156
3 0 156
0 1 156
1 1 156
2 1 156
3 1 156
0 2 156
1 2 156
2 2 156
3 2 156
0 3 156
1 3 156
2 3 156
3 3 156
0 4 156
1 4 156
2 4 156
3 4 156
0 5 156
1 5 156
2 5 156
3 5 156
0 6 156
1 6 156
2 6 156
3 6 156
0 7 156
1 7 156
2 7 156
3 7 156
0 8 156
1 8 156
2 8 156
3 8 156
0 9 156
1 9 156
2 9 156
3 9 156
0 10 156
1 10 156
2 10 156
3 10 156
0 11 156
1 11 156
2 11 156
3 11 156
0 12 156
1 12 156
2 12 156
3 12 156
0 13 156
1 13 156
2 13 156
3 13 156
0 14 156
1 14 156
2 14 156
3 14 156
0 15 156
1 15 156
2 15 156
3 15 156
0 16 156
1 16 156
2 16 156
3 16 156
0 17 156
1 17 156
2 17 156
3 17 156
0 18 156
1 18 156
2 18 156
3 18 156
0 19 156
1 19 156
2 19 156
3 19 156
0 20 156
1 20 156
2 20 156
3 20 156
0 21 156
1 21 156
2 21 156
3 21 156
0 22 156
1 22 156
2 22 156
3 22 156
0 23 156
1 23 156
2 23 156
3 23 156
0 24 156
1 24 156
2 24 156
3 24 156
0 25 156
1 25 156
2 25 156
3 25 156
0 26 156
1 26 156
2 26 156
3 26 156
0 27 156
1 27 156
2 27 156
3 27 156
0 28 156
1 28 156
2 28 156
3 28 156
0 29 156
1 29 156
2 29 156
3 29 156
0 30 156
1 30 156
2 30 156
3 30 156
0 31 156
1 31 156
2 31 156
3 31 156
0 32 156
1 32 156
2 32 156
3 32 156
0 33 156
1 33 156
2 33 156
3 33 156
0 34 156
1 34 156
2 34 156
3 34 156
0 35 156
1 35 156
2 35 156
3 35 156
0 36 156
1 36 156
2 36 156
3 36 156
0 37 156
1 37 156
2 37 156
3 37 156
0 38 156
1 38 156
2 38 156
3 38 156
0 39 156
1 39 156
2 39 156
3 39 156
0 40 156
1 40 156
2 40 156
3 40 156
0 41 156
1 41 156
2 41 156
3 41 156
0 42 156
1 42 156
2 42 156
3 42 156
0 43 156
1 43 156
2 43 156
3 43 156
0 44 156
1 44 156
2 44 156
3 44 156
0 45 156
1 45 156
2 45 156
3 45 156
0 46 156
1 46 156
2 46 156
3 46 156
0 47 156
1 47 156
2 47 156
3 47 156
0 48 156
1 48 156
2 48 156
3 48 156
0 49 156
1 49 156
2 49 156
3 49 156
0 50 156
1 50 156
2 50 156
3 50 156
0 51 156
1 51 156
2 51 156
3 51 156
0 52 156
1 52 156
2 52 156
3 52 156
0 53 156
1 53 156
2 53 156
3 53 156
0 54 156
1 54 156
2 54 156
3 54 156
0 55 156
1 55 156
2 55 156
3 55 156
0 56 156
1 56 156
2 56 156
3 56 156
0 57 156
1 57 156
2 57 156
3 57 156
0 58 156
1 58 156
2 58 156
3 58 156
0 59 156
1 59 156
2 59 156
3 59 156
0 60 156
1 60 156
2 60 156
3 60 156
0 61 156
1 61 156
2 61 156
3 61 156
0 62 156
1 62 156
2 62 156
3 62 156
0 63 156
1 63 156
2 63 156
3 63 156
0 64 156
1 64 156
2 64 156
3 64 156
0 65 156
1 65 156
2 65 156
3 65 156
0 66 156
1 66 156
2 66 156
3 66 156
0 0 157
1 0 157
2 0 157
3 0 157
0 1 157
1 1 157
2 1 157
3 1 157
0 2 157
1 2 157
2 2 157
3 2 157
0 3 157
1 3 157
2 3 157
3 3 157
0 4 157
1 4 157
2 4 157
3 4 157
0 5 157
1 5 157
2 5 157
3 5 157
0 6 157
1 6 157
2 6 157
3 6 157
0 7 157
1 7 157
2 7 157
3 7 157
0 8 157
1 8 157
2 8 157
3 8 157
0 9 157
1 9 157
2 9 157
3 9 157
0 10 157
1 10 157
2 10 157
3 10 157
0 11 157
1 11 157
2 11 157
3 11 157
0 12 157
1 12 157
2 12 157
3 12 157
0 13 157
1 13 157
2 13 157
3 13 157
0 14 157
1 14 157
2 14 157
3 14 157
0 15 157
1 15 157
2 15 157
3 15 157
0 16 157
1 16 157
2 16 157
3 16 157
0 17 157
1 17 157
2 17 157
3 17 157
0 18 157
1 18 157
2 18 157
3 18 157
0 19 157
1 19 157
2 19 157
3 19 157
0 20 157
1 20 157
2 20 157
3 20 157
0 21 157
1 21 157
2 21 157
3 21 157
0 22 157
1 22 157
2 22 157
3 22 157
0 23 157
1 23 157
2 23 157
3 23 157
0 24 157
1 24 157
2 24 157
3 24 157
0 25 157
1 25 157
2 25 157
3 25 157
0 26 157
1 26 157
2 26 157
3 26 157
0 27 157
1 27 157
2 27 157
3 27 157
0 28 157
1 28 157
2 28 157
3 28 157
0 29 157
1 29 157
2 29 157
3 29 157
0 30 157
1 30 157
2 30 157
3 30 157
0 31 157
1 31 157
2 31 157
3 31 157
0 32 157
1 32 157
2 32 157
3 32 157
0 33 157
1 33 157
2 33 157
3 33 157
0 34 157
1 34 157
2 34 157
3 34 157
0 35 157
1 35 157
2 35 157
3 35 157
0 36 157
1 36 157
2 36 157
3 36 157
0 37 157
1 37 157
2 37 157
3 37 157
0 38 157
1 38 157
2 38 157
3 38 157
0 39 157
1 39 157
2 39 157
3 39 157
0 40 157
1 40 157
2 40 157
3 40 157
0 41 157
1 41 157
2 41 157
3 41 157
0 42 157
1 42 157
2 42 157
3 42 157
0 43 157
1 43 157
2 43 157
3 43 157
0 44 157
1 44 157
2 44 157
3 44 157
0 45 157
1 45 157
2 45 157
3 45 157
0 46 157
1 46 157
2 46 157
3 46 157
0 47 157
1 47 157
2 47 157
3 47 157
0 48 157
1 48 157
2 48 157
3 48 157
0 49 157
1 49 157
2 49 157
3 49 157
0 50 157
1 50 157
2 50 157
3 50 157
0 51 157
1 51 157
2 51 157
3 51 157
0 52 157
1 52 157
2 52 157
3 52 157
0 53 157
1 53 157
2 53 157
3 53 157
0 54 157
1 54 157
2 54 157
3 54 157
0 55 157
1 55 157
2 55 157
3 55 157
0 56 157
1 56 157
2 56 157
3 56 157
0 57 157
1 57 157
2 57 157
3 57 157
0 58 157
1 58 157
2 58 157
3 58 157
0 59 157
1 59 157
2 59 157
3 59 157
0 60 157
1 60 157
2 60 157
3 60 157
0 61 157
1 61 157
2 61 157
3 61 157
0 62 157
1 62 157
2 62 157
3 62 157
0 63 157
1 63 157
2 63 157
3 63 157
0 64 157
1 64 157
2 64 157
3 64 157
0 65 157
1 65 157
2 65 157
3 65 157
0 66 157
1 66 157
2 66 157
3 66 157
0 0 158
1 0 158
2 0 158
3 0 158
0 1 158
1 1 158
2 1 158
3 1 158
0 2 158
1 2 158
2 2 158
3 2 158
0 3 158
1 3 158
2 3 158
3 3 158
0 4 158
1 4 158
2 4 158
3 4 158
0 5 158
1 5 158
2 5 158
3 5 158
0 6 158
1 6 158
2 6 158
3 6 158
0 7 158
1 7 158
2 7 158
3 7 158
0 8 158
1 8 158
2 8 158
3 8 158
0 9 158
1 9 158
2 9 158
3 9 158
0 10 158
1 10 158
2 10 158
3 10 158
0 11 158
1 11 158
2 11 158
3 11 158
0 12 158
1 12 158
2 12 158
3 12 158
0 13 158
1 13 158
2 13 158
3 13 158
0 14 158
1 14 158
2 14 158
3 14 158
0 15 158
1 15 158
2 15 158
3 15 158
0 16 158
1 16 158
2 16 158
3 16 158
0 17 158
1 17 158
2 17 158
3 17 158
0 18 158
1 18 158
2 18 158
3 18 158
0 19 158
1 19 158
2 19 158
3 19 158
0 20 158
1 20 158
2 20 158
3 20 158
0 21 158
1 21 158
2 21 158
3 21 158
0 22 158
1 22 158
2 22 158
3 22 158
0 23 158
1 23 158
2 23 158
3 23 158
0 24 158
1 24 158
2 24 158
3 24 158
0 25 158
1 25 158
2 25 158
3 25 158
0 26 158
1 26 158
2 26 158
3 26 158
0 27 158
1 27 158
2 27 158
3 27 158
0 28 158
1 28 158
2 28 158
3 28 158
0 29 158
1 29 158
2 29 158
3 29 158
0 30 158
1 30 158
2 30 158
3 30 158
0 31 158
1 31 158
2 31 158
3 31 158
0 32 158
1 32 158
2 32 158
3 32 158
0 33 158
1 33 158
2 33 158
3 33 158
0 34 158
1 34 158
2 34 158
3 34 158
0 35 158
1 35 158
2 35 158
3 35 158
0 36 158
1 36 158
2 36 158
3 36 158
0 37 158
1 37 158
2 37 158
3 37 158
0 38 158
1 38 158
2 38 158
3 38 158
0 39 158
1 39 158
2 39 158
3 39 158
0 40 158
1 40 158
2 40 158
3 40 158
0 41 158
1 41 158
2 41 158
3 41 158
0 42 158
1 42 158
2 42 158
3 42 158
0 43 158
1 43 158
2 43 158
3 43 158
0 44 158
1 44 158
2 44 158
3 44 158
0 45 158
1 45 158
2 45 158
3 45 158
0 46 158
1 46 158
2 46 158
3 46 158
0 47 158
1 47 158
2 47 158
3 47 158
0 48 158
1 48 158
2 48 158
3 48 158
0 49 158
1 49 158
2 49 158
3 49 158
0 50 158
1 50 158
2 50 158
3 50 158
0 51 158
1 51 158
2 51 158
3 51 158
0 52 158
1 52 158
2 52 158
3 52 158
0 53 158
1 53 158
2 53 158
3 53 158
0 54 158
1 54 158
2 54 158
3 54 158
0 55 158
1 55 158
2 55 158
3 55 158
0 56 158
1 56 158
2 56 158
3 56 158
0 57 158
1 57 158
2 57 158
3 57 158
0 58 158
1 58 158
2 58 158
3 58 158
0 59 158
1 59 158
2 59 158
3 59 158
0 60 158
1 60 158
2 60 158
3 60 158
0 61 158
1 61 158
2 61 158
3 61 158
0 62 158
1 62 158
2 62 158
3 62 158
0 63 158
1 63 158
2 63 158
3 63 158
0 64 158
1 64 158
2 64 158
3 64 158
0 65 158
1 65 158
2 65 158
3 65 158
0 66 158
1 66 158
2 66 158
3 66 158
0 0 159
1 0 159
2 0 159
3 0 159
0 1 159
1 1 159
2 1 159
3 1 159
0 2 159
1 2 159
2 2 159
3 2 159
0 3 159
1 3 159
2 3 159
3 3 159
0 4 159
1 4 159
2 4 159
3 4 159
0 5 159
1 5 159
2 5 159
3 5 159
0 6 159
1 6 159
2 6 159
3 6 159
0 7 159
1 7 159
2 7 159
3 7 159
0 8 159
1 8 159
2 8 159
3 8 159
0 9 159
1 9 159
2 9 159
3 9 159
0 10 159
1 10 159
2 10 159
3 10 159
0 11 159
1 11 159
2 11 159
3 11 159
0 12 159
1 12 159
2 12 159
3 12 159
0 13 159
1 13 159
2 13 159
3 13 159
0 14 159
1 14 159
2 14 159
3 14 159
0 15 159
1 15 159
2 15 159
3 15 159
0 16 159
1 16 159
2 16 159
3 16 159
0 17 159
1 17 159
2 17 159
3 17 159
0 18 159
1 18 159
2 18 159
3 18 159
0 19 159
1 19 159
2 19 159
3 19 159
0 20 159
1 20 159
2 20 159
3 20 159
0 21 159
1 21 159
2 21 159
3 21 159
0 22 159
1 22 159
2 22 159
3 22 159
0 23 159
1 23 159
2 23 159
3 23 159
0 24 159
1 24 159
2 24 159
3 24 159
0 25 159
1 25 159
2 25 159
3 25 159
0 26 159
1 26 159
2 26 159
3 26 159
0 27 159
1 27 159
2 27 159
3 27 159
0 28 159
1 28 159
2 28 159
3 28 159
0 29 159
1 29 159
2 29 159
3 29 159
0 30 159
1 30 159
2 30 159
3 30 159
0 31 159
1 31 159
2 31 159
3 31 159
0 32 159
1 32 159
2 32 159
3 32 159
0 33 159
1 33 159
2 33 159
3 33 159
0 34 159
1 34 159
2 34 159
3 34 159
0 35 159
1 35 159
2 35 159
3 35 159
0 36 159
1 36 159
2 36 159
3 36 159
0 37 159
1 37 159
2 37 159
3 37 159
0 38 159
1 38 159
2 38 159
3 38 159
0 39 159
1 39 159
2 39 159
3 39 159
0 40 159
1 40 159
2 40 159
3 40 159
0 41 159
1 41 159
2 41 159
3 41 159
0 42 159
1 42 159
2 42 159
3 42 159
0 43 159
1 43 159
2 43 159
3 43 159
0 44 159
1 44 159
2 44 159
3 44 159
0 45 159
1 45 159
2 45 159
3 45 159
0 46 159
1 46 159
2 46 159
3 46 159
0 47 159
1 47 159
2 47 159
3 47 159
0 48 159
1 48 159
2 48 159
3 48 159
0 49 159
1 49 159
2 49 159
3 49 159
0 50 159
1 50 159
2 50 159
3 50 159
0 51 159
1 51 159
2 51 159
3 51 159
0 52 159
1 52 159
2 52 159
3 52 159
0 53 159
1 53 159
2 53 159
3 53 159
0 54 159
1 54 159
2 54 159
3 54 159
0 55 159
1 55 159
2 55 159
3 55 159
0 56 159
1 56 159
2 56 159
3 56 159
0 57 159
1 57 159
2 57 159
3 57 159
0 58 159
1 58 159
2 58 159
3 58 159
0 59 159
1 59 159
2 59 159
3 59 159
0 60 159
1 60 159
2 60 159
3 60 159
0 61 159
1 61 159
2 61 159
3 61 159
0 62 159
1 62 159
2 62 159
3 62 159
0 63 159
1 63 159
2 63 159
3 63 159
0 64 159
1 64 159
2 64 159
3 64 159
0 65 159
1 65 159
2 65 159
3 65 159
0 66 159
1 66 159
2 66 159
3 66 159
0 0 160
1 0 160
2 0 160
3 0 160
0 1 160
1 1 160
2 1 160
3 1 160
0 2 160
1 2 160
2 2 160
3 2 160
0 3 160
1 3 160
2 3 160
3 3 160
0 4 160
1 4 160
2 4 160
3 4 160
0 5 160
1 5 160
2 5 160
3 5 160
0 6 160
1 6 160
2 6 160
3 6 160
0 7 160
1 7 160
2 7 160
3 7 160
0 8 160
1 8 160
2 8 160
3 8 160
0 9 160
1 9 160
2 9 160
3 9 160
0 10 160
1 10 160
2 10 160
3 10 160
0 11 160
1 11 160
2 11 160
3 11 160
0 12 160
1 12 160
2 12 160
3 12 160
0 13 160
1 13 160
2 13 160
3 13 160
0 14 160
1 14 160
2 14 160
3 14 160
0 15 160
1 15 160
2 15 160
3 15 160
0 16 160
1 16 160
2 16 160
3 16 160
0 17 160
1 17 160
2 17 160
3 17 160
0 18 160
1 18 160
2 18 160
3 18 160
0 19 160
1 19 160
2 19 160
3 19 160
0 20 160
1 20 160
2 20 160
3 20 160
0 21 160
1 21 160
2 21 160
3 21 160
0 22 160
1 22 160
2 22 160
3 22 160
0 23 160
1 23 160
2 23 160
3 23 160
0 24 160
1 24 160
2 24 160
3 24 160
0 25 160
1 25 160
2 25 160
3 25 160
0 26 160
1 26 160
2 26 160
3 26 160
0 27 160
1 27 160
2 27 160
3 27 160
0 28 160
1 28 160
2 28 160
3 28 160
0 29 160
1 29 160
2 29 160
3 29 160
0 30 160
1 30 160
2 30 160
3 30 160
0 31 160
1 31 160
2 31 160
3 31 160
0 32 160
1 32 160
2 32 160
3 32 160
0 33 160
1 33 160
2 33 160
3 33 160
0 34 160
1 34 160
2 34 160
3 34 160
0 35 160
1 35 160
2 35 160
3 35 160
0 36 160
1 36 160
2 36 160
3 36 160
0 37 160
1 37 160
2 37 160
3 37 160
0 38 160
1 38 160
2 38 160
3 38 160
0 39 160
1 39 160
2 39 160
3 39 160
0 40 160
1 40 160
2 40 160
3 40 160
0 41 160
1 41 160
2 41 160
3 41 160
0 42 160
1 42 160
2 42 160
3 42 160
0 43 160
1 43 160
2 43 160
3 43 160
0 44 160
1 44 160
2 44 160
3 44 160
0 45 160
1 45 160
2 45 160
3 45 160
0 46 160
1 46 160
2 46 160
3 46 160
0 47 160
1 47 160
2 47 160
3 47 160
0 48 160
1 48 160
2 48 160
3 48 160
0 49 160
1 49 160
2 49 160
3 49 160
0 50 160
1 50 160
2 50 160
3 50 160
0 51 160
1 51 160
2 51 160
3 51 160
0 52 160
1 52 160
2 52 160
3 52 160
0 53 160
1 53 160
2 53 160
3 53 160
0 54 160
1 54 160
2 54 160
3 54 160
0 55 160
1 55 160
2 55 160
3 55 160
0 56 160
1 56 160
2 56 160
3 56 160
0 57 160
1 57 160
2 57 160
3 57 160
0 58 160
1 58 160
2 58 160
3 58 160
0 59 160
1 59 160
2 59 160
3 59 160
0 60 160
1 60 160
2 60 160
3 60 160
0 61 160
1 61 160
2 61 160
3 61 160
0 62 160
1 62 160
2 62 160
3 62 160
0 63 160
1 63 160
2 63 160
3 63 160
0 64 160
1 64 160
2 64 160
3 64 160
0 65 160
1 65 160
2 65 160
3 65 160
0 66 160
1 66 160
2 66 160
3 66 160
0 0 161
1 0 161
2 0 161
3 0 161
0 1 161
1 1 161
2 1 161
3 1 161
0 2 161
1 2 161
2 2 161
3 2 161
0 3 161
1 3 161
2 3 161
3 3 161
0 4 161
1 4 161
2 4 161
3 4 161
0 5 161
1 5 161
2 5 161
3 5 161
0 6 161
1 6 161
2 6 161
3 6 161
0 7 161
1 7 161
2 7 161
3 7 161
0 8 161
1 8 161
2 8 161
3 8 161
0 9 161
1 9 161
2 9 161
3 9 161
0 10 161
1 10 161
2 10 161
3 10 161
0 11 161
1 11 161
2 11 161
3 11 161
0 12 161
1 12 161
2 12 161
3 12 161
0 13 161
1 13 161
2 13 161
3 13 161
0 14 161
1 14 161
2 14 161
3 14 161
0 15 161
1 15 161
2 15 161
3 15 161
0 16 161
1 16 161
2 16 161
3 16 161
0 17 161
1 17 161
2 17 161
3 17 161
0 18 161
1 18 161
2 18 161
3 18 161
0 19 161
1 19 161
2 19 161
3 19 161
0 20 161
1 20 161
2 20 161
3 20 161
0 21 161
1 21 161
2 21 161
3 21 161
0 22 161
1 22 161
2 22 161
3 22 161
0 23 161
1 23 161
2 23 161
3 23 161
0 24 161
1 24 161
2 24 161
3 24 161
0 25 161
1 25 161
2 25 161
3 25 161
0 26 161
1 26 161
2 26 161
3 26 161
0 27 161
1 27 161
2 27 161
3 27 161
0 28 161
1 28 161
2 28 161
3 28 161
0 29 161
1 29 161
2 29 161
3 29 161
0 30 161
1 30 161
2 30 161
3 30 161
0 31 161
1 31 161
2 31 161
3 31 161
0 32 161
1 32 161
2 32 161
3 32 161
0 33 161
1 33 161
2 33 161
3 33 161
0 34 161
1 34 161
2 34 161
3 34 161
0 35 161
1 35 161
2 35 161
3 35 161
0 36 161
1 36 161
2 36 161
3 36 161
0 37 161
1 37 161
2 37 161
3 37 161
0 38 161
1 38 161
2 38 161
3 38 161
0 39 161
1 39 161
2 39 161
3 39 161
0 40 161
1 40 161
2 40 161
3 40 161
0 41 161
1 41 161
2 41 161
3 41 161
0 42 161
1 42 161
2 42 161
3 42 161
0 43 161
1 43 161
2 43 161
3 43 161
0 44 161
1 44 161
2 44 161
3 44 161
0 45 161
1 45 161
2 45 161
3 45 161
0 46 161
1 46 161
2 46 161
3 46 161
0 47 161
1 47 161
2 47 161
3 47 161
0 48 161
1 48 161
2 48 161
3 48 161
0 49 161
1 49 161
2 49 161
3 49 161
0 50 161
1 50 161
2 50 161
3 50 161
0 51 161
1 51 161
2 51 161
3 51 161
0 52 161
1 52 161
2 52 161
3 52 161
0 53 161
1 53 161
2 53 161
3 53 161
0 54 161
1 54 161
2 54 161
3 54 161
0 55 161
1 55 161
2 55 161
3 55 161
0 56 161
1 56 161
2 56 161
3 56 161
0 57 161
1 57 161
2 57 161
3 57 161
0 58 161
1 58 161
2 58 161
3 58 161
0 59 161
1 59 161
2 59 161
3 59 161
0 60 161
1 60 161
2 60 161
3 60 161
0 61 161
1 61 161
2 61 161
3 61 161
0 62 161
1 62 161
2 62 161
3 62 161
0 63 161
1 63 161
2 63 161
3 63 161
0 64 161
1 64 161
2 64 161
3 64 161
0 65 161
1 65 161
2 65 161
3 65 161
0 66 161
1 66 161
2 66 161
3 66 161
0 0 162
1 0 162
2 0 162
3 0 162
0 1 162
1 1 162
2 1 162
3 1 162
0 2 162
1 2 162
2 2 162
3 2 162
0 3 162
1 3 162
2 3 162
3 3 162
0 4 162
1 4 162
2 4 162
3 4 162
0 5 162
1 5 162
2 5 162
3 5 162
0 6 162
1 6 162
2 6 162
3 6 162
0 7 162
1 7 162
2 7 162
3 7 162
0 8 162
1 8 162
2 8 162
3 8 162
0 9 162
1 9 162
2 9 162
3 9 162
0 10 162
1 10 162
2 10 162
3 10 162
0 11 162
1 11 162
2 11 162
3 11 162
0 12 162
1 12 162
2 12 162
3 12 162
0 13 162
1 13 162
2 13 162
3 13 162
0 14 162
1 14 162
2 14 162
3 14 162
0 15 162
1 15 162
2 15 162
3 15 162
0 16 162
1 16 162
2 16 162
3 16 162
0 17 162
1 17 162
2 17 162
3 17 162
0 18 162
1 18 162
2 18 162
3 18 162
0 19 162
1 19 162
2 19 162
3 19 162
0 20 162
1 20 162
2 20 162
3 20 162
0 21 162
1 21 162
2 21 162
3 21 162
0 22 162
1 22 162
2 22 162
3 22 162
0 23 162
1 23 162
2 23 162
3 23 162
0 24 162
1 24 162
2 24 162
3 24 162
0 25 162
1 25 162
2 25 162
3 25 162
0 26 162
1 26 162
2 26 162
3 26 162
0 27 162
1 27 162
2 27 162
3 27 162
0 28 162
1 28 162
2 28 162
3 28 162
0 29 162
1 29 162
2 29 162
3 29 162
0 30 162
1 30 162
2 30 162
3 30 162
0 31 162
1 31 162
2 31 162
3 31 162
0 32 162
1 32 162
2 32 162
3 32 162
0 33 162
1 33 162
2 33 162
3 33 162
0 34 162
1 34 162
2 34 162
3 34 162
0 35 162
1 35 162
2 35 162
3 35 162
0 36 162
1 36 162
2 36 162
3 36 162
0 37 162
1 37 162
2 37 162
3 37 162
0 38 162
1 38 162
2 38 162
3 38 162
0 39 162
1 39 162
2 39 162
3 39 162
0 40 162
1 40 162
2 40 162
3 40 162
0 41 162
1 41 162
2 41 162
3 41 162
0 42 162
1 42 162
2 42 162
3 42 162
0 43 162
1 43 162
2 43 162
3 43 162
0 44 162
1 44 162
2 44 162
3 44 162
0 45 162
1 45 162
2 45 162
3 45 162
0 46 162
1 46 162
2 46 162
3 46 162
0 47 162
1 47 162
2 47 162
3 47 162
0 48 162
1 48 162
2 48 162
3 48 162
0 49 162
1 49 162
2 49 162
3 49 162
0 50 162
1 50 162
2 50 162
3 50 162
0 51 162
1 51 162
2 51 162
3 51 162
0 52 162
1 52 162
2 52 162
3 52 162
0 53 162
1 53 162
2 53 162
3 53 162
0 54 162
1 54 162
2 54 162
3 54 162
0 55 162
1 55 162
2 55 162
3 55 162
0 56 162
1 56 162
2 56 162
3 56 162
0 57 162
1 57 162
2 57 162
3 57 162
0 58 162
1 58 162
2 58 162
3 58 162
0 59 162
1 59 162
2 59 162
3 59 162
0 60 162
1 60 162
2 60 162
3 60 162
0 61 162
1 61 162
2 61 162
3 61 162
0 62 162
1 62 162
2 62 162
3 62 162
0 63 162
1 63 162
2 63 162
3 63 162
0 64 162
1 64 162
2 64 162
3 64 162
0 65 162
1 65 162
2 65 162
3 65 162
0 66 162
1 66 162
2 66 162
3 66 162
0 0 163
1 0 163
2 0 163
3 0 163
0 1 163
1 1 163
2 1 163
3 1 163
0 2 163
1 2 163
2 2 163
3 2 163
0 3 163
1 3 163
2 3 163
3 3 163
0 4 163
1 4 163
2 4 163
3 4 163
0 5 163
1 5 163
2 5 163
3 5 163
0 6 163
1 6 163
2 6 163
3 6 163
0 7 163
1 7 163
2 7 163
3 7 163
0 8 163
1 8 163
2 8 163
3 8 163
0 9 163
1 9 163
2 9 163
3 9 163
0 10 163
1 10 163
2 10 163
3 10 163
0 11 163
1 11 163
2 11 163
3 11 163
0 12 163
1 12 163
2 12 163
3 12 163
0 13 163
1 13 163
2 13 163
3 13 163
0 14 163
1 14 163
2 14 163
3 14 163
0 15 163
1 15 163
2 15 163
3 15 163
0 16 163
1 16 163
2 16 163
3 16 163
0 17 163
1 17 163
2 17 163
3 17 163
0 18 163
1 18 163
2 18 163
3 18 163
0 19 163
1 19 163
2 19 163
3 19 163
0 20 163
1 20 163
2 20 163
3 20 163
0 21 163
1 21 163
2 21 163
3 21 163
0 22 163
1 22 163
2 22 163
3 22 163
0 23 163
1 23 163
2 23 163
3 23 163
0 24 163
1 24 163
2 24 163
3 24 163
0 25 163
1 25 163
2 25 163
3 25 163
0 26 163
1 26 163
2 26 163
3 26 163
0 27 163
1 27 163
2 27 163
3 27 163
0 28 163
1 28 163
2 28 163
3 28 163
0 29 163
1 29 163
2 29 163
3 29 163
0 30 163
1 30 163
2 30 163
3 30 163
0 31 163
1 31 163
2 31 163
3 31 163
0 32 163
1 32 163
2 32 163
3 32 163
0 33 163
1 33 163
2 33 163
3 33 163
0 34 163
1 34 163
2 34 163
3 34 163
0 35 163
1 35 163
2 35 163
3 35 163
0 36 163
1 36 163
2 36 163
3 36 163
0 37 163
1 37 163
2 37 163
3 37 163
0 38 163
1 38 163
2 38 163
3 38 163
0 39 163
1 39 163
2 39 163
3 39 163
0 40 163
1 40 163
2 40 163
3 40 163
0 41 163
1 41 163
2 41 163
3 41 163
0 42 163
1 42 163
2 42 163
3 42 163
0 43 163
1 43 163
2 43 163
3 43 163
0 44 163
1 44 163
2 44 163
3 44 163
0 45 163
1 45 163
2 45 163
3 45 163
0 46 163
1 46 163
2 46 163
3 46 163
0 47 163
1 47 163
2 47 163
3 47 163
0 48 163
1 48 163
2 48 163
3 48 163
0 49 163
1 49 163
2 49 163
3 49 163
0 50 163
1 50 163
2 50 163
3 50 163
0 51 163
1 51 163
2 51 163
3 51 163
0 52 163
1 52 163
2 52 163
3 52 163
0 53 163
1 53 163
2 53 163
3 53 163
0 54 163
1 54 163
2 54 163
3 54 163
0 55 163
1 55 163
2 55 163
3 55 163
0 56 163
1 56 163
2 56 163
3 56 163
0 57 163
1 57 163
2 57 163
3 57 163
0 58 163
1 58 163
2 58 163
3 58 163
0 59 163
1 59 163
2 59 163
3 59 163
0 60 163
1 60 163
2 60 163
3 60 163
0 61 163
1 61 163
2 61 163
3 61 163
0 62 163
1 62 163
2 62 163
3 62 163
0 63 163
1 63 163
2 63 163
3 63 163
0 64 163
1 64 163
2 64 163
3 64 163
0 65 163
1 65 163
2 65 163
3 65 163
0 66 163
1 66 163
2 66 163
3 66 163
0 0 164
1 0 164
2 0 164
3 0 164
0 1 164
1 1 164
2 1 164
3 1 164
0 2 164
1 2 164
2 2 164
3 2 164
0 3 164
1 3 164
2 3 164
3 3 164
0 4 164
1 4 164
2 4 164
3 4 164
0 5 164
1 5 164
2 5 164
3 5 164
0 6 164
1 6 164
2 6 164
3 6 164
0 7 164
1 7 164
2 7 164
3 7 164
0 8 164
1 8 164
2 8 164
3 8 164
0 9 164
1 9 164
2 9 164
3 9 164
0 10 164
1 10 164
2 10 164
3 10 164
0 11 164
1 11 164
2 11 164
3 11 164
0 12 164
1 12 164
2 12 164
3 12 164
0 13 164
1 13 164
2 13 164
3 13 164
0 14 164
1 14 164
2 14 164
3 14 164
0 15 164
1 15 164
2 15 164
3 15 164
0 16 164
1 16 164
2 16 164
3 16 164
0 17 164
1 17 164
2 17 164
3 17 164
0 18 164
1 18 164
2 18 164
3 18 164
0 19 164
1 19 164
2 19 164
3 19 164
0 20 164
1 20 164
2 20 164
3 20 164
0 21 164
1 21 164
2 21 164
3 21 164
0 22 164
1 22 164
2 22 164
3 22 164
0 23 164
1 23 164
2 23 164
3 23 164
0 24 164
1 24 164
2 24 164
3 24 164
0 25 164
1 25 164
2 25 164
3 25 164
0 26 164
1 26 164
2 26 164
3 26 164
0 27 164
1 27 164
2 27 164
3 27 164
0 28 164
1 28 164
2 28 164
3 28 164
0 29 164
1 29 164
2 29 164
3 29 164
0 30 164
1 30 164
2 30 164
3 30 164
0 31 164
1 31 164
2 31 164
3 31 164
0 32 164
1 32 164
2 32 164
3 32 164
0 33 164
1 33 164
2 33 164
3 33 164
0 34 164
1 34 164
2 34 164
3 34 164
0 35 164
1 35 164
2 35 164
3 35 164
0 36 164
1 36 164
2 36 164
3 36 164
0 37 164
1 37 164
2 37 164
3 37 164
0 38 164
1 38 164
2 38 164
3 38 164
0 39 164
1 39 164
2 39 164
3 39 164
0 40 164
1 40 164
2 40 164
3 40 164
0 41 164
1 41 164
2 41 164
3 41 164
0 42 164
1 42 164
2 42 164
3 42 164
0 43 164
1 43 164
2 43 164
3 43 164
0 44 164
1 44 164
2 44 164
3 44 164
0 45 164
1 45 164
2 45 164
3 45 164
0 46 164
1 46 164
2 46 164
3 46 164
0 47 164
1 47 164
2 47 164
3 47 164
0 48 164
1 48 164
2 48 164
3 48 164
0 49 164
1 49 164
2 49 164
3 49 164
0 50 164
1 50 164
2 50 164
3 50 164
0 51 164
1 51 164
2 51 164
3 51 164
0 52 164
1 52 164
2 52 164
3 52 164
0 53 164
1 53 164
2 53 164
3 53 164
0 54 164
1 54 164
2 54 164
3 54 164
0 55 164
1 55 164
2 55 164
3 55 164
0 56 164
1 56 164
2 56 164
3 56 164
0 57 164
1 57 164
2 57 164
3 57 164
0 58 164
1 58 164
2 58 164
3 58 164
0 59 164
1 59 164
2 59 164
3 59 164
0 60 164
1 60 164
2 60 164
3 60 164
0 61 164
1 61 164
2 61 164
3 61 164
0 62 164
1 62 164
2 62 164
3 62 164
0 63 164
1 63 164
2 63 164
3 63 164
0 64 164
1 64 164
2 64 164
3 64 164
0 65 164
1 65 164
2 65 164
3 65 164
0 66 164
1 66 164
2 66 164
3 66 164
0 0 165
1 0 165
2 0 165
3 0 165
0 1 165
1 1 165
2 1 165
3 1 165
0 2 165
1 2 165
2 2 165
3 2 165
0 3 165
1 3 165
2 3 165
3 3 165
0 4 165
1 4 165
2 4 165
3 4 165
0 5 165
1 5 165
2 5 165
3 5 165
0 6 165
1 6 165
2 6 165
3 6 165
0 7 165
1 7 165
2 7 165
3 7 165
0 8 165
1 8 165
2 8 165
3 8 165
0 9 165
1 9 165
2 9 165
3 9 165
0 10 165
1 10 165
2 10 165
3 10 165
0 11 165
1 11 165
2 11 165
3 11 165
0 12 165
1 12 165
2 12 165
3 12 165
0 13 165
1 13 165
2 13 165
3 13 165
0 14 165
1 14 165
2 14 165
3 14 165
0 15 165
1 15 165
2 15 165
3 15 165
0 16 165
1 16 165
2 16 165
3 16 165
0 17 165
1 17 165
2 17 165
3 17 165
0 18 165
1 18 165
2 18 165
3 18 165
0 19 165
1 19 165
2 19 165
3 19 165
0 20 165
1 20 165
2 20 165
3 20 165
0 21 165
1 21 165
2 21 165
3 21 165
0 22 165
1 22 165
2 22 165
3 22 165
0 23 165
1 23 165
2 23 165
3 23 165
0 24 165
1 24 165
2 24 165
3 24 165
0 25 165
1 25 165
2 25 165
3 25 165
0 26 165
1 26 165
2 26 165
3 26 165
0 27 165
1 27 165
2 27 165
3 27 165
0 28 165
1 28 165
2 28 165
3 28 165
0 29 165
1 29 165
2 29 165
3 29 165
0 30 165
1 30 165
2 30 165
3 30 165
0 31 165
1 31 165
2 31 165
3 31 165
0 32 165
1 32 165
2 32 165
3 32 165
0 33 165
1 33 165
2 33 165
3 33 165
0 34 165
1 34 165
2 34 165
3 34 165
0 35 165
1 35 165
2 35 165
3 35 165
0 36 165
1 36 165
2 36 165
3 36 165
0 37 165
1 37 165
2 37 165
3 37 165
0 38 165
1 38 165
2 38 165
3 38 165
0 39 165
1 39 165
2 39 165
3 39 165
0 40 165
1 40 165
2 40 165
3 40 165
0 41 165
1 41 165
2 41 165
3 41 165
0 42 165
1 42 165
2 42 165
3 42 165
0 43 165
1 43 165
2 43 165
3 43 165
0 44 165
1 44 165
2 44 165
3 44 165
0 45 165
1 45 165
2 45 165
3 45 165
0 46 165
1 46 165
2 46 165
3 46 165
0 47 165
1 47 165
2 47 165
3 47 165
0 48 165
1 48 165
2 48 165
3 48 165
0 49 165
1 49 165
2 49 165
3 49 165
0 50 165
1 50 165
2 50 165
3 50 165
0 51 165
1 51 165
2 51 165
3 51 165
0 52 165
1 52 165
2 52 165
3 52 165
0 53 165
1 53 165
2 53 165
3 53 165
0 54 165
1 54 165
2 54 165
3 54 165
0 55 165
1 55 165
2 55 165
3 55 165
0 56 165
1 56 165
2 56 165
3 56 165
0 57 165
1 57 165
2 57 165
3 57 165
0 58 165
1 58 165
2 58 165
3 58 165
0 59 165
1 59 165
2 59 165
3 59 165
0 60 165
1 60 165
2 60 165
3 60 165
0 61 165
1 61 165
2 61 165
3 61 165
0 62 165
1 62 165
2 62 165
3 62 165
0 63 165
1 63 165
2 63 165
3 63 165
0 64 165
1 64 165
2 64 165
3 64 165
0 65 165
1 65 165
2 65 165
3 65 165
0 66 165
1 66 165
2 66 165
3 66 165
0 0 166
1 0 166
2 0 166
3 0 166
0 1 166
1 1 166
2 1 166
3 1 166
0 2 166
1 2 166
2 2 166
3 2 166
0 3 166
1 3 166
2 3 166
3 3 166
0 4 166
1 4 166
2 4 166
3 4 166
0 5 166
1 5 166
2 5 166
3 5 166
0 6 166
1 6 166
2 6 166
3 6 166
0 7 166
1 7 166
2 7 166
3 7 166
0 8 166
1 8 166
2 8 166
3 8 166
0 9 166
1 9 166
2 9 166
3 9 166
0 10 166
1 10 166
2 10 166
3 10 166
0 11 166
1 11 166
2 11 166
3 11 166
0 12 166
1 12 166
2 12 166
3 12 166
0 13 166
1 13 166
2 13 166
3 13 166
0 14 166
1 14 166
2 14 166
3 14 166
0 15 166
1 15 166
2 15 166
3 15 166
0 16 166
1 16 166
2 16 166
3 16 166
0 17 166
1 17 166
2 17 166
3 17 166
0 18 166
1 18 166
2 18 166
3 18 166
0 19 166
1 19 166
2 19 166
3 19 166
0 20 166
1 20 166
2 20 166
3 20 166
0 21 166
1 21 166
2 21 166
3 21 166
0 22 166
1 22 166
2 22 166
3 22 166
0 23 166
1 23 166
2 23 166
3 23 166
0 24 166
1 24 166
2 24 166
3 24 166
0 25 166
1 25 166
2 25 166
3 25 166
0 26 166
1 26 166
2 26 166
3 26 166
0 27 166
1 27 166
2 27 166
3 27 166
0 28 166
1 28 166
2 28 166
3 28 166
0 29 166
1 29 166
2 29 166
3 29 166
0 30 166
1 30 166
2 30 166
3 30 166
0 31 166
1 31 166
2 31 166
3 31 166
0 32 166
1 32 166
2 32 166
3 32 166
0 33 166
1 33 166
2 33 166
3 33 166
0 34 166
1 34 166
2 34 166
3 34 166
0 35 166
1 35 166
2 35 166
3 35 166
0 36 166
1 36 166
2 36 166
3 36 166
0 37 166
1 37 166
2 37 166
3 37 166
0 38 166
1 38 166
2 38 166
3 38 166
0 39 166
1 39 166
2 39 166
3 39 166
0 40 166
1 40 166
2 40 166
3 40 166
0 41 166
1 41 166
2 41 166
3 41 166
0 42 166
1 42 166
2 42 166
3 42 166
0 43 166
1 43 166
2 43 166
3 43 166
0 44 166
1 44 166
2 44 166
3 44 166
0 45 166
1 45 166
2 45 166
3 45 166
0 46 166
1 46 166
2 46 166
3 46 166
0 47 166
1 47 166
2 47 166
3 47 166
0 48 166
1 48 166
2 48 166
3 48 166
0 49 166
1 49 166
2 49 166
3 49 166
0 50 166
1 50 166
2 50 166
3 50 166
0 51 166
1 51 166
2 51 166
3 51 166
0 52 166
1 52 166
2 52 166
3 52 166
0 53 166
1 53 166
2 53 166
3 53 166
0 54 166
1 54 166
2 54 166
3 54 166
0 55 166
1 55 166
2 55 166
3 55 166
0 56 166
1 56 166
2 56 166
3 56 166
0 57 166
1 57 166
2 57 166
3 57 166
0 58 166
1 58 166
2 58 166
3 58 166
0 59 166
1 59 166
2 59 166
3 59 166
0 60 166
1 60 166
2 60 166
3 60 166
0 61 166
1 61 166
2 61 166
3 61 166
0 62 166
1 62 166
2 62 166
3 62 166
0 63 166
1 63 166
2 63 166
3 63 166
0 64 166
1 64 166
2 64 166
3 64 166
0 65 166
1 65 166
2 65 166
3 65 166
0 66 166
1 66 166
2 66 166
3 66 166
0 0 167
1 0 167
2 0 167
3 0 167
0 1 167
1 1 167
2 1 167
3 1 167
0 2 167
1 2 167
2 2 167
3 2 167
0 3 167
1 3 167
2 3 167
3 3 167
0 4 167
1 4 167
2 4 167
3 4 167
0 5 167
1 5 167
2 5 167
3 5 167
0 6 167
1 6 167
2 6 167
3 6 167
0 7 167
1 7 167
2 7 167
3 7 167
0 8 167
1 8 167
2 8 167
3 8 167
0 9 167
1 9 167
2 9 167
3 9 167
0 10 167
1 10 167
2 10 167
3 10 167
0 11 167
1 11 167
2 11 167
3 11 167
0 12 167
1 12 167
2 12 167
3 12 167
0 13 167
1 13 167
2 13 167
3 13 167
0 14 167
1 14 167
2 14 167
3 14 167
0 15 167
1 15 167
2 15 167
3 15 167
0 16 167
1 16 167
2 16 167
3 16 167
0 17 167
1 17 167
2 17 167
3 17 167
0 18 167
1 18 167
2 18 167
3 18 167
0 19 167
1 19 167
2 19 167
3 19 167
0 20 167
1 20 167
2 20 167
3 20 167
0 21 167
1 21 167
2 21 167
3 21 167
0 22 167
1 22 167
2 22 167
3 22 167
0 23 167
1 23 167
2 23 167
3 23 167
0 24 167
1 24 167
2 24 167
3 24 167
0 25 167
1 25 167
2 25 167
3 25 167
0 26 167
1 26 167
2 26 167
3 26 167
0 27 167
1 27 167
2 27 167
3 27 167
0 28 167
1 28 167
2 28 167
3 28 167
0 29 167
1 29 167
2 29 167
3 29 167
0 30 167
1 30 167
2 30 167
3 30 167
0 31 167
1 31 167
2 31 167
3 31 167
0 32 167
1 32 167
2 32 167
3 32 167
0 33 167
1 33 167
2 33 167
3 33 167
0 34 167
1 34 167
2 34 167
3 34 167
0 35 167
1 35 167
2 35 167
3 35 167
0 36 167
1 36 167
2 36 167
3 36 167
0 37 167
1 37 167
2 37 167
3 37 167
0 38 167
1 38 167
2 38 167
3 38 167
0 39 167
1 39 167
2 39 167
3 39 167
0 40 167
1 40 167
2 40 167
3 40 167
0 41 167
1 41 167
2 41 167
3 41 167
0 42 167
1 42 167
2 42 167
3 42 167
0 43 167
1 43 167
2 43 167
3 43 167
0 44 167
1 44 167
2 44 167
3 44 167
0 45 167
1 45 167
2 45 167
3 45 167
0 46 167
1 46 167
2 46 167
3 46 167
0 47 167
1 47 167
2 47 167
3 47 167
0 48 167
1 48 167
2 48 167
3 48 167
0 49 167
1 49 167
2 49 167
3 49 167
0 50 167
1 50 167
2 50 167
3 50 167
0 51 167
1 51 167
2 51 167
3 51 167
0 52 167
1 52 167
2 52 167
3 52 167
0 53 167
1 53 167
2 53 167
3 53 167
0 54 167
1 54 167
2 54 167
3 54 167
0 55 167
1 55 167
2 55 167
3 55 167
0 56 167
1 56 167
2 56 167
3 56 167
0 57 167
1 57 167
2 57 167
3 57 167
0 58 167
1 58 167
2 58 167
3 58 167
0 59 167
1 59 167
2 59 167
3 59 167
0 60 167
1 60 167
2 60 167
3 60 167
0 61 167
1 61 167
2 61 167
3 61 167
0 62 167
1 62 167
2 62 167
3 62 167
0 63 167
1 63 167
2 63 167
3 63 167
0 64 167
1 64 167
2 64 167
3 64 167
0 65 167
1 65 167
2 65 167
3 65 167
0 66 167
1 66 167
2 66 167
3 66 167
0 0 168
1 0 168
2 0 168
3 0 168
0 1 168
1 1 168
2 1 168
3 1 168
0 2 168
1 2 168
2 2 168
3 2 168
0 3 168
1 3 168
2 3 168
3 3 168
0 4 168
1 4 168
2 4 168
3 4 168
0 5 168
1 5 168
2 5 168
3 5 168
0 6 168
1 6 168
2 6 168
3 6 168
0 7 168
1 7 168
2 7 168
3 7 168
0 8 168
1 8 168
2 8 168
3 8 168
0 9 168
1 9 168
2 9 168
3 9 168
0 10 168
1 10 168
2 10 168
3 10 168
0 11 168
1 11 168
2 11 168
3 11 168
0 12 168
1 12 168
2 12 168
3 12 168
0 13 168
1 13 168
2 13 168
3 13 168
0 14 168
1 14 168
2 14 168
3 14 168
0 15 168
1 15 168
2 15 168
3 15 168
0 16 168
1 16 168
2 16 168
3 16 168
0 17 168
1 17 168
2 17 168
3 17 168
0 18 168
1 18 168
2 18 168
3 18 168
0 19 168
1 19 168
2 19 168
3 19 168
0 20 168
1 20 168
2 20 168
3 20 168
0 21 168
1 21 168
2 21 168
3 21 168
0 22 168
1 22 168
2 22 168
3 22 168
0 23 168
1 23 168
2 23 168
3 23 168
0 24 168
1 24 168
2 24 168
3 24 168
0 25 168
1 25 168
2 25 168
3 25 168
0 26 168
1 26 168
2 26 168
3 26 168
0 27 168
1 27 168
2 27 168
3 27 168
0 28 168
1 28 168
2 28 168
3 28 168
0 29 168
1 29 168
2 29 168
3 29 168
0 30 168
1 30 168
2 30 168
3 30 168
0 31 168
1 31 168
2 31 168
3 31 168
0 32 168
1 32 168
2 32 168
3 32 168
0 33 168
1 33 168
2 33 168
3 33 168
0 34 168
1 34 168
2 34 168
3 34 168
0 35 168
1 35 168
2 35 168
3 35 168
0 36 168
1 36 168
2 36 168
3 36 168
0 37 168
1 37 168
2 37 168
3 37 168
0 38 168
1 38 168
2 38 168
3 38 168
0 39 168
1 39 168
2 39 168
3 39 168
0 40 168
1 40 168
2 40 168
3 40 168
0 41 168
1 41 168
2 41 168
3 41 168
0 42 168
1 42 168
2 42 168
3 42 168
0 43 168
1 43 168
2 43 168
3 43 168
0 44 168
1 44 168
2 44 168
3 44 168
0 45 168
1 45 168
2 45 168
3 45 168
0 46 168
1 46 168
2 46 168
3 46 168
0 47 168
1 47 168
2 47 168
3 47 168
0 48 168
1 48 168
2 48 168
3 48 168
0 49 168
1 49 168
2 49 168
3 49 168
0 50 168
1 50 168
2 50 168
3 50 168
0 51 168
1 51 168
2 51 168
3 51 168
0 52 168
1 52 168
2 52 168
3 52 168
0 53 168
1 53 168
2 53 168
3 53 168
0 54 168
1 54 168
2 54 168
3 54 168
0 55 168
1 55 168
2 55 168
3 55 168
0 56 168
1 56 168
2 56 168
3 56 168
0 57 168
1 57 168
2 57 168
3 57 168
0 58 168
1 58 168
2 58 168
3 58 168
0 59 168
1 59 168
2 59 168
3 59 168
0 60 168
1 60 168
2 60 168
3 60 168
0 61 168
1 61 168
2 61 168
3 61 168
0 62 168
1 62 168
2 62 168
3 62 168
0 63 168
1 63 168
2 63 168
3 63 168
0 64 168
1 64 168
2 64 168
3 64 168
0 65 168
1 65 168
2 65 168
3 65 168
0 66 168
1 66 168
2 66 168
3 66 168
0 0 169
1 0 169
2 0 169
3 0 169
0 1 169
1 1 169
2 1 169
3 1 169
0 2 169
1 2 169
2 2 169
3 2 169
0 3 169
1 3 169
2 3 169
3 3 169
0 4 169
1 4 169
2 4 169
3 4 169
0 5 169
1 5 169
2 5 169
3 5 169
0 6 169
1 6 169
2 6 169
3 6 169
0 7 169
1 7 169
2 7 169
3 7 169
0 8 169
1 8 169
2 8 169
3 8 169
0 9 169
1 9 169
2 9 169
3 9 169
0 10 169
1 10 169
2 10 169
3 10 169
0 11 169
1 11 169
2 11 169
3 11 169
0 12 169
1 12 169
2 12 169
3 12 169
0 13 169
1 13 169
2 13 169
3 13 169
0 14 169
1 14 169
2 14 169
3 14 169
0 15 169
1 15 169
2 15 169
3 15 169
0 16 169
1 16 169
2 16 169
3 16 169
0 17 169
1 17 169
2 17 169
3 17 169
0 18 169
1 18 169
2 18 169
3 18 169
0 19 169
1 19 169
2 19 169
3 19 169
0 20 169
1 20 169
2 20 169
3 20 169
0 21 169
1 21 169
2 21 169
3 21 169
0 22 169
1 22 169
2 22 169
3 22 169
0 23 169
1 23 169
2 23 169
3 23 169
0 24 169
1 24 169
2 24 169
3 24 169
0 25 169
1 25 169
2 25 169
3 25 169
0 26 169
1 26 169
2 26 169
3 26 169
0 27 169
1 27 169
2 27 169
3 27 169
0 28 169
1 28 169
2 28 169
3 28 169
0 29 169
1 29 169
2 29 169
3 29 169
0 30 169
1 30 169
2 30 169
3 30 169
0 31 169
1 31 169
2 31 169
3 31 169
0 32 169
1 32 169
2 32 169
3 32 169
0 33 169
1 33 169
2 33 169
3 33 169
0 34 169
1 34 169
2 34 169
3 34 169
0 35 169
1 35 169
2 35 169
3 35 169
0 36 169
1 36 169
2 36 169
3 36 169
0 37 169
1 37 169
2 37 169
3 37 169
0 38 169
1 38 169
2 38 169
3 38 169
0 39 169
1 39 169
2 39 169
3 39 169
0 40 169
1 40 169
2 40 169
3 40 169
0 41 169
1 41 169
2 41 169
3 41 169
0 42 169
1 42 169
2 42 169
3 42 169
0 43 169
1 43 169
2 43 169
3 43 169
0 44 169
1 44 169
2 44 169
3 44 169
0 45 169
1 45 169
2 45 169
3 45 169
0 46 169
1 46 169
2 46 169
3 46 169
0 47 169
1 47 169
2 47 169
3 47 169
0 48 169
1 48 169
2 48 169
3 48 169
0 49 169
1 49 169
2 49 169
3 49 169
0 50 169
1 50 169
2 50 169
3 50 169
0 51 169
1 51 169
2 51 169
3 51 169
0 52 169
1 52 169
2 52 169
3 52 169
0 53 169
1 53 169
2 53 169
3 53 169
0 54 169
1 54 169
2 54 169
3 54 169
0 55 169
1 55 169
2 55 169
3 55 169
0 56 169
1 56 169
2 56 169
3 56 169
0 57 169
1 57 169
2 57 169
3 57 169
0 58 169
1 58 169
2 58 169
3 58 169
0 59 169
1 59 169
2 59 169
3 59 169
0 60 169
1 60 169
2 60 169
3 60 169
0 61 169
1 61 169
2 61 169
3 61 169
0 62 169
1 62 169
2 62 169
3 62 169
0 63 169
1 63 169
2 63 169
3 63 169
0 64 169
1 64 169
2 64 169
3 64 169
0 65 169
1 65 169
2 65 169
3 65 169
0 66 169
1 66 169
2 66 169
3 66 169
0 0 170
1 0 170
2 0 170
3 0 170
0 1 170
1 1 170
2 1 170
3 1 170
0 2 170
1 2 170
2 2 170
3 2 170
0 3 170
1 3 170
2 3 170
3 3 170
0 4 170
1 4 170
2 4 170
3 4 170
0 5 170
1 5 170
2 5 170
3 5 170
0 6 170
1 6 170
2 6 170
3 6 170
0 7 170
1 7 170
2 7 170
3 7 170
0 8 170
1 8 170
2 8 170
3 8 170
0 9 170
1 9 170
2 9 170
3 9 170
0 10 170
1 10 170
2 10 170
3 10 170
0 11 170
1 11 170
2 11 170
3 11 170
0 12 170
1 12 170
2 12 170
3 12 170
0 13 170
1 13 170
2 13 170
3 13 170
0 14 170
1 14 170
2 14 170
3 14 170
0 15 170
1 15 170
2 15 170
3 15 170
0 16 170
1 16 170
2 16 170
3 16 170
0 17 170
1 17 170
2 17 170
3 17 170
0 18 170
1 18 170
2 18 170
3 18 170
0 19 170
1 19 170
2 19 170
3 19 170
0 20 170
1 20 170
2 20 170
3 20 170
0 21 170
1 21 170
2 21 170
3 21 170
0 22 170
1 22 170
2 22 170
3 22 170
0 23 170
1 23 170
2 23 170
3 23 170
0 24 170
1 24 170
2 24 170
3 24 170
0 25 170
1 25 170
2 25 170
3 25 170
0 26 170
1 26 170
2 26 170
3 26 170
0 27 170
1 27 170
2 27 170
3 27 170
0 28 170
1 28 170
2 28 170
3 28 170
0 29 170
1 29 170
2 29 170
3 29 170
0 30 170
1 30 170
2 30 170
3 30 170
0 31 170
1 31 170
2 31 170
3 31 170
0 32 170
1 32 170
2 32 170
3 32 170
0 33 170
1 33 170
2 33 170
3 33 170
0 34 170
1 34 170
2 34 170
3 34 170
0 35 170
1 35 170
2 35 170
3 35 170
0 36 170
1 36 170
2 36 170
3 36 170
0 37 170
1 37 170
2 37 170
3 37 170
0 38 170
1 38 170
2 38 170
3 38 170
0 39 170
1 39 170
2 39 170
3 39 170
0 40 170
1 40 170
2 40 170
3 40 170
0 41 170
1 41 170
2 41 170
3 41 170
0 42 170
1 42 170
2 42 170
3 42 170
0 43 170
1 43 170
2 43 170
3 43 170
0 44 170
1 44 170
2 44 170
3 44 170
0 45 170
1 45 170
2 45 170
3 45 170
0 46 170
1 46 170
2 46 170
3 46 170
0 47 170
1 47 170
2 47 170
3 47 170
0 48 170
1 48 170
2 48 170
3 48 170
0 49 170
1 49 170
2 49 170
3 49 170
0 50 170
1 50 170
2 50 170
3 50 170
0 51 170
1 51 170
2 51 170
3 51 170
0 52 170
1 52 170
2 52 170
3 52 170
0 53 170
1 53 170
2 53 170
3 53 170
0 54 170
1 54 170
2 54 170
3 54 170
0 55 170
1 55 170
2 55 170
3 55 170
0 56 170
1 56 170
2 56 170
3 56 170
0 57 170
1 57 170
2 57 170
3 57 170
0 58 170
1 58 170
2 58 170
3 58 170
0 59 170
1 59 170
2 59 170
3 59 170
0 60 170
1 60 170
2 60 170
3 60 170
0 61 170
1 61 170
2 61 170
3 61 170
0 62 170
1 62 170
2 62 170
3 62 170
0 63 170
1 63 170
2 63 170
3 63 170
0 64 170
1 64 170
2 64 170
3 64 170
0 65 170
1 65 170
2 65 170
3 65 170
0 66 170
1 66 170
2 66 170
3 66 170
0 0 171
1 0 171
2 0 171
3 0 171
0 1 171
1 1 171
2 1 171
3 1 171
0 2 171
1 2 171
2 2 171
3 2 171
0 3 171
1 3 171
2 3 171
3 3 171
0 4 171
1 4 171
2 4 171
3 4 171
0 5 171
1 5 171
2 5 171
3 5 171
0 6 171
1 6 171
2 6 171
3 6 171
0 7 171
1 7 171
2 7 171
3 7 171
0 8 171
1 8 171
2 8 171
3 8 171
0 9 171
1 9 171
2 9 171
3 9 171
0 10 171
1 10 171
2 10 171
3 10 171
0 11 171
1 11 171
2 11 171
3 11 171
0 12 171
1 12 171
2 12 171
3 12 171
0 13 171
1 13 171
2 13 171
3 13 171
0 14 171
1 14 171
2 14 171
3 14 171
0 15 171
1 15 171
2 15 171
3 15 171
0 16 171
1 16 171
2 16 171
3 16 171
0 17 171
1 17 171
2 17 171
3 17 171
0 18 171
1 18 171
2 18 171
3 18 171
0 19 171
1 19 171
2 19 171
3 19 171
0 20 171
1 20 171
2 20 171
3 20 171
0 21 171
1 21 171
2 21 171
3 21 171
0 22 171
1 22 171
2 22 171
3 22 171
0 23 171
1 23 171
2 23 171
3 23 171
0 24 171
1 24 171
2 24 171
3 24 171
0 25 171
1 25 171
2 25 171
3 25 171
0 26 171
1 26 171
2 26 171
3 26 171
0 27 171
1 27 171
2 27 171
3 27 171
0 28 171
1 28 171
2 28 171
3 28 171
0 29 171
1 29 171
2 29 171
3 29 171
0 30 171
1 30 171
2 30 171
3 30 171
0 31 171
1 31 171
2 31 171
3 31 171
0 32 171
1 32 171
2 32 171
3 32 171
0 33 171
1 33 171
2 33 171
3 33 171
0 34 171
1 34 171
2 34 171
3 34 171
0 35 171
1 35 171
2 35 171
3 35 171
0 36 171
1 36 171
2 36 171
3 36 171
0 37 171
1 37 171
2 37 171
3 37 171
0 38 171
1 38 171
2 38 171
3 38 171
0 39 171
1 39 171
2 39 171
3 39 171
0 40 171
1 40 171
2 40 171
3 40 171
0 41 171
1 41 171
2 41 171
3 41 171
0 42 171
1 42 171
2 42 171
3 42 171
0 43 171
1 43 171
2 43 171
3 43 171
0 44 171
1 44 171
2 44 171
3 44 171
0 45 171
1 45 171
2 45 171
3 45 171
0 46 171
1 46 171
2 46 171
3 46 171
0 47 171
1 47 171
2 47 171
3 47 171
0 48 171
1 48 171
2 48 171
3 48 171
0 49 171
1 49 171
2 49 171
3 49 171
0 50 171
1 50 171
2 50 171
3 50 171
0 51 171
1 51 171
2 51 171
3 51 171
0 52 171
1 52 171
2 52 171
3 52 171
0 53 171
1 53 171
2 53 171
3 53 171
0 54 171
1 54 171
2 54 171
3 54 171
0 55 171
1 55 171
2 55 171
3 55 171
0 56 171
1 56 171
2 56 171
3 56 171
0 57 171
1 57 171
2 57 171
3 57 171
0 58 171
1 58 171
2 58 171
3 58 171
0 59 171
1 59 171
2 59 171
3 59 171
0 60 171
1 60 171
2 60 171
3 60 171
0 61 171
1 61 171
2 61 171
3 61 171
0 62 171
1 62 171
2 62 171
3 62 171
0 63 171
1 63 171
2 63 171
3 63 171
0 64 171
1 64 171
2 64 171
3 64 171
0 65 171
1 65 171
2 65 171
3 65 171
0 66 171
1 66 171
2 66 171
3 66 171
0 0 172
1 0 172
2 0 172
3 0 172
0 1 172
1 1 172
2 1 172
3 1 172
0 2 172
1 2 172
2 2 172
3 2 172
0 3 172
1 3 172
2 3 172
3 3 172
0 4 172
1 4 172
2 4 172
3 4 172
0 5 172
1 5 172
2 5 172
3 5 172
0 6 172
1 6 172
2 6 172
3 6 172
0 7 172
1 7 172
2 7 172
3 7 172
0 8 172
1 8 172
2 8 172
3 8 172
0 9 172
1 9 172
2 9 172
3 9 172
0 10 172
1 10 172
2 10 172
3 10 172
0 11 172
1 11 172
2 11 172
3 11 172
0 12 172
1 12 172
2 12 172
3 12 172
0 13 172
1 13 172
2 13 172
3 13 172
0 14 172
1 14 172
2 14 172
3 14 172
0 15 172
1 15 172
2 15 172
3 15 172
0 16 172
1 16 172
2 16 172
3 16 172
0 17 172
1 17 172
2 17 172
3 17 172
0 18 172
1 18 172
2 18 172
3 18 172
0 19 172
1 19 172
2 19 172
3 19 172
0 20 172
1 20 172
2 20 172
3 20 172
0 21 172
1 21 172
2 21 172
3 21 172
0 22 172
1 22 172
2 22 172
3 22 172
0 23 172
1 23 172
2 23 172
3 23 172
0 24 172
1 24 172
2 24 172
3 24 172
0 25 172
1 25 172
2 25 172
3 25 172
0 26 172
1 26 172
2 26 172
3 26 172
0 27 172
1 27 172
2 27 172
3 27 172
0 28 172
1 28 172
2 28 172
3 28 172
0 29 172
1 29 172
2 29 172
3 29 172
0 30 172
1 30 172
2 30 172
3 30 172
0 31 172
1 31 172
2 31 172
3 31 172
0 32 172
1 32 172
2 32 172
3 32 172
0 33 172
1 33 172
2 33 172
3 33 172
0 34 172
1 34 172
2 34 172
3 34 172
0 35 172
1 35 172
2 35 172
3 35 172
0 36 172
1 36 172
2 36 172
3 36 172
0 37 172
1 37 172
2 37 172
3 37 172
0 38 172
1 38 172
2 38 172
3 38 172
0 39 172
1 39 172
2 39 172
3 39 172
0 40 172
1 40 172
2 40 172
3 40 172
0 41 172
1 41 172
2 41 172
3 41 172
0 42 172
1 42 172
2 42 172
3 42 172
0 43 172
1 43 172
2 43 172
3 43 172
0 44 172
1 44 172
2 44 172
3 44 172
0 45 172
1 45 172
2 45 172
3 45 172
0 46 172
1 46 172
2 46 172
3 46 172
0 47 172
1 47 172
2 47 172
3 47 172
0 48 172
1 48 172
2 48 172
3 48 172
0 49 172
1 49 172
2 49 172
3 49 172
0 50 172
1 50 172
2 50 172
3 50 172
0 51 172
1 51 172
2 51 172
3 51 172
0 52 172
1 52 172
2 52 172
3 52 172
0 53 172
1 53 172
2 53 172
3 53 172
0 54 172
1 54 172
2 54 172
3 54 172
0 55 172
1 55 172
2 55 172
3 55 172
0 56 172
1 56 172
2 56 172
3 56 172
0 57 172
1 57 172
2 57 172
3 57 172
0 58 172
1 58 172
2 58 172
3 58 172
0 59 172
1 59 172
2 59 172
3 59 172
0 60 172
1 60 172
2 60 172
3 60 172
0 61 172
1 61 172
2 61 172
3 61 172
0 62 172
1 62 172
2 62 172
3 62 172
0 63 172
1 63 172
2 63 172
3 63 172
0 64 172
1 64 172
2 64 172
3 64 172
0 65 172
1 65 172
2 65 172
3 65 172
0 66 172
1 66 172
2 66 172
3 66 172
0 0 173
1 0 173
2 0 173
3 0 173
0 1 173
1 1 173
2 1 173
3 1 173
0 2 173
1 2 173
2 2 173
3 2 173
0 3 173
1 3 173
2 3 173
3 3 173
0 4 173
1 4 173
2 4 173
3 4 173
0 5 173
1 5 173
2 5 173
3 5 173
0 6 173
1 6 173
2 6 173
3 6 173
0 7 173
1 7 173
2 7 173
3 7 173
0 8 173
1 8 173
2 8 173
3 8 173
0 9 173
1 9 173
2 9 173
3 9 173
0 10 173
1 10 173
2 10 173
3 10 173
0 11 173
1 11 173
2 11 173
3 11 173
0 12 173
1 12 173
2 12 173
3 12 173
0 13 173
1 13 173
2 13 173
3 13 173
0 14 173
1 14 173
2 14 173
3 14 173
0 15 173
1 15 173
2 15 173
3 15 173
0 16 173
1 16 173
2 16 173
3 16 173
0 17 173
1 17 173
2 17 173
3 17 173
0 18 173
1 18 173
2 18 173
3 18 173
0 19 173
1 19 173
2 19 173
3 19 173
0 20 173
1 20 173
2 20 173
3 20 173
0 21 173
1 21 173
2 21 173
3 21 173
0 22 173
1 22 173
2 22 173
3 22 173
0 23 173
1 23 173
2 23 173
3 23 173
0 24 173
1 24 173
2 24 173
3 24 173
0 25 173
1 25 173
2 25 173
3 25 173
0 26 173
1 26 173
2 26 173
3 26 173
0 27 173
1 27 173
2 27 173
3 27 173
0 28 173
1 28 173
2 28 173
3 28 173
0 29 173
1 29 173
2 29 173
3 29 173
0 30 173
1 30 173
2 30 173
3 30 173
0 31 173
1 31 173
2 31 173
3 31 173
0 32 173
1 32 173
2 32 173
3 32 173
0 33 173
1 33 173
2 33 173
3 33 173
0 34 173
1 34 173
2 34 173
3 34 173
0 35 173
1 35 173
2 35 173
3 35 173
0 36 173
1 36 173
2 36 173
3 36 173
0 37 173
1 37 173
2 37 173
3 37 173
0 38 173
1 38 173
2 38 173
3 38 173
0 39 173
1 39 173
2 39 173
3 39 173
0 40 173
1 40 173
2 40 173
3 40 173
0 41 173
1 41 173
2 41 173
3 41 173
0 42 173
1 42 173
2 42 173
3 42 173
0 43 173
1 43 173
2 43 173
3 43 173
0 44 173
1 44 173
2 44 173
3 44 173
0 45 173
1 45 173
2 45 173
3 45 173
0 46 173
1 46 173
2 46 173
3 46 173
0 47 173
1 47 173
2 47 173
3 47 173
0 48 173
1 48 173
2 48 173
3 48 173
0 49 173
1 49 173
2 49 173
3 49 173
0 50 173
1 50 173
2 50 173
3 50 173
0 51 173
1 51 173
2 51 173
3 51 173
0 52 173
1 52 173
2 52 173
3 52 173
0 53 173
1 53 173
2 53 173
3 53 173
0 54 173
1 54 173
2 54 173
3 54 173
0 55 173
1 55 173
2 55 173
3 55 173
0 56 173
1 56 173
2 56 173
3 56 173
0 57 173
1 57 173
2 57 173
3 57 173
0 58 173
1 58 173
2 58 173
3 58 173
0 59 173
1 59 173
2 59 173
3 59 173
0 60 173
1 60 173
2 60 173
3 60 173
0 61 173
1 61 173
2 61 173
3 61 173
0 62 173
1 62 173
2 62 173
3 62 173
0 63 173
1 63 173
2 63 173
3 63 173
0 64 173
1 64 173
2 64 173
3 64 173
0 65 173
1 65 173
2 65 173
3 65 173
0 66 173
1 66 173
2 66 173
3 66 173
0 0 174
1 0 174
2 0 174
3 0 174
0 1 174
1 1 174
2 1 174
3 1 174
0 2 174
1 2 174
2 2 174
3 2 174
0 3 174
1 3 174
2 3 174
3 3 174
0 4 174
1 4 174
2 4 174
3 4 174
0 5 174
1 5 174
2 5 174
3 5 174
0 6 174
1 6 174
2 6 174
3 6 174
0 7 174
1 7 174
2 7 174
3 7 174
0 8 174
1 8 174
2 8 174
3 8 174
0 9 174
1 9 174
2 9 174
3 9 174
0 10 174
1 10 174
2 10 174
3 10 174
0 11 174
1 11 174
2 11 174
3 11 174
0 12 174
1 12 174
2 12 174
3 12 174
0 13 174
1 13 174
2 13 174
3 13 174
0 14 174
1 14 174
2 14 174
3 14 174
0 15 174
1 15 174
2 15 174
3 15 174
0 16 174
1 16 174
2 16 174
3 16 174
0 17 174
1 17 174
2 17 174
3 17 174
0 18 174
1 18 174
2 18 174
3 18 174
0 19 174
1 19 174
2 19 174
3 19 174
0 20 174
1 20 174
2 20 174
3 20 174
0 21 174
1 21 174
2 21 174
3 21 174
0 22 174
1 22 174
2 22 174
3 22 174
0 23 174
1 23 174
2 23 174
3 23 174
0 24 174
1 24 174
2 24 174
3 24 174
0 25 174
1 25 174
2 25 174
3 25 174
0 26 174
1 26 174
2 26 174
3 26 174
0 27 174
1 27 174
2 27 174
3 27 174
0 28 174
1 28 174
2 28 174
3 28 174
0 29 174
1 29 174
2 29 174
3 29 174
0 30 174
1 30 174
2 30 174
3 30 174
0 31 174
1 31 174
2 31 174
3 31 174
0 32 174
1 32 174
2 32 174
3 32 174
0 33 174
1 33 174
2 33 174
3 33 174
0 34 174
1 34 174
2 34 174
3 34 174
0 35 174
1 35 174
2 35 174
3 35 174
0 36 174
1 36 174
2 36 174
3 36 174
0 37 174
1 37 174
2 37 174
3 37 174
0 38 174
1 38 174
2 38 174
3 38 174
0 39 174
1 39 174
2 39 174
3 39 174
0 40 174
1 40 174
2 40 174
3 40 174
0 41 174
1 41 174
2 41 174
3 41 174
0 42 174
1 42 174
2 42 174
3 42 174
0 43 174
1 43 174
2 43 174
3 43 174
0 44 174
1 44 174
2 44 174
3 44 174
0 45 174
1 45 174
2 45 174
3 45 174
0 46 174
1 46 174
2 46 174
3 46 174
0 47 174
1 47 174
2 47 174
3 47 174
0 48 174
1 48 174
2 48 174
3 48 174
0 49 174
1 49 174
2 49 174
3 49 174
0 50 174
1 50 174
2 50 174
3 50 174
0 51 174
1 51 174
2 51 174
3 51 174
0 52 174
1 52 174
2 52 174
3 52 174
0 53 174
1 53 174
2 53 174
3 53 174
0 54 174
1 54 174
2 54 174
3 54 174
0 55 174
1 55 174
2 55 174
3 55 174
0 56 174
1 56 174
2 56 174
3 56 174
0 57 174
1 57 174
2 57 174
3 57 174
0 58 174
1 58 174
2 58 174
3 58 174
0 59 174
1 59 174
2 59 174
3 59 174
0 60 174
1 60 174
2 60 174
3 60 174
0 61 174
1 61 174
2 61 174
3 61 174
0 62 174
1 62 174
2 62 174
3 62 174
0 63 174
1 63 174
2 63 174
3 63 174
0 64 174
1 64 174
2 64 174
3 64 174
0 65 174
1 65 174
2 65 174
3 65 174
0 66 174
1 66 174
2 66 174
3 66 174
0 0 175
1 0 175
2 0 175
3 0 175
0 1 175
1 1 175
2 1 175
3 1 175
0 2 175
1 2 175
2 2 175
3 2 175
0 3 175
1 3 175
2 3 175
3 3 175
0 4 175
1 4 175
2 4 175
3 4 175
0 5 175
1 5 175
2 5 175
3 5 175
0 6 175
1 6 175
2 6 175
3 6 175
0 7 175
1 7 175
2 7 175
3 7 175
0 8 175
1 8 175
2 8 175
3 8 175
0 9 175
1 9 175
2 9 175
3 9 175
0 10 175
1 10 175
2 10 175
3 10 175
0 11 175
1 11 175
2 11 175
3 11 175
0 12 175
1 12 175
2 12 175
3 12 175
0 13 175
1 13 175
2 13 175
3 13 175
0 14 175
1 14 175
2 14 175
3 14 175
0 15 175
1 15 175
2 15 175
3 15 175
0 16 175
1 16 175
2 16 175
3 16 175
0 17 175
1 17 175
2 17 175
3 17 175
0 18 175
1 18 175
2 18 175
3 18 175
0 19 175
1 19 175
2 19 175
3 19 175
0 20 175
1 20 175
2 20 175
3 20 175
0 21 175
1 21 175
2 21 175
3 21 175
0 22 175
1 22 175
2 22 175
3 22 175
0 23 175
1 23 175
2 23 175
3 23 175
0 24 175
1 24 175
2 24 175
3 24 175
0 25 175
1 25 175
2 25 175
3 25 175
0 26 175
1 26 175
2 26 175
3 26 175
0 27 175
1 27 175
2 27 175
3 27 175
0 28 175
1 28 175
2 28 175
3 28 175
0 29 175
1 29 175
2 29 175
3 29 175
0 30 175
1 30 175
2 30 175
3 30 175
0 31 175
1 31 175
2 31 175
3 31 175
0 32 175
1 32 175
2 32 175
3 32 175
0 33 175
1 33 175
2 33 175
3 33 175
0 34 175
1 34 175
2 34 175
3 34 175
0 35 175
1 35 175
2 35 175
3 35 175
0 36 175
1 36 175
2 36 175
3 36 175
0 37 175
1 37 175
2 37 175
3 37 175
0 38 175
1 38 175
2 38 175
3 38 175
0 39 175
1 39 175
2 39 175
3 39 175
0 40 175
1 40 175
2 40 175
3 40 175
0 41 175
1 41 175
2 41 175
3 41 175
0 42 175
1 42 175
2 42 175
3 42 175
0 43 175
1 43 175
2 43 175
3 43 175
0 44 175
1 44 175
2 44 175
3 44 175
0 45 175
1 45 175
2 45 175
3 45 175
0 46 175
1 46 175
2 46 175
3 46 175
0 47 175
1 47 175
2 47 175
3 47 175
0 48 175
1 48 175
2 48 175
3 48 175
0 49 175
1 49 175
2 49 175
3 49 175
0 50 175
1 50 175
2 50 175
3 50 175
0 51 175
1 51 175
2 51 175
3 51 175
0 52 175
1 52 175
2 52 175
3 52 175
0 53 175
1 53 175
2 53 175
3 53 175
0 54 175
1 54 175
2 54 175
3 54 175
0 55 175
1 55 175
2 55 175
3 55 175
0 56 175
1 56 175
2 56 175
3 56 175
0 57 175
1 57 175
2 57 175
3 57 175
0 58 175
1 58 175
2 58 175
3 58 175
0 59 175
1 59 175
2 59 175
3 59 175
0 60 175
1 60 175
2 60 175
3 60 175
0 61 175
1 61 175
2 61 175
3 61 175
0 62 175
1 62 175
2 62 175
3 62 175
0 63 175
1 63 175
2 63 175
3 63 175
0 64 175
1 64 175
2 64 175
3 64 175
0 65 175
1 65 175
2 65 175
3 65 175
0 66 175
1 66 175
2 66 175
3 66 175
0 0 176
1 0 176
2 0 176
3 0 176
0 1 176
1 1 176
2 1 176
3 1 176
0 2 176
1 2 176
2 2 176
3 2 176
0 3 176
1 3 176
2 3 176
3 3 176
0 4 176
1 4 176
2 4 176
3 4 176
0 5 176
1 5 176
2 5 176
3 5 176
0 6 176
1 6 176
2 6 176
3 6 176
0 7 176
1 7 176
2 7 176
3 7 176
0 8 176
1 8 176
2 8 176
3 8 176
0 9 176
1 9 176
2 9 176
3 9 176
0 10 176
1 10 176
2 10 176
3 10 176
0 11 176
1 11 176
2 11 176
3 11 176
0 12 176
1 12 176
2 12 176
3 12 176
0 13 176
1 13 176
2 13 176
3 13 176
0 14 176
1 14 176
2 14 176
3 14 176
0 15 176
1 15 176
2 15 176
3 15 176
0 16 176
1 16 176
2 16 176
3 16 176
0 17 176
1 17 176
2 17 176
3 17 176
0 18 176
1 18 176
2 18 176
3 18 176
0 19 176
1 19 176
2 19 176
3 19 176
0 20 176
1 20 176
2 20 176
3 20 176
0 21 176
1 21 176
2 21 176
3 21 176
0 22 176
1 22 176
2 22 176
3 22 176
0 23 176
1 23 176
2 23 176
3 23 176
0 24 176
1 24 176
2 24 176
3 24 176
0 25 176
1 25 176
2 25 176
3 25 176
0 26 176
1 26 176
2 26 176
3 26 176
0 27 176
1 27 176
2 27 176
3 27 176
0 28 176
1 28 176
2 28 176
3 28 176
0 29 176
1 29 176
2 29 176
3 29 176
0 30 176
1 30 176
2 30 176
3 30 176
0 31 176
1 31 176
2 31 176
3 31 176
0 32 176
1 32 176
2 32 176
3 32 176
0 33 176
1 33 176
2 33 176
3 33 176
0 34 176
1 34 176
2 34 176
3 34 176
0 35 176
1 35 176
2 35 176
3 35 176
0 36 176
1 36 176
2 36 176
3 36 176
0 37 176
1 37 176
2 37 176
3 37 176
0 38 176
1 38 176
2 38 176
3 38 176
0 39 176
1 39 176
2 39 176
3 39 176
0 40 176
1 40 176
2 40 176
3 40 176
0 41 176
1 41 176
2 41 176
3 41 176
0 42 176
1 42 176
2 42 176
3 42 176
0 43 176
1 43 176
2 43 176
3 43 176
0 44 176
1 44 176
2 44 176
3 44 176
0 45 176
1 45 176
2 45 176
3 45 176
0 46 176
1 46 176
2 46 176
3 46 176
0 47 176
1 47 176
2 47 176
3 47 176
0 48 176
1 48 176
2 48 176
3 48 176
0 49 176
1 49 176
2 49 176
3 49 176
0 50 176
1 50 176
2 50 176
3 50 176
0 51 176
1 51 176
2 51 176
3 51 176
0 52 176
1 52 176
2 52 176
3 52 176
0 53 176
1 53 176
2 53 176
3 53 176
0 54 176
1 54 176
2 54 176
3 54 176
0 55 176
1 55 176
2 55 176
3 55 176
0 56 176
1 56 176
2 56 176
3 56 176
0 57 176
1 57 176
2 57 176
3 57 176
0 58 176
1 58 176
2 58 176
3 58 176
0 59 176
1 59 176
2 59 176
3 59 176
0 60 176
1 60 176
2 60 176
3 60 176
0 61 176
1 61 176
2 61 176
3 61 176
0 62 176
1 62 176
2 62 176
3 62 176
0 63 176
1 63 176
2 63 176
3 63 176
0 64 176
1 64 176
2 64 176
3 64 176
0 65 176
1 65 176
2 65 176
3 65 176
0 66 176
1 66 176
2 66 176
3 66 176
0 0 177
1 0 177
2 0 177
3 0 177
0 1 177
1 1 177
2 1 177
3 1 177
0 2 177
1 2 177
2 2 177
3 2 177
0 3 177
1 3 177
2 3 177
3 3 177
0 4 177
1 4 177
2 4 177
3 4 177
0 5 177
1 5 177
2 5 177
3 5 177
0 6 177
1 6 177
2 6 177
3 6 177
0 7 177
1 7 177
2 7 177
3 7 177
0 8 177
1 8 177
2 8 177
3 8 177
0 9 177
1 9 177
2 9 177
3 9 177
0 10 177
1 10 177
2 10 177
3 10 177
0 11 177
1 11 177
2 11 177
3 11 177
0 12 177
1 12 177
2 12 177
3 12 177
0 13 177
1 13 177
2 13 177
3 13 177
0 14 177
1 14 177
2 14 177
3 14 177
0 15 177
1 15 177
2 15 177
3 15 177
0 16 177
1 16 177
2 16 177
3 16 177
0 17 177
1 17 177
2 17 177
3 17 177
0 18 177
1 18 177
2 18 177
3 18 177
0 19 177
1 19 177
2 19 177
3 19 177
0 20 177
1 20 177
2 20 177
3 20 177
0 21 177
1 21 177
2 21 177
3 21 177
0 22 177
1 22 177
2 22 177
3 22 177
0 23 177
1 23 177
2 23 177
3 23 177
0 24 177
1 24 177
2 24 177
3 24 177
0 25 177
1 25 177
2 25 177
3 25 177
0 26 177
1 26 177
2 26 177
3 26 177
0 27 177
1 27 177
2 27 177
3 27 177
0 28 177
1 28 177
2 28 177
3 28 177
0 29 177
1 29 177
2 29 177
3 29 177
0 30 177
1 30 177
2 30 177
3 30 177
0 31 177
1 31 177
2 31 177
3 31 177
0 32 177
1 32 177
2 32 177
3 32 177
0 33 177
1 33 177
2 33 177
3 33 177
0 34 177
1 34 177
2 34 177
3 34 177
0 35 177
1 35 177
2 35 177
3 35 177
0 36 177
1 36 177
2 36 177
3 36 177
0 37 177
1 37 177
2 37 177
3 37 177
0 38 177
1 38 177
2 38 177
3 38 177
0 39 177
1 39 177
2 39 177
3 39 177
0 40 177
1 40 177
2 40 177
3 40 177
0 41 177
1 41 177
2 41 177
3 41 177
0 42 177
1 42 177
2 42 177
3 42 177
0 43 177
1 43 177
2 43 177
3 43 177
0 44 177
1 44 177
2 44 177
3 44 177
0 45 177
1 45 177
2 45 177
3 45 177
0 46 177
1 46 177
2 46 177
3 46 177
0 47 177
1 47 177
2 47 177
3 47 177
0 48 177
1 48 177
2 48 177
3 48 177
0 49 177
1 49 177
2 49 177
3 49 177
0 50 177
1 50 177
2 50 177
3 50 177
0 51 177
1 51 177
2 51 177
3 51 177
0 52 177
1 52 177
2 52 177
3 52 177
0 53 177
1 53 177
2 53 177
3 53 177
0 54 177
1 54 177
2 54 177
3 54 177
0 55 177
1 55 177
2 55 177
3 55 177
0 56 177
1 56 177
2 56 177
3 56 177
0 57 177
1 57 177
2 57 177
3 57 177
0 58 177
1 58 177
2 58 177
3 58 177
0 59 177
1 59 177
2 59 177
3 59 177
0 60 177
1 60 177
2 60 177
3 60 177
0 61 177
1 61 177
2 61 177
3 61 177
0 62 177
1 62 177
2 62 177
3 62 177
0 63 177
1 63 177
2 63 177
3 63 177
0 64 177
1 64 177
2 64 177
3 64 177
0 65 177
1 65 177
2 65 177
3 65 177
0 66 177
1 66 177
2 66 177
3 66 177
0 0 178
1 0 178
2 0 178
3 0 178
0 1 178
1 1 178
2 1 178
3 1 178
0 2 178
1 2 178
2 2 178
3 2 178
0 3 178
1 3 178
2 3 178
3 3 178
0 4 178
1 4 178
2 4 178
3 4 178
0 5 178
1 5 178
2 5 178
3 5 178
0 6 178
1 6 178
2 6 178
3 6 178
0 7 178
1 7 178
2 7 178
3 7 178
0 8 178
1 8 178
2 8 178
3 8 178
0 9 178
1 9 178
2 9 178
3 9 178
0 10 178
1 10 178
2 10 178
3 10 178
0 11 178
1 11 178
2 11 178
3 11 178
0 12 178
1 12 178
2 12 178
3 12 178
0 13 178
1 13 178
2 13 178
3 13 178
0 14 178
1 14 178
2 14 178
3 14 178
0 15 178
1 15 178
2 15 178
3 15 178
0 16 178
1 16 178
2 16 178
3 16 178
0 17 178
1 17 178
2 17 178
3 17 178
0 18 178
1 18 178
2 18 178
3 18 178
0 19 178
1 19 178
2 19 178
3 19 178
0 20 178
1 20 178
2 20 178
3 20 178
0 21 178
1 21 178
2 21 178
3 21 178
0 22 178
1 22 178
2 22 178
3 22 178
0 23 178
1 23 178
2 23 178
3 23 178
0 24 178
1 24 178
2 24 178
3 24 178
0 25 178
1 25 178
2 25 178
3 25 178
0 26 178
1 26 178
2 26 178
3 26 178
0 27 178
1 27 178
2 27 178
3 27 178
0 28 178
1 28 178
2 28 178
3 28 178
0 29 178
1 29 178
2 29 178
3 29 178
0 30 178
1 30 178
2 30 178
3 30 178
0 31 178
1 31 178
2 31 178
3 31 178
0 32 178
1 32 178
2 32 178
3 32 178
0 33 178
1 33 178
2 33 178
3 33 178
0 34 178
1 34 178
2 34 178
3 34 178
0 35 178
1 35 178
2 35 178
3 35 178
0 36 178
1 36 178
2 36 178
3 36 178
0 37 178
1 37 178
2 37 178
3 37 178
0 38 178
1 38 178
2 38 178
3 38 178
0 39 178
1 39 178
2 39 178
3 39 178
0 40 178
1 40 178
2 40 178
3 40 178
0 41 178
1 41 178
2 41 178
3 41 178
0 42 178
1 42 178
2 42 178
3 42 178
0 43 178
1 43 178
2 43 178
3 43 178
0 44 178
1 44 178
2 44 178
3 44 178
0 45 178
1 45 178
2 45 178
3 45 178
0 46 178
1 46 178
2 46 178
3 46 178
0 47 178
1 47 178
2 47 178
3 47 178
0 48 178
1 48 178
2 48 178
3 48 178
0 49 178
1 49 178
2 49 178
3 49 178
0 50 178
1 50 178
2 50 178
3 50 178
0 51 178
1 51 178
2 51 178
3 51 178
0 52 178
1 52 178
2 52 178
3 52 178
0 53 178
1 53 178
2 53 178
3 53 178
0 54 178
1 54 178
2 54 178
3 54 178
0 55 178
1 55 178
2 55 178
3 55 178
0 56 178
1 56 178
2 56 178
3 56 178
0 57 178
1 57 178
2 57 178
3 57 178
0 58 178
1 58 178
2 58 178
3 58 178
0 59 178
1 59 178
2 59 178
3 59 178
0 60 178
1 60 178
2 60 178
3 60 178
0 61 178
1 61 178
2 61 178
3 61 178
0 62 178
1 62 178
2 62 178
3 62 178
0 63 178
1 63 178
2 63 178
3 63 178
0 64 178
1 64 178
2 64 178
3 64 178
0 65 178
1 65 178
2 65 178
3 65 178
0 66 178
1 66 178
2 66 178
3 66 178
0 0 179
1 0 179
2 0 179
3 0 179
0 1 179
1 1 179
2 1 179
3 1 179
0 2 179
1 2 179
2 2 179
3 2 179
0 3 179
1 3 179
2 3 179
3 3 179
0 4 179
1 4 179
2 4 179
3 4 179
0 5 179
1 5 179
2 5 179
3 5 179
0 6 179
1 6 179
2 6 179
3 6 179
0 7 179
1 7 179
2 7 179
3 7 179
0 8 179
1 8 179
2 8 179
3 8 179
0 9 179
1 9 179
2 9 179
3 9 179
0 10 179
1 10 179
2 10 179
3 10 179
0 11 179
1 11 179
2 11 179
3 11 179
0 12 179
1 12 179
2 12 179
3 12 179
0 13 179
1 13 179
2 13 179
3 13 179
0 14 179
1 14 179
2 14 179
3 14 179
0 15 179
1 15 179
2 15 179
3 15 179
0 16 179
1 16 179
2 16 179
3 16 179
0 17 179
1 17 179
2 17 179
3 17 179
0 18 179
1 18 179
2 18 179
3 18 179
0 19 179
1 19 179
2 19 179
3 19 179
0 20 179
1 20 179
2 20 179
3 20 179
0 21 179
1 21 179
2 21 179
3 21 179
0 22 179
1 22 179
2 22 179
3 22 179
0 23 179
1 23 179
2 23 179
3 23 179
0 24 179
1 24 179
2 24 179
3 24 179
0 25 179
1 25 179
2 25 179
3 25 179
0 26 179
1 26 179
2 26 179
3 26 179
0 27 179
1 27 179
2 27 179
3 27 179
0 28 179
1 28 179
2 28 179
3 28 179
0 29 179
1 29 179
2 29 179
3 29 179
0 30 179
1 30 179
2 30 179
3 30 179
0 31 179
1 31 179
2 31 179
3 31 179
0 32 179
1 32 179
2 32 179
3 32 179
0 33 179
1 33 179
2 33 179
3 33 179
0 34 179
1 34 179
2 34 179
3 34 179
0 35 179
1 35 179
2 35 179
3 35 179
0 36 179
1 36 179
2 36 179
3 36 179
0 37 179
1 37 179
2 37 179
3 37 179
0 38 179
1 38 179
2 38 179
3 38 179
0 39 179
1 39 179
2 39 179
3 39 179
0 40 179
1 40 179
2 40 179
3 40 179
0 41 179
1 41 179
2 41 179
3 41 179
0 42 179
1 42 179
2 42 179
3 42 179
0 43 179
1 43 179
2 43 179
3 43 179
0 44 179
1 44 179
2 44 179
3 44 179
0 45 179
1 45 179
2 45 179
3 45 179
0 46 179
1 46 179
2 46 179
3 46 179
0 47 179
1 47 179
2 47 179
3 47 179
0 48 179
1 48 179
2 48 179
3 48 179
0 49 179
1 49 179
2 49 179
3 49 179
0 50 179
1 50 179
2 50 179
3 50 179
0 51 179
1 51 179
2 51 179
3 51 179
0 52 179
1 52 179
2 52 179
3 52 179
0 53 179
1 53 179
2 53 179
3 53 179
0 54 179
1 54 179
2 54 179
3 54 179
0 55 179
1 55 179
2 55 179
3 55 179
0 56 179
1 56 179
2 56 179
3 56 179
0 57 179
1 57 179
2 57 179
3 57 179
0 58 179
1 58 179
2 58 179
3 58 179
0 59 179
1 59 179
2 59 179
3 59 179
0 60 179
1 60 179
2 60 179
3 60 179
0 61 179
1 61 179
2 61 179
3 61 179
0 62 179
1 62 179
2 62 179
3 62 179
0 63 179
1 63 179
2 63 179
3 63 179
0 64 179
1 64 179
2 64 179
3 64 179
0 65 179
1 65 179
2 65 179
3 65 179
0 66 179
1 66 179
2 66 179
3 66 179
0 0 180
1 0 180
2 0 180
3 0 180
0 1 180
1 1 180
2 1 180
3 1 180
0 2 180
1 2 180
2 2 180
3 2 180
0 3 180
1 3 180
2 3 180
3 3 180
0 4 180
1 4 180
2 4 180
3 4 180
0 5 180
1 5 180
2 5 180
3 5 180
0 6 180
1 6 180
2 6 180
3 6 180
0 7 180
1 7 180
2 7 180
3 7 180
0 8 180
1 8 180
2 8 180
3 8 180
0 9 180
1 9 180
2 9 180
3 9 180
0 10 180
1 10 180
2 10 180
3 10 180
0 11 180
1 11 180
2 11 180
3 11 180
0 12 180
1 12 180
2 12 180
3 12 180
0 13 180
1 13 180
2 13 180
3 13 180
0 14 180
1 14 180
2 14 180
3 14 180
0 15 180
1 15 180
2 15 180
3 15 180
0 16 180
1 16 180
2 16 180
3 16 180
0 17 180
1 17 180
2 17 180
3 17 180
0 18 180
1 18 180
2 18 180
3 18 180
0 19 180
1 19 180
2 19 180
3 19 180
0 20 180
1 20 180
2 20 180
3 20 180
0 21 180
1 21 180
2 21 180
3 21 180
0 22 180
1 22 180
2 22 180
3 22 180
0 23 180
1 23 180
2 23 180
3 23 180
0 24 180
1 24 180
2 24 180
3 24 180
0 25 180
1 25 180
2 25 180
3 25 180
0 26 180
1 26 180
2 26 180
3 26 180
0 27 180
1 27 180
2 27 180
3 27 180
0 28 180
1 28 180
2 28 180
3 28 180
0 29 180
1 29 180
2 29 180
3 29 180
0 30 180
1 30 180
2 30 180
3 30 180
0 31 180
1 31 180
2 31 180
3 31 180
0 32 180
1 32 180
2 32 180
3 32 180
0 33 180
1 33 180
2 33 180
3 33 180
0 34 180
1 34 180
2 34 180
3 34 180
0 35 180
1 35 180
2 35 180
3 35 180
0 36 180
1 36 180
2 36 180
3 36 180
0 37 180
1 37 180
2 37 180
3 37 180
0 38 180
1 38 180
2 38 180
3 38 180
0 39 180
1 39 180
2 39 180
3 39 180
0 40 180
1 40 180
2 40 180
3 40 180
0 41 180
1 41 180
2 41 180
3 41 180
0 42 180
1 42 180
2 42 180
3 42 180
0 43 180
1 43 180
2 43 180
3 43 180
0 44 180
1 44 180
2 44 180
3 44 180
0 45 180
1 45 180
2 45 180
3 45 180
0 46 180
1 46 180
2 46 180
3 46 180
0 47 180
1 47 180
2 47 180
3 47 180
0 48 180
1 48 180
2 48 180
3 48 180
0 49 180
1 49 180
2 49 180
3 49 180
0 50 180
1 50 180
2 50 180
3 50 180
0 51 180
1 51 180
2 51 180
3 51 180
0 52 180
1 52 180
2 52 180
3 52 180
0 53 180
1 53 180
2 53 180
3 53 180
0 54 180
1 54 180
2 54 180
3 54 180
0 55 180
1 55 180
2 55 180
3 55 180
0 56 180
1 56 180
2 56 180
3 56 180
0 57 180
1 57 180
2 57 180
3 57 180
0 58 180
1 58 180
2 58 180
3 58 180
0 59 180
1 59 180
2 59 180
3 59 180
0 60 180
1 60 180
2 60 180
3 60 180
0 61 180
1 61 180
2 61 180
3 61 180
0 62 180
1 62 180
2 62 180
3 62 180
0 63 180
1 63 180
2 63 180
3 63 180
0 64 180
1 64 180
2 64 180
3 64 180
0 65 180
1 65 180
2 65 180
3 65 180
0 66 180
1 66 180
2 66 180
3 66 180
0 0 181
1 0 181
2 0 181
3 0 181
0 1 181
1 1 181
2 1 181
3 1 181
0 2 181
1 2 181
2 2 181
3 2 181
0 3 181
1 3 181
2 3 181
3 3 181
0 4 181
1 4 181
2 4 181
3 4 181
0 5 181
1 5 181
2 5 181
3 5 181
0 6 181
1 6 181
2 6 181
3 6 181
0 7 181
1 7 181
2 7 181
3 7 181
0 8 181
1 8 181
2 8 181
3 8 181
0 9 181
1 9 181
2 9 181
3 9 181
0 10 181
1 10 181
2 10 181
3 10 181
0 11 181
1 11 181
2 11 181
3 11 181
0 12 181
1 12 181
2 12 181
3 12 181
0 13 181
1 13 181
2 13 181
3 13 181
0 14 181
1 14 181
2 14 181
3 14 181
0 15 181
1 15 181
2 15 181
3 15 181
0 16 181
1 16 181
2 16 181
3 16 181
0 17 181
1 17 181
2 17 181
3 17 181
0 18 181
1 18 181
2 18 181
3 18 181
0 19 181
1 19 181
2 19 181
3 19 181
0 20 181
1 20 181
2 20 181
3 20 181
0 21 181
1 21 181
2 21 181
3 21 181
0 22 181
1 22 181
2 22 181
3 22 181
0 23 181
1 23 181
2 23 181
3 23 181
0 24 181
1 24 181
2 24 181
3 24 181
0 25 181
1 25 181
2 25 181
3 25 181
0 26 181
1 26 181
2 26 181
3 26 181
0 27 181
1 27 181
2 27 181
3 27 181
0 28 181
1 28 181
2 28 181
3 28 181
0 29 181
1 29 181
2 29 181
3 29 181
0 30 181
1 30 181
2 30 181
3 30 181
0 31 181
1 31 181
2 31 181
3 31 181
0 32 181
1 32 181
2 32 181
3 32 181
0 33 181
1 33 181
2 33 181
3 33 181
0 34 181
1 34 181
2 34 181
3 34 181
0 35 181
1 35 181
2 35 181
3 35 181
0 36 181
1 36 181
2 36 181
3 36 181
0 37 181
1 37 181
2 37 181
3 37 181
0 38 181
1 38 181
2 38 181
3 38 181
0 39 181
1 39 181
2 39 181
3 39 181
0 40 181
1 40 181
2 40 181
3 40 181
0 41 181
1 41 181
2 41 181
3 41 181
0 42 181
1 42 181
2 42 181
3 42 181
0 43 181
1 43 181
2 43 181
3 43 181
0 44 181
1 44 181
2 44 181
3 44 181
0 45 181
1 45 181
2 45 181
3 45 181
0 46 181
1 46 181
2 46 181
3 46 181
0 47 181
1 47 181
2 47 181
3 47 181
0 48 181
1 48 181
2 48 181
3 48 181
0 49 181
1 49 181
2 49 181
3 49 181
0 50 181
1 50 181
2 50 181
3 50 181
0 51 181
1 51 181
2 51 181
3 51 181
0 52 181
1 52 181
2 52 181
3 52 181
0 53 181
1 53 181
2 53 181
3 53 181
0 54 181
1 54 181
2 54 181
3 54 181
0 55 181
1 55 181
2 55 181
3 55 181
0 56 181
1 56 181
2 56 181
3 56 181
0 57 181
1 57 181
2 57 181
3 57 181
0 58 181
1 58 181
2 58 181
3 58 181
0 59 181
1 59 181
2 59 181
3 59 181
0 60 181
1 60 181
2 60 181
3 60 181
0 61 181
1 61 181
2 61 181
3 61 181
0 62 181
1 62 181
2 62 181
3 62 181
0 63 181
1 63 181
2 63 181
3 63 181
0 64 181
1 64 181
2 64 181
3 64 181
0 65 181
1 65 181
2 65 181
3 65 181
0 66 181
1 66 181
2 66 181
3 66 181
0 0 182
1 0 182
2 0 182
3 0 182
0 1 182
1 1 182
2 1 182
3 1 182
0 2 182
1 2 182
2 2 182
3 2 182
0 3 182
1 3 182
2 3 182
3 3 182
0 4 182
1 4 182
2 4 182
3 4 182
0 5 182
1 5 182
2 5 182
3 5 182
0 6 182
1 6 182
2 6 182
3 6 182
0 7 182
1 7 182
2 7 182
3 7 182
0 8 182
1 8 182
2 8 182
3 8 182
0 9 182
1 9 182
2 9 182
3 9 182
0 10 182
1 10 182
2 10 182
3 10 182
0 11 182
1 11 182
2 11 182
3 11 182
0 12 182
1 12 182
2 12 182
3 12 182
0 13 182
1 13 182
2 13 182
3 13 182
0 14 182
1 14 182
2 14 182
3 14 182
0 15 182
1 15 182
2 15 182
3 15 182
0 16 182
1 16 182
2 16 182
3 16 182
0 17 182
1 17 182
2 17 182
3 17 182
0 18 182
1 18 182
2 18 182
3 18 182
0 19 182
1 19 182
2 19 182
3 19 182
0 20 182
1 20 182
2 20 182
3 20 182
0 21 182
1 21 182
2 21 182
3 21 182
0 22 182
1 22 182
2 22 182
3 22 182
0 23 182
1 23 182
2 23 182
3 23 182
0 24 182
1 24 182
2 24 182
3 24 182
0 25 182
1 25 182
2 25 182
3 25 182
0 26 182
1 26 182
2 26 182
3 26 182
0 27 182
1 27 182
2 27 182
3 27 182
0 28 182
1 28 182
2 28 182
3 28 182
0 29 182
1 29 182
2 29 182
3 29 182
0 30 182
1 30 182
2 30 182
3 30 182
0 31 182
1 31 182
2 31 182
3 31 182
0 32 182
1 32 182
2 32 182
3 32 182
0 33 182
1 33 182
2 33 182
3 33 182
0 34 182
1 34 182
2 34 182
3 34 182
0 35 182
1 35 182
2 35 182
3 35 182
0 36 182
1 36 182
2 36 182
3 36 182
0 37 182
1 37 182
2 37 182
3 37 182
0 38 182
1 38 182
2 38 182
3 38 182
0 39 182
1 39 182
2 39 182
3 39 182
0 40 182
1 40 182
2 40 182
3 40 182
0 41 182
1 41 182
2 41 182
3 41 182
0 42 182
1 42 182
2 42 182
3 42 182
0 43 182
1 43 182
2 43 182
3 43 182
0 44 182
1 44 182
2 44 182
3 44 182
0 45 182
1 45 182
2 45 182
3 45 182
0 46 182
1 46 182
2 46 182
3 46 182
0 47 182
1 47 182
2 47 182
3 47 182
0 48 182
1 48 182
2 48 182
3 48 182
0 49 182
1 49 182
2 49 182
3 49 182
0 50 182
1 50 182
2 50 182
3 50 182
0 51 182
1 51 182
2 51 182
3 51 182
0 52 182
1 52 182
2 52 182
3 52 182
0 53 182
1 53 182
2 53 182
3 53 182
0 54 182
1 54 182
2 54 182
3 54 182
0 55 182
1 55 182
2 55 182
3 55 182
0 56 182
1 56 182
2 56 182
3 56 182
0 57 182
1 57 182
2 57 182
3 57 182
0 58 182
1 58 182
2 58 182
3 58 182
0 59 182
1 59 182
2 59 182
3 59 182
0 60 182
1 60 182
2 60 182
3 60 182
0 61 182
1 61 182
2 61 182
3 61 182
0 62 182
1 62 182
2 62 182
3 62 182
0 63 182
1 63 182
2 63 182
3 63 182
0 64 182
1 64 182
2 64 182
3 64 182
0 65 182
1 65 182
2 65 182
3 65 182
0 66 182
1 66 182
2 66 182
3 66 182
0 0 183
1 0 183
2 0 183
3 0 183
0 1 183
1 1 183
2 1 183
3 1 183
0 2 183
1 2 183
2 2 183
3 2 183
0 3 183
1 3 183
2 3 183
3 3 183
0 4 183
1 4 183
2 4 183
3 4 183
0 5 183
1 5 183
2 5 183
3 5 183
0 6 183
1 6 183
2 6 183
3 6 183
0 7 183
1 7 183
2 7 183
3 7 183
0 8 183
1 8 183
2 8 183
3 8 183
0 9 183
1 9 183
2 9 183
3 9 183
0 10 183
1 10 183
2 10 183
3 10 183
0 11 183
1 11 183
2 11 183
3 11 183
0 12 183
1 12 183
2 12 183
3 12 183
0 13 183
1 13 183
2 13 183
3 13 183
0 14 183
1 14 183
2 14 183
3 14 183
0 15 183
1 15 183
2 15 183
3 15 183
0 16 183
1 16 183
2 16 183
3 16 183
0 17 183
1 17 183
2 17 183
3 17 183
0 18 183
1 18 183
2 18 183
3 18 183
0 19 183
1 19 183
2 19 183
3 19 183
0 20 183
1 20 183
2 20 183
3 20 183
0 21 183
1 21 183
2 21 183
3 21 183
0 22 183
1 22 183
2 22 183
3 22 183
0 23 183
1 23 183
2 23 183
3 23 183
0 24 183
1 24 183
2 24 183
3 24 183
0 25 183
1 25 183
2 25 183
3 25 183
0 26 183
1 26 183
2 26 183
3 26 183
0 27 183
1 27 183
2 27 183
3 27 183
0 28 183
1 28 183
2 28 183
3 28 183
0 29 183
1 29 183
2 29 183
3 29 183
0 30 183
1 30 183
2 30 183
3 30 183
0 31 183
1 31 183
2 31 183
3 31 183
0 32 183
1 32 183
2 32 183
3 32 183
0 33 183
1 33 183
2 33 183
3 33 183
0 34 183
1 34 183
2 34 183
3 34 183
0 35 183
1 35 183
2 35 183
3 35 183
0 36 183
1 36 183
2 36 183
3 36 183
0 37 183
1 37 183
2 37 183
3 37 183
0 38 183
1 38 183
2 38 183
3 38 183
0 39 183
1 39 183
2 39 183
3 39 183
0 40 183
1 40 183
2 40 183
3 40 183
0 41 183
1 41 183
2 41 183
3 41 183
0 42 183
1 42 183
2 42 183
3 42 183
0 43 183
1 43 183
2 43 183
3 43 183
0 44 183
1 44 183
2 44 183
3 44 183
0 45 183
1 45 183
2 45 183
3 45 183
0 46 183
1 46 183
2 46 183
3 46 183
0 47 183
1 47 183
2 47 183
3 47 183
0 48 183
1 48 183
2 48 183
3 48 183
0 49 183
1 49 183
2 49 183
3 49 183
0 50 183
1 50 183
2 50 183
3 50 183
0 51 183
1 51 183
2 51 183
3 51 183
0 52 183
1 52 183
2 52 183
3 52 183
0 53 183
1 53 183
2 53 183
3 53 183
0 54 183
1 54 183
2 54 183
3 54 183
0 55 183
1 55 183
2 55 183
3 55 183
0 56 183
1 56 183
2 56 183
3 56 183
0 57 183
1 57 183
2 57 183
3 57 183
0 58 183
1 58 183
2 58 183
3 58 183
0 59 183
1 59 183
2 59 183
3 59 183
0 60 183
1 60 183
2 60 183
3 60 183
0 61 183
1 61 183
2 61 183
3 61 183
0 62 183
1 62 183
2 62 183
3 62 183
0 63 183
1 63 183
2 63 183
3 63 183
0 64 183
1 64 183
2 64 183
3 64 183
0 65 183
1 65 183
2 65 183
3 65 183
0 66 183
1 66 183
2 66 183
3 66 183
0 0 184
1 0 184
2 0 184
3 0 184
0 1 184
1 1 184
2 1 184
3 1 184
0 2 184
1 2 184
2 2 184
3 2 184
0 3 184
1 3 184
2 3 184
3 3 184
0 4 184
1 4 184
2 4 184
3 4 184
0 5 184
1 5 184
2 5 184
3 5 184
0 6 184
1 6 184
2 6 184
3 6 184
0 7 184
1 7 184
2 7 184
3 7 184
0 8 184
1 8 184
2 8 184
3 8 184
0 9 184
1 9 184
2 9 184
3 9 184
0 10 184
1 10 184
2 10 184
3 10 184
0 11 184
1 11 184
2 11 184
3 11 184
0 12 184
1 12 184
2 12 184
3 12 184
0 13 184
1 13 184
2 13 184
3 13 184
0 14 184
1 14 184
2 14 184
3 14 184
0 15 184
1 15 184
2 15 184
3 15 184
0 16 184
1 16 184
2 16 184
3 16 184
0 17 184
1 17 184
2 17 184
3 17 184
0 18 184
1 18 184
2 18 184
3 18 184
0 19 184
1 19 184
2 19 184
3 19 184
0 20 184
1 20 184
2 20 184
3 20 184
0 21 184
1 21 184
2 21 184
3 21 184
0 22 184
1 22 184
2 22 184
3 22 184
0 23 184
1 23 184
2 23 184
3 23 184
0 24 184
1 24 184
2 24 184
3 24 184
0 25 184
1 25 184
2 25 184
3 25 184
0 26 184
1 26 184
2 26 184
3 26 184
0 27 184
1 27 184
2 27 184
3 27 184
0 28 184
1 28 184
2 28 184
3 28 184
0 29 184
1 29 184
2 29 184
3 29 184
0 30 184
1 30 184
2 30 184
3 30 184
0 31 184
1 31 184
2 31 184
3 31 184
0 32 184
1 32 184
2 32 184
3 32 184
0 33 184
1 33 184
2 33 184
3 33 184
0 34 184
1 34 184
2 34 184
3 34 184
0 35 184
1 35 184
2 35 184
3 35 184
0 36 184
1 36 184
2 36 184
3 36 184
0 37 184
1 37 184
2 37 184
3 37 184
0 38 184
1 38 184
2 38 184
3 38 184
0 39 184
1 39 184
2 39 184
3 39 184
0 40 184
1 40 184
2 40 184
3 40 184
0 41 184
1 41 184
2 41 184
3 41 184
0 42 184
1 42 184
2 42 184
3 42 184
0 43 184
1 43 184
2 43 184
3 43 184
0 44 184
1 44 184
2 44 184
3 44 184
0 45 184
1 45 184
2 45 184
3 45 184
0 46 184
1 46 184
2 46 184
3 46 184
0 47 184
1 47 184
2 47 184
3 47 184
0 48 184
1 48 184
2 48 184
3 48 184
0 49 184
1 49 184
2 49 184
3 49 184
0 50 184
1 50 184
2 50 184
3 50 184
0 51 184
1 51 184
2 51 184
3 51 184
0 52 184
1 52 184
2 52 184
3 52 184
0 53 184
1 53 184
2 53 184
3 53 184
0 54 184
1 54 184
2 54 184
3 54 184
0 55 184
1 55 184
2 55 184
3 55 184
0 56 184
1 56 184
2 56 184
3 56 184
0 57 184
1 57 184
2 57 184
3 57 184
0 58 184
1 58 184
2 58 184
3 58 184
0 59 184
1 59 184
2 59 184
3 59 184
0 60 184
1 60 184
2 60 184
3 60 184
0 61 184
1 61 184
2 61 184
3 61 184
0 62 184
1 62 184
2 62 184
3 62 184
0 63 184
1 63 184
2 63 184
3 63 184
0 64 184
1 64 184
2 64 184
3 64 184
0 65 184
1 65 184
2 65 184
3 65 184
0 66 184
1 66 184
2 66 184
3 66 184
0 0 185
1 0 185
2 0 185
3 0 185
0 1 185
1 1 185
2 1 185
3 1 185
0 2 185
1 2 185
2 2 185
3 2 185
0 3 185
1 3 185
2 3 185
3 3 185
0 4 185
1 4 185
2 4 185
3 4 185
0 5 185
1 5 185
2 5 185
3 5 185
0 6 185
1 6 185
2 6 185
3 6 185
0 7 185
1 7 185
2 7 185
3 7 185
0 8 185
1 8 185
2 8 185
3 8 185
0 9 185
1 9 185
2 9 185
3 9 185
0 10 185
1 10 185
2 10 185
3 10 185
0 11 185
1 11 185
2 11 185
3 11 185
0 12 185
1 12 185
2 12 185
3 12 185
0 13 185
1 13 185
2 13 185
3 13 185
0 14 185
1 14 185
2 14 185
3 14 185
0 15 185
1 15 185
2 15 185
3 15 185
0 16 185
1 16 185
2 16 185
3 16 185
0 17 185
1 17 185
2 17 185
3 17 185
0 18 185
1 18 185
2 18 185
3 18 185
0 19 185
1 19 185
2 19 185
3 19 185
0 20 185
1 20 185
2 20 185
3 20 185
0 21 185
1 21 185
2 21 185
3 21 185
0 22 185
1 22 185
2 22 185
3 22 185
0 23 185
1 23 185
2 23 185
3 23 185
0 24 185
1 24 185
2 24 185
3 24 185
0 25 185
1 25 185
2 25 185
3 25 185
0 26 185
1 26 185
2 26 185
3 26 185
0 27 185
1 27 185
2 27 185
3 27 185
0 28 185
1 28 185
2 28 185
3 28 185
0 29 185
1 29 185
2 29 185
3 29 185
0 30 185
1 30 185
2 30 185
3 30 185
0 31 185
1 31 185
2 31 185
3 31 185
0 32 185
1 32 185
2 32 185
3 32 185
0 33 185
1 33 185
2 33 185
3 33 185
0 34 185
1 34 185
2 34 185
3 34 185
0 35 185
1 35 185
2 35 185
3 35 185
0 36 185
1 36 185
2 36 185
3 36 185
0 37 185
1 37 185
2 37 185
3 37 185
0 38 185
1 38 185
2 38 185
3 38 185
0 39 185
1 39 185
2 39 185
3 39 185
0 40 185
1 40 185
2 40 185
3 40 185
0 41 185
1 41 185
2 41 185
3 41 185
0 42 185
1 42 185
2 42 185
3 42 185
0 43 185
1 43 185
2 43 185
3 43 185
0 44 185
1 44 185
2 44 185
3 44 185
0 45 185
1 45 185
2 45 185
3 45 185
0 46 185
1 46 185
2 46 185
3 46 185
0 47 185
1 47 185
2 47 185
3 47 185
0 48 185
1 48 185
2 48 185
3 48 185
0 49 185
1 49 185
2 49 185
3 49 185
0 50 185
1 50 185
2 50 185
3 50 185
0 51 185
1 51 185
2 51 185
3 51 185
0 52 185
1 52 185
2 52 185
3 52 185
0 53 185
1 53 185
2 53 185
3 53 185
0 54 185
1 54 185
2 54 185
3 54 185
0 55 185
1 55 185
2 55 185
3 55 185
0 56 185
1 56 185
2 56 185
3 56 185
0 57 185
1 57 185
2 57 185
3 57 185
0 58 185
1 58 185
2 58 185
3 58 185
0 59 185
1 59 185
2 59 185
3 59 185
0 60 185
1 60 185
2 60 185
3 60 185
0 61 185
1 61 185
2 61 185
3 61 185
0 62 185
1 62 185
2 62 185
3 62 185
0 63 185
1 63 185
2 63 185
3 63 185
0 64 185
1 64 185
2 64 185
3 64 185
0 65 185
1 65 185
2 65 185
3 65 185
0 66 185
1 66 185
2 66 185
3 66 185
0 0 186
1 0 186
2 0 186
3 0 186
0 1 186
1 1 186
2 1 186
3 1 186
0 2 186
1 2 186
2 2 186
3 2 186
0 3 186
1 3 186
2 3 186
3 3 186
0 4 186
1 4 186
2 4 186
3 4 186
0 5 186
1 5 186
2 5 186
3 5 186
0 6 186
1 6 186
2 6 186
3 6 186
0 7 186
1 7 186
2 7 186
3 7 186
0 8 186
1 8 186
2 8 186
3 8 186
0 9 186
1 9 186
2 9 186
3 9 186
0 10 186
1 10 186
2 10 186
3 10 186
0 11 186
1 11 186
2 11 186
3 11 186
0 12 186
1 12 186
2 12 186
3 12 186
0 13 186
1 13 186
2 13 186
3 13 186
0 14 186
1 14 186
2 14 186
3 14 186
0 15 186
1 15 186
2 15 186
3 15 186
0 16 186
1 16 186
2 16 186
3 16 186
0 17 186
1 17 186
2 17 186
3 17 186
0 18 186
1 18 186
2 18 186
3 18 186
0 19 186
1 19 186
2 19 186
3 19 186
0 20 186
1 20 186
2 20 186
3 20 186
0 21 186
1 21 186
2 21 186
3 21 186
0 22 186
1 22 186
2 22 186
3 22 186
0 23 186
1 23 186
2 23 186
3 23 186
0 24 186
1 24 186
2 24 186
3 24 186
0 25 186
1 25 186
2 25 186
3 25 186
0 26 186
1 26 186
2 26 186
3 26 186
0 27 186
1 27 186
2 27 186
3 27 186
0 28 186
1 28 186
2 28 186
3 28 186
0 29 186
1 29 186
2 29 186
3 29 186
0 30 186
1 30 186
2 30 186
3 30 186
0 31 186
1 31 186
2 31 186
3 31 186
0 32 186
1 32 186
2 32 186
3 32 186
0 33 186
1 33 186
2 33 186
3 33 186
0 34 186
1 34 186
2 34 186
3 34 186
0 35 186
1 35 186
2 35 186
3 35 186
0 36 186
1 36 186
2 36 186
3 36 186
0 37 186
1 37 186
2 37 186
3 37 186
0 38 186
1 38 186
2 38 186
3 38 186
0 39 186
1 39 186
2 39 186
3 39 186
0 40 186
1 40 186
2 40 186
3 40 186
0 41 186
1 41 186
2 41 186
3 41 186
0 42 186
1 42 186
2 42 186
3 42 186
0 43 186
1 43 186
2 43 186
3 43 186
0 44 186
1 44 186
2 44 186
3 44 186
0 45 186
1 45 186
2 45 186
3 45 186
0 46 186
1 46 186
2 46 186
3 46 186
0 47 186
1 47 186
2 47 186
3 47 186
0 48 186
1 48 186
2 48 186
3 48 186
0 49 186
1 49 186
2 49 186
3 49 186
0 50 186
1 50 186
2 50 186
3 50 186
0 51 186
1 51 186
2 51 186
3 51 186
0 52 186
1 52 186
2 52 186
3 52 186
0 53 186
1 53 186
2 53 186
3 53 186
0 54 186
1 54 186
2 54 186
3 54 186
0 55 186
1 55 186
2 55 186
3 55 186
0 56 186
1 56 186
2 56 186
3 56 186
0 57 186
1 57 186
2 57 186
3 57 186
0 58 186
1 58 186
2 58 186
3 58 186
0 59 186
1 59 186
2 59 186
3 59 186
0 60 186
1 60 186
2 60 186
3 60 186
0 61 186
1 61 186
2 61 186
3 61 186
0 62 186
1 62 186
2 62 186
3 62 186
0 63 186
1 63 186
2 63 186
3 63 186
0 64 186
1 64 186
2 64 186
3 64 186
0 65 186
1 65 186
2 65 186
3 65 186
0 66 186
1 66 186
2 66 186
3 66 186
0 0 187
1 0 187
2 0 187
3 0 187
0 1 187
1 1 187
2 1 187
3 1 187
0 2 187
1 2 187
2 2 187
3 2 187
0 3 187
1 3 187
2 3 187
3 3 187
0 4 187
1 4 187
2 4 187
3 4 187
0 5 187
1 5 187
2 5 187
3 5 187
0 6 187
1 6 187
2 6 187
3 6 187
0 7 187
1 7 187
2 7 187
3 7 187
0 8 187
1 8 187
2 8 187
3 8 187
0 9 187
1 9 187
2 9 187
3 9 187
0 10 187
1 10 187
2 10 187
3 10 187
0 11 187
1 11 187
2 11 187
3 11 187
0 12 187
1 12 187
2 12 187
3 12 187
0 13 187
1 13 187
2 13 187
3 13 187
0 14 187
1 14 187
2 14 187
3 14 187
0 15 187
1 15 187
2 15 187
3 15 187
0 16 187
1 16 187
2 16 187
3 16 187
0 17 187
1 17 187
2 17 187
3 17 187
0 18 187
1 18 187
2 18 187
3 18 187
0 19 187
1 19 187
2 19 187
3 19 187
0 20 187
1 20 187
2 20 187
3 20 187
0 21 187
1 21 187
2 21 187
3 21 187
0 22 187
1 22 187
2 22 187
3 22 187
0 23 187
1 23 187
2 23 187
3 23 187
0 24 187
1 24 187
2 24 187
3 24 187
0 25 187
1 25 187
2 25 187
3 25 187
0 26 187
1 26 187
2 26 187
3 26 187
0 27 187
1 27 187
2 27 187
3 27 187
0 28 187
1 28 187
2 28 187
3 28 187
0 29 187
1 29 187
2 29 187
3 29 187
0 30 187
1 30 187
2 30 187
3 30 187
0 31 187
1 31 187
2 31 187
3 31 187
0 32 187
1 32 187
2 32 187
3 32 187
0 33 187
1 33 187
2 33 187
3 33 187
0 34 187
1 34 187
2 34 187
3 34 187
0 35 187
1 35 187
2 35 187
3 35 187
0 36 187
1 36 187
2 36 187
3 36 187
0 37 187
1 37 187
2 37 187
3 37 187
0 38 187
1 38 187
2 38 187
3 38 187
0 39 187
1 39 187
2 39 187
3 39 187
0 40 187
1 40 187
2 40 187
3 40 187
0 41 187
1 41 187
2 41 187
3 41 187
0 42 187
1 42 187
2 42 187
3 42 187
0 43 187
1 43 187
2 43 187
3 43 187
0 44 187
1 44 187
2 44 187
3 44 187
0 45 187
1 45 187
2 45 187
3 45 187
0 46 187
1 46 187
2 46 187
3 46 187
0 47 187
1 47 187
2 47 187
3 47 187
0 48 187
1 48 187
2 48 187
3 48 187
0 49 187
1 49 187
2 49 187
3 49 187
0 50 187
1 50 187
2 50 187
3 50 187
0 51 187
1 51 187
2 51 187
3 51 187
0 52 187
1 52 187
2 52 187
3 52 187
0 53 187
1 53 187
2 53 187
3 53 187
0 54 187
1 54 187
2 54 187
3 54 187
0 55 187
1 55 187
2 55 187
3 55 187
0 56 187
1 56 187
2 56 187
3 56 187
0 57 187
1 57 187
2 57 187
3 57 187
0 58 187
1 58 187
2 58 187
3 58 187
0 59 187
1 59 187
2 59 187
3 59 187
0 60 187
1 60 187
2 60 187
3 60 187
0 61 187
1 61 187
2 61 187
3 61 187
0 62 187
1 62 187
2 62 187
3 62 187
0 63 187
1 63 187
2 63 187
3 63 187
0 64 187
1 64 187
2 64 187
3 64 187
0 65 187
1 65 187
2 65 187
3 65 187
0 66 187
1 66 187
2 66 187
3 66 187
0 0 188
1 0 188
2 0 188
3 0 188
0 1 188
1 1 188
2 1 188
3 1 188
0 2 188
1 2 188
2 2 188
3 2 188
0 3 188
1 3 188
2 3 188
3 3 188
0 4 188
1 4 188
2 4 188
3 4 188
0 5 188
1 5 188
2 5 188
3 5 188
0 6 188
1 6 188
2 6 188
3 6 188
0 7 188
1 7 188
2 7 188
3 7 188
0 8 188
1 8 188
2 8 188
3 8 188
0 9 188
1 9 188
2 9 188
3 9 188
0 10 188
1 10 188
2 10 188
3 10 188
0 11 188
1 11 188
2 11 188
3 11 188
0 12 188
1 12 188
2 12 188
3 12 188
0 13 188
1 13 188
2 13 188
3 13 188
0 14 188
1 14 188
2 14 188
3 14 188
0 15 188
1 15 188
2 15 188
3 15 188
0 16 188
1 16 188
2 16 188
3 16 188
0 17 188
1 17 188
2 17 188
3 17 188
0 18 188
1 18 188
2 18 188
3 18 188
0 19 188
1 19 188
2 19 188
3 19 188
0 20 188
1 20 188
2 20 188
3 20 188
0 21 188
1 21 188
2 21 188
3 21 188
0 22 188
1 22 188
2 22 188
3 22 188
0 23 188
1 23 188
2 23 188
3 23 188
0 24 188
1 24 188
2 24 188
3 24 188
0 25 188
1 25 188
2 25 188
3 25 188
0 26 188
1 26 188
2 26 188
3 26 188
0 27 188
1 27 188
2 27 188
3 27 188
0 28 188
1 28 188
2 28 188
3 28 188
0 29 188
1 29 188
2 29 188
3 29 188
0 30 188
1 30 188
2 30 188
3 30 188
0 31 188
1 31 188
2 31 188
3 31 188
0 32 188
1 32 188
2 32 188
3 32 188
0 33 188
1 33 188
2 33 188
3 33 188
0 34 188
1 34 188
2 34 188
3 34 188
0 35 188
1 35 188
2 35 188
3 35 188
0 36 188
1 36 188
2 36 188
3 36 188
0 37 188
1 37 188
2 37 188
3 37 188
0 38 188
1 38 188
2 38 188
3 38 188
0 39 188
1 39 188
2 39 188
3 39 188
0 40 188
1 40 188
2 40 188
3 40 188
0 41 188
1 41 188
2 41 188
3 41 188
0 42 188
1 42 188
2 42 188
3 42 188
0 43 188
1 43 188
2 43 188
3 43 188
0 44 188
1 44 188
2 44 188
3 44 188
0 45 188
1 45 188
2 45 188
3 45 188
0 46 188
1 46 188
2 46 188
3 46 188
0 47 188
1 47 188
2 47 188
3 47 188
0 48 188
1 48 188
2 48 188
3 48 188
0 49 188
1 49 188
2 49 188
3 49 188
0 50 188
1 50 188
2 50 188
3 50 188
0 51 188
1 51 188
2 51 188
3 51 188
0 52 188
1 52 188
2 52 188
3 52 188
0 53 188
1 53 188
2 53 188
3 53 188
0 54 188
1 54 188
2 54 188
3 54 188
0 55 188
1 55 188
2 55 188
3 55 188
0 56 188
1 56 188
2 56 188
3 56 188
0 57 188
1 57 188
2 57 188
3 57 188
0 58 188
1 58 188
2 58 188
3 58 188
0 59 188
1 59 188
2 59 188
3 59 188
0 60 188
1 60 188
2 60 188
3 60 188
0 61 188
1 61 188
2 61 188
3 61 188
0 62 188
1 62 188
2 62 188
3 62 188
0 63 188
1 63 188
2 63 188
3 63 188
0 64 188
1 64 188
2 64 188
3 64 188
0 65 188
1 65 188
2 65 188
3 65 188
0 66 188
1 66 188
2 66 188
3 66 188
0 0 189
1 0 189
2 0 189
3 0 189
0 1 189
1 1 189
2 1 189
3 1 189
0 2 189
1 2 189
2 2 189
3 2 189
0 3 189
1 3 189
2 3 189
3 3 189
0 4 189
1 4 189
2 4 189
3 4 189
0 5 189
1 5 189
2 5 189
3 5 189
0 6 189
1 6 189
2 6 189
3 6 189
0 7 189
1 7 189
2 7 189
3 7 189
0 8 189
1 8 189
2 8 189
3 8 189
0 9 189
1 9 189
2 9 189
3 9 189
0 10 189
1 10 189
2 10 189
3 10 189
0 11 189
1 11 189
2 11 189
3 11 189
0 12 189
1 12 189
2 12 189
3 12 189
0 13 189
1 13 189
2 13 189
3 13 189
0 14 189
1 14 189
2 14 189
3 14 189
0 15 189
1 15 189
2 15 189
3 15 189
0 16 189
1 16 189
2 16 189
3 16 189
0 17 189
1 17 189
2 17 189
3 17 189
0 18 189
1 18 189
2 18 189
3 18 189
0 19 189
1 19 189
2 19 189
3 19 189
0 20 189
1 20 189
2 20 189
3 20 189
0 21 189
1 21 189
2 21 189
3 21 189
0 22 189
1 22 189
2 22 189
3 22 189
0 23 189
1 23 189
2 23 189
3 23 189
0 24 189
1 24 189
2 24 189
3 24 189
0 25 189
1 25 189
2 25 189
3 25 189
0 26 189
1 26 189
2 26 189
3 26 189
0 27 189
1 27 189
2 27 189
3 27 189
0 28 189
1 28 189
2 28 189
3 28 189
0 29 189
1 29 189
2 29 189
3 29 189
0 30 189
1 30 189
2 30 189
3 30 189
0 31 189
1 31 189
2 31 189
3 31 189
0 32 189
1 32 189
2 32 189
3 32 189
0 33 189
1 33 189
2 33 189
3 33 189
0 34 189
1 34 189
2 34 189
3 34 189
0 35 189
1 35 189
2 35 189
3 35 189
0 36 189
1 36 189
2 36 189
3 36 189
0 37 189
1 37 189
2 37 189
3 37 189
0 38 189
1 38 189
2 38 189
3 38 189
0 39 189
1 39 189
2 39 189
3 39 189
0 40 189
1 40 189
2 40 189
3 40 189
0 41 189
1 41 189
2 41 189
3 41 189
0 42 189
1 42 189
2 42 189
3 42 189
0 43 189
1 43 189
2 43 189
3 43 189
0 44 189
1 44 189
2 44 189
3 44 189
0 45 189
1 45 189
2 45 189
3 45 189
0 46 189
1 46 189
2 46 189
3 46 189
0 47 189
1 47 189
2 47 189
3 47 189
0 48 189
1 48 189
2 48 189
3 48 189
0 49 189
1 49 189
2 49 189
3 49 189
0 50 189
1 50 189
2 50 189
3 50 189
0 51 189
1 51 189
2 51 189
3 51 189
0 52 189
1 52 189
2 52 189
3 52 189
0 53 189
1 53 189
2 53 189
3 53 189
0 54 189
1 54 189
2 54 189
3 54 189
0 55 189
1 55 189
2 55 189
3 55 189
0 56 189
1 56 189
2 56 189
3 56 189
0 57 189
1 57 189
2 57 189
3 57 189
0 58 189
1 58 189
2 58 189
3 58 189
0 59 189
1 59 189
2 59 189
3 59 189
0 60 189
1 60 189
2 60 189
3 60 189
0 61 189
1 61 189
2 61 189
3 61 189
0 62 189
1 62 189
2 62 189
3 62 189
0 63 189
1 63 189
2 63 189
3 63 189
0 64 189
1 64 189
2 64 189
3 64 189
0 65 189
1 65 189
2 65 189
3 65 189
0 66 189
1 66 189
2 66 189
3 66 189
0 0 190
1 0 190
2 0 190
3 0 190
0 1 190
1 1 190
2 1 190
3 1 190
0 2 190
1 2 190
2 2 190
3 2 190
0 3 190
1 3 190
2 3 190
3 3 190
0 4 190
1 4 190
2 4 190
3 4 190
0 5 190
1 5 190
2 5 190
3 5 190
0 6 190
1 6 190
2 6 190
3 6 190
0 7 190
1 7 190
2 7 190
3 7 190
0 8 190
1 8 190
2 8 190
3 8 190
0 9 190
1 9 190
2 9 190
3 9 190
0 10 190
1 10 190
2 10 190
3 10 190
0 11 190
1 11 190
2 11 190
3 11 190
0 12 190
1 12 190
2 12 190
3 12 190
0 13 190
1 13 190
2 13 190
3 13 190
0 14 190
1 14 190
2 14 190
3 14 190
0 15 190
1 15 190
2 15 190
3 15 190
0 16 190
1 16 190
2 16 190
3 16 190
0 17 190
1 17 190
2 17 190
3 17 190
0 18 190
1 18 190
2 18 190
3 18 190
0 19 190
1 19 190
2 19 190
3 19 190
0 20 190
1 20 190
2 20 190
3 20 190
0 21 190
1 21 190
2 21 190
3 21 190
0 22 190
1 22 190
2 22 190
3 22 190
0 23 190
1 23 190
2 23 190
3 23 190
0 24 190
1 24 190
2 24 190
3 24 190
0 25 190
1 25 190
2 25 190
3 25 190
0 26 190
1 26 190
2 26 190
3 26 190
0 27 190
1 27 190
2 27 190
3 27 190
0 28 190
1 28 190
2 28 190
3 28 190
0 29 190
1 29 190
2 29 190
3 29 190
0 30 190
1 30 190
2 30 190
3 30 190
0 31 190
1 31 190
2 31 190
3 31 190
0 32 190
1 32 190
2 32 190
3 32 190
0 33 190
1 33 190
2 33 190
3 33 190
0 34 190
1 34 190
2 34 190
3 34 190
0 35 190
1 35 190
2 35 190
3 35 190
0 36 190
1 36 190
2 36 190
3 36 190
0 37 190
1 37 190
2 37 190
3 37 190
0 38 190
1 38 190
2 38 190
3 38 190
0 39 190
1 39 190
2 39 190
3 39 190
0 40 190
1 40 190
2 40 190
3 40 190
0 41 190
1 41 190
2 41 190
3 41 190
0 42 190
1 42 190
2 42 190
3 42 190
0 43 190
1 43 190
2 43 190
3 43 190
0 44 190
1 44 190
2 44 190
3 44 190
0 45 190
1 45 190
2 45 190
3 45 190
0 46 190
1 46 190
2 46 190
3 46 190
0 47 190
1 47 190
2 47 190
3 47 190
0 48 190
1 48 190
2 48 190
3 48 190
0 49 190
1 49 190
2 49 190
3 49 190
0 50 190
1 50 190
2 50 190
3 50 190
0 51 190
1 51 190
2 51 190
3 51 190
0 52 190
1 52 190
2 52 190
3 52 190
0 53 190
1 53 190
2 53 190
3 53 190
0 54 190
1 54 190
2 54 190
3 54 190
0 55 190
1 55 190
2 55 190
3 55 190
0 56 190
1 56 190
2 56 190
3 56 190
0 57 190
1 57 190
2 57 190
3 57 190
0 58 190
1 58 190
2 58 190
3 58 190
0 59 190
1 59 190
2 59 190
3 59 190
0 60 190
1 60 190
2 60 190
3 60 190
0 61 190
1 61 190
2 61 190
3 61 190
0 62 190
1 62 190
2 62 190
3 62 190
0 63 190
1 63 190
2 63 190
3 63 190
0 64 190
1 64 190
2 64 190
3 64 190
0 65 190
1 65 190
2 65 190
3 65 190
0 66 190
1 66 190
2 66 190
3 66 190
0 0 191
1 0 191
2 0 191
3 0 191
0 1 191
1 1 191
2 1 191
3 1 191
0 2 191
1 2 191
2 2 191
3 2 191
0 3 191
1 3 191
2 3 191
3 3 191
0 4 191
1 4 191
2 4 191
3 4 191
0 5 191
1 5 191
2 5 191
3 5 191
0 6 191
1 6 191
2 6 191
3 6 191
0 7 191
1 7 191
2 7 191
3 7 191
0 8 191
1 8 191
2 8 191
3 8 191
0 9 191
1 9 191
2 9 191
3 9 191
0 10 191
1 10 191
2 10 191
3 10 191
0 11 191
1 11 191
2 11 191
3 11 191
0 12 191
1 12 191
2 12 191
3 12 191
0 13 191
1 13 191
2 13 191
3 13 191
0 14 191
1 14 191
2 14 191
3 14 191
0 15 191
1 15 191
2 15 191
3 15 191
0 16 191
1 16 191
2 16 191
3 16 191
0 17 191
1 17 191
2 17 191
3 17 191
0 18 191
1 18 191
2 18 191
3 18 191
0 19 191
1 19 191
2 19 191
3 19 191
0 20 191
1 20 191
2 20 191
3 20 191
0 21 191
1 21 191
2 21 191
3 21 191
0 22 191
1 22 191
2 22 191
3 22 191
0 23 191
1 23 191
2 23 191
3 23 191
0 24 191
1 24 191
2 24 191
3 24 191
0 25 191
1 25 191
2 25 191
3 25 191
0 26 191
1 26 191
2 26 191
3 26 191
0 27 191
1 27 191
2 27 191
3 27 191
0 28 191
1 28 191
2 28 191
3 28 191
0 29 191
1 29 191
2 29 191
3 29 191
0 30 191
1 30 191
2 30 191
3 30 191
0 31 191
1 31 191
2 31 191
3 31 191
0 32 191
1 32 191
2 32 191
3 32 191
0 33 191
1 33 191
2 33 191
3 33 191
0 34 191
1 34 191
2 34 191
3 34 191
0 35 191
1 35 191
2 35 191
3 35 191
0 36 191
1 36 191
2 36 191
3 36 191
0 37 191
1 37 191
2 37 191
3 37 191
0 38 191
1 38 191
2 38 191
3 38 191
0 39 191
1 39 191
2 39 191
3 39 191
0 40 191
1 40 191
2 40 191
3 40 191
0 41 191
1 41 191
2 41 191
3 41 191
0 42 191
1 42 191
2 42 191
3 42 191
0 43 191
1 43 191
2 43 191
3 43 191
0 44 191
1 44 191
2 44 191
3 44 191
0 45 191
1 45 191
2 45 191
3 45 191
0 46 191
1 46 191
2 46 191
3 46 191
0 47 191
1 47 191
2 47 191
3 47 191
0 48 191
1 48 191
2 48 191
3 48 191
0 49 191
1 49 191
2 49 191
3 49 191
0 50 191
1 50 191
2 50 191
3 50 191
0 51 191
1 51 191
2 51 191
3 51 191
0 52 191
1 52 191
2 52 191
3 52 191
0 53 191
1 53 191
2 53 191
3 53 191
0 54 191
1 54 191
2 54 191
3 54 191
0 55 191
1 55 191
2 55 191
3 55 191
0 56 191
1 56 191
2 56 191
3 56 191
0 57 191
1 57 191
2 57 191
3 57 191
0 58 191
1 58 191
2 58 191
3 58 191
0 59 191
1 59 191
2 59 191
3 59 191
0 60 191
1 60 191
2 60 191
3 60 191
0 61 191
1 61 191
2 61 191
3 61 191
0 62 191
1 62 191
2 62 191
3 62 191
0 63 191
1 63 191
2 63 191
3 63 191
0 64 191
1 64 191
2 64 191
3 64 191
0 65 191
1 65 191
2 65 191
3 65 191
0 66 191
1 66 191
2 66 191
3 66 191
0 0 192
1 0 192
2 0 192
3 0 192
0 1 192
1 1 192
2 1 192
3 1 192
0 2 192
1 2 192
2 2 192
3 2 192
0 3 192
1 3 192
2 3 192
3 3 192
0 4 192
1 4 192
2 4 192
3 4 192
0 5 192
1 5 192
2 5 192
3 5 192
0 6 192
1 6 192
2 6 192
3 6 192
0 7 192
1 7 192
2 7 192
3 7 192
0 8 192
1 8 192
2 8 192
3 8 192
0 9 192
1 9 192
2 9 192
3 9 192
0 10 192
1 10 192
2 10 192
3 10 192
0 11 192
1 11 192
2 11 192
3 11 192
0 12 192
1 12 192
2 12 192
3 12 192
0 13 192
1 13 192
2 13 192
3 13 192
0 14 192
1 14 192
2 14 192
3 14 192
0 15 192
1 15 192
2 15 192
3 15 192
0 16 192
1 16 192
2 16 192
3 16 192
0 17 192
1 17 192
2 17 192
3 17 192
0 18 192
1 18 192
2 18 192
3 18 192
0 19 192
1 19 192
2 19 192
3 19 192
0 20 192
1 20 192
2 20 192
3 20 192
0 21 192
1 21 192
2 21 192
3 21 192
0 22 192
1 22 192
2 22 192
3 22 192
0 23 192
1 23 192
2 23 192
3 23 192
0 24 192
1 24 192
2 24 192
3 24 192
0 25 192
1 25 192
2 25 192
3 25 192
0 26 192
1 26 192
2 26 192
3 26 192
0 27 192
1 27 192
2 27 192
3 27 192
0 28 192
1 28 192
2 28 192
3 28 192
0 29 192
1 29 192
2 29 192
3 29 192
0 30 192
1 30 192
2 30 192
3 30 192
0 31 192
1 31 192
2 31 192
3 31 192
0 32 192
1 32 192
2 32 192
3 32 192
0 33 192
1 33 192
2 33 192
3 33 192
0 34 192
1 34 192
2 34 192
3 34 192
0 35 192
1 35 192
2 35 192
3 35 192
0 36 192
1 36 192
2 36 192
3 36 192
0 37 192
1 37 192
2 37 192
3 37 192
0 38 192
1 38 192
2 38 192
3 38 192
0 39 192
1 39 192
2 39 192
3 39 192
0 40 192
1 40 192
2 40 192
3 40 192
0 41 192
1 41 192
2 41 192
3 41 192
0 42 192
1 42 192
2 42 192
3 42 192
0 43 192
1 43 192
2 43 192
3 43 192
0 44 192
1 44 192
2 44 192
3 44 192
0 45 192
1 45 192
2 45 192
3 45 192
0 46 192
1 46 192
2 46 192
3 46 192
0 47 192
1 47 192
2 47 192
3 47 192
0 48 192
1 48 192
2 48 192
3 48 192
0 49 192
1 49 192
2 49 192
3 49 192
0 50 192
1 50 192
2 50 192
3 50 192
0 51 192
1 51 192
2 51 192
3 51 192
0 52 192
1 52 192
2 52 192
3 52 192
0 53 192
1 53 192
2 53 192
3 53 192
0 54 192
1 54 192
2 54 192
3 54 192
0 55 192
1 55 192
2 55 192
3 55 192
0 56 192
1 56 192
2 56 192
3 56 192
0 57 192
1 57 192
2 57 192
3 57 192
0 58 192
1 58 192
2 58 192
3 58 192
0 59 192
1 59 192
2 59 192
3 59 192
0 60 192
1 60 192
2 60 192
3 60 192
0 61 192
1 61 192
2 61 192
3 61 192
0 62 192
1 62 192
2 62 192
3 62 192
0 63 192
1 63 192
2 63 192
3 63 192
0 64 192
1 64 192
2 64 192
3 64 192
0 65 192
1 65 192
2 65 192
3 65 192
0 66 192
1 66 192
2 66 192
3 66 192
0 0 193
1 0 193
2 0 193
3 0 193
0 1 193
1 1 193
2 1 193
3 1 193
0 2 193
1 2 193
2 2 193
3 2 193
0 3 193
1 3 193
2 3 193
3 3 193
0 4 193
1 4 193
2 4 193
3 4 193
0 5 193
1 5 193
2 5 193
3 5 193
0 6 193
1 6 193
2 6 193
3 6 193
0 7 193
1 7 193
2 7 193
3 7 193
0 8 193
1 8 193
2 8 193
3 8 193
0 9 193
1 9 193
2 9 193
3 9 193
0 10 193
1 10 193
2 10 193
3 10 193
0 11 193
1 11 193
2 11 193
3 11 193
0 12 193
1 12 193
2 12 193
3 12 193
0 13 193
1 13 193
2 13 193
3 13 193
0 14 193
1 14 193
2 14 193
3 14 193
0 15 193
1 15 193
2 15 193
3 15 193
0 16 193
1 16 193
2 16 193
3 16 193
0 17 193
1 17 193
2 17 193
3 17 193
0 18 193
1 18 193
2 18 193
3 18 193
0 19 193
1 19 193
2 19 193
3 19 193
0 20 193
1 20 193
2 20 193
3 20 193
0 21 193
1 21 193
2 21 193
3 21 193
0 22 193
1 22 193
2 22 193
3 22 193
0 23 193
1 23 193
2 23 193
3 23 193
0 24 193
1 24 193
2 24 193
3 24 193
0 25 193
1 25 193
2 25 193
3 25 193
0 26 193
1 26 193
2 26 193
3 26 193
0 27 193
1 27 193
2 27 193
3 27 193
0 28 193
1 28 193
2 28 193
3 28 193
0 29 193
1 29 193
2 29 193
3 29 193
0 30 193
1 30 193
2 30 193
3 30 193
0 31 193
1 31 193
2 31 193
3 31 193
0 32 193
1 32 193
2 32 193
3 32 193
0 33 193
1 33 193
2 33 193
3 33 193
0 34 193
1 34 193
2 34 193
3 34 193
0 35 193
1 35 193
2 35 193
3 35 193
0 36 193
1 36 193
2 36 193
3 36 193
0 37 193
1 37 193
2 37 193
3 37 193
0 38 193
1 38 193
2 38 193
3 38 193
0 39 193
1 39 193
2 39 193
3 39 193
0 40 193
1 40 193
2 40 193
3 40 193
0 41 193
1 41 193
2 41 193
3 41 193
0 42 193
1 42 193
2 42 193
3 42 193
0 43 193
1 43 193
2 43 193
3 43 193
0 44 193
1 44 193
2 44 193
3 44 193
0 45 193
1 45 193
2 45 193
3 45 193
0 46 193
1 46 193
2 46 193
3 46 193
0 47 193
1 47 193
2 47 193
3 47 193
0 48 193
1 48 193
2 48 193
3 48 193
0 49 193
1 49 193
2 49 193
3 49 193
0 50 193
1 50 193
2 50 193
3 50 193
0 51 193
1 51 193
2 51 193
3 51 193
0 52 193
1 52 193
2 52 193
3 52 193
0 53 193
1 53 193
2 53 193
3 53 193
0 54 193
1 54 193
2 54 193
3 54 193
0 55 193
1 55 193
2 55 193
3 55 193
0 56 193
1 56 193
2 56 193
3 56 193
0 57 193
1 57 193
2 57 193
3 57 193
0 58 193
1 58 193
2 58 193
3 58 193
0 59 193
1 59 193
2 59 193
3 59 193
0 60 193
1 60 193
2 60 193
3 60 193
0 61 193
1 61 193
2 61 193
3 61 193
0 62 193
1 62 193
2 62 193
3 62 193
0 63 193
1 63 193
2 63 193
3 63 193
0 64 193
1 64 193
2 64 193
3 64 193
0 65 193
1 65 193
2 65 193
3 65 193
0 66 193
1 66 193
2 66 193
3 66 193
0 0 194
1 0 194
2 0 194
3 0 194
0 1 194
1 1 194
2 1 194
3 1 194
0 2 194
1 2 194
2 2 194
3 2 194
0 3 194
1 3 194
2 3 194
3 3 194
0 4 194
1 4 194
2 4 194
3 4 194
0 5 194
1 5 194
2 5 194
3 5 194
0 6 194
1 6 194
2 6 194
3 6 194
0 7 194
1 7 194
2 7 194
3 7 194
0 8 194
1 8 194
2 8 194
3 8 194
0 9 194
1 9 194
2 9 194
3 9 194
0 10 194
1 10 194
2 10 194
3 10 194
0 11 194
1 11 194
2 11 194
3 11 194
0 12 194
1 12 194
2 12 194
3 12 194
0 13 194
1 13 194
2 13 194
3 13 194
0 14 194
1 14 194
2 14 194
3 14 194
0 15 194
1 15 194
2 15 194
3 15 194
0 16 194
1 16 194
2 16 194
3 16 194
0 17 194
1 17 194
2 17 194
3 17 194
0 18 194
1 18 194
2 18 194
3 18 194
0 19 194
1 19 194
2 19 194
3 19 194
0 20 194
1 20 194
2 20 194
3 20 194
0 21 194
1 21 194
2 21 194
3 21 194
0 22 194
1 22 194
2 22 194
3 22 194
0 23 194
1 23 194
2 23 194
3 23 194
0 24 194
1 24 194
2 24 194
3 24 194
0 25 194
1 25 194
2 25 194
3 25 194
0 26 194
1 26 194
2 26 194
3 26 194
0 27 194
1 27 194
2 27 194
3 27 194
0 28 194
1 28 194
2 28 194
3 28 194
0 29 194
1 29 194
2 29 194
3 29 194
0 30 194
1 30 194
2 30 194
3 30 194
0 31 194
1 31 194
2 31 194
3 31 194
0 32 194
1 32 194
2 32 194
3 32 194
0 33 194
1 33 194
2 33 194
3 33 194
0 34 194
1 34 194
2 34 194
3 34 194
0 35 194
1 35 194
2 35 194
3 35 194
0 36 194
1 36 194
2 36 194
3 36 194
0 37 194
1 37 194
2 37 194
3 37 194
0 38 194
1 38 194
2 38 194
3 38 194
0 39 194
1 39 194
2 39 194
3 39 194
0 40 194
1 40 194
2 40 194
3 40 194
0 41 194
1 41 194
2 41 194
3 41 194
0 42 194
1 42 194
2 42 194
3 42 194
0 43 194
1 43 194
2 43 194
3 43 194
0 44 194
1 44 194
2 44 194
3 44 194
0 45 194
1 45 194
2 45 194
3 45 194
0 46 194
1 46 194
2 46 194
3 46 194
0 47 194
1 47 194
2 47 194
3 47 194
0 48 194
1 48 194
2 48 194
3 48 194
0 49 194
1 49 194
2 49 194
3 49 194
0 50 194
1 50 194
2 50 194
3 50 194
0 51 194
1 51 194
2 51 194
3 51 194
0 52 194
1 52 194
2 52 194
3 52 194
0 53 194
1 53 194
2 53 194
3 53 194
0 54 194
1 54 194
2 54 194
3 54 194
0 55 194
1 55 194
2 55 194
3 55 194
0 56 194
1 56 194
2 56 194
3 56 194
0 57 194
1 57 194
2 57 194
3 57 194
0 58 194
1 58 194
2 58 194
3 58 194
0 59 194
1 59 194
2 59 194
3 59 194
0 60 194
1 60 194
2 60 194
3 60 194
0 61 194
1 61 194
2 61 194
3 61 194
0 62 194
1 62 194
2 62 194
3 62 194
0 63 194
1 63 194
2 63 194
3 63 194
0 64 194
1 64 194
2 64 194
3 64 194
0 65 194
1 65 194
2 65 194
3 65 194
0 66 194
1 66 194
2 66 194
3 66 194
0 0 195
1 0 195
2 0 195
3 0 195
0 1 195
1 1 195
2 1 195
3 1 195
0 2 195
1 2 195
2 2 195
3 2 195
0 3 195
1 3 195
2 3 195
3 3 195
0 4 195
1 4 195
2 4 195
3 4 195
0 5 195
1 5 195
2 5 195
3 5 195
0 6 195
1 6 195
2 6 195
3 6 195
0 7 195
1 7 195
2 7 195
3 7 195
0 8 195
1 8 195
2 8 195
3 8 195
0 9 195
1 9 195
2 9 195
3 9 195
0 10 195
1 10 195
2 10 195
3 10 195
0 11 195
1 11 195
2 11 195
3 11 195
0 12 195
1 12 195
2 12 195
3 12 195
0 13 195
1 13 195
2 13 195
3 13 195
0 14 195
1 14 195
2 14 195
3 14 195
0 15 195
1 15 195
2 15 195
3 15 195
0 16 195
1 16 195
2 16 195
3 16 195
0 17 195
1 17 195
2 17 195
3 17 195
0 18 195
1 18 195
2 18 195
3 18 195
0 19 195
1 19 195
2 19 195
3 19 195
0 20 195
1 20 195
2 20 195
3 20 195
0 21 195
1 21 195
2 21 195
3 21 195
0 22 195
1 22 195
2 22 195
3 22 195
0 23 195
1 23 195
2 23 195
3 23 195
0 24 195
1 24 195
2 24 195
3 24 195
0 25 195
1 25 195
2 25 195
3 25 195
0 26 195
1 26 195
2 26 195
3 26 195
0 27 195
1 27 195
2 27 195
3 27 195
0 28 195
1 28 195
2 28 195
3 28 195
0 29 195
1 29 195
2 29 195
3 29 195
0 30 195
1 30 195
2 30 195
3 30 195
0 31 195
1 31 195
2 31 195
3 31 195
0 32 195
1 32 195
2 32 195
3 32 195
0 33 195
1 33 195
2 33 195
3 33 195
0 34 195
1 34 195
2 34 195
3 34 195
0 35 195
1 35 195
2 35 195
3 35 195
0 36 195
1 36 195
2 36 195
3 36 195
0 37 195
1 37 195
2 37 195
3 37 195
0 38 195
1 38 195
2 38 195
3 38 195
0 39 195
1 39 195
2 39 195
3 39 195
0 40 195
1 40 195
2 40 195
3 40 195
0 41 195
1 41 195
2 41 195
3 41 195
0 42 195
1 42 195
2 42 195
3 42 195
0 43 195
1 43 195
2 43 195
3 43 195
0 44 195
1 44 195
2 44 195
3 44 195
0 45 195
1 45 195
2 45 195
3 45 195
0 46 195
1 46 195
2 46 195
3 46 195
0 47 195
1 47 195
2 47 195
3 47 195
0 48 195
1 48 195
2 48 195
3 48 195
0 49 195
1 49 195
2 49 195
3 49 195
0 50 195
1 50 195
2 50 195
3 50 195
0 51 195
1 51 195
2 51 195
3 51 195
0 52 195
1 52 195
2 52 195
3 52 195
0 53 195
1 53 195
2 53 195
3 53 195
0 54 195
1 54 195
2 54 195
3 54 195
0 55 195
1 55 195
2 55 195
3 55 195
0 56 195
1 56 195
2 56 195
3 56 195
0 57 195
1 57 195
2 57 195
3 57 195
0 58 195
1 58 195
2 58 195
3 58 195
0 59 195
1 59 195
2 59 195
3 59 195
0 60 195
1 60 195
2 60 195
3 60 195
0 61 195
1 61 195
2 61 195
3 61 195
0 62 195
1 62 195
2 62 195
3 62 195
0 63 195
1 63 195
2 63 195
3 63 195
0 64 195
1 64 195
2 64 195
3 64 195
0 65 195
1 65 195
2 65 195
3 65 195
0 66 195
1 66 195
2 66 195
3 66 195
0 0 196
1 0 196
2 0 196
3 0 196
0 1 196
1 1 196
2 1 196
3 1 196
0 2 196
1 2 196
2 2 196
3 2 196
0 3 196
1 3 196
2 3 196
3 3 196
0 4 196
1 4 196
2 4 196
3 4 196
0 5 196
1 5 196
2 5 196
3 5 196
0 6 196
1 6 196
2 6 196
3 6 196
0 7 196
1 7 196
2 7 196
3 7 196
0 8 196
1 8 196
2 8 196
3 8 196
0 9 196
1 9 196
2 9 196
3 9 196
0 10 196
1 10 196
2 10 196
3 10 196
0 11 196
1 11 196
2 11 196
3 11 196
0 12 196
1 12 196
2 12 196
3 12 196
0 13 196
1 13 196
2 13 196
3 13 196
0 14 196
1 14 196
2 14 196
3 14 196
0 15 196
1 15 196
2 15 196
3 15 196
0 16 196
1 16 196
2 16 196
3 16 196
0 17 196
1 17 196
2 17 196
3 17 196
0 18 196
1 18 196
2 18 196
3 18 196
0 19 196
1 19 196
2 19 196
3 19 196
0 20 196
1 20 196
2 20 196
3 20 196
0 21 196
1 21 196
2 21 196
3 21 196
0 22 196
1 22 196
2 22 196
3 22 196
0 23 196
1 23 196
2 23 196
3 23 196
0 24 196
1 24 196
2 24 196
3 24 196
0 25 196
1 25 196
2 25 196
3 25 196
0 26 196
1 26 196
2 26 196
3 26 196
0 27 196
1 27 196
2 27 196
3 27 196
0 28 196
1 28 196
2 28 196
3 28 196
0 29 196
1 29 196
2 29 196
3 29 196
0 30 196
1 30 196
2 30 196
3 30 196
0 31 196
1 31 196
2 31 196
3 31 196
0 32 196
1 32 196
2 32 196
3 32 196
0 33 196
1 33 196
2 33 196
3 33 196
0 34 196
1 34 196
2 34 196
3 34 196
0 35 196
1 35 196
2 35 196
3 35 196
0 36 196
1 36 196
2 36 196
3 36 196
0 37 196
1 37 196
2 37 196
3 37 196
0 38 196
1 38 196
2 38 196
3 38 196
0 39 196
1 39 196
2 39 196
3 39 196
0 40 196
1 40 196
2 40 196
3 40 196
0 41 196
1 41 196
2 41 196
3 41 196
0 42 196
1 42 196
2 42 196
3 42 196
0 43 196
1 43 196
2 43 196
3 43 196
0 44 196
1 44 196
2 44 196
3 44 196
0 45 196
1 45 196
2 45 196
3 45 196
0 46 196
1 46 196
2 46 196
3 46 196
0 47 196
1 47 196
2 47 196
3 47 196
0 48 196
1 48 196
2 48 196
3 48 196
0 49 196
1 49 196
2 49 196
3 49 196
0 50 196
1 50 196
2 50 196
3 50 196
0 51 196
1 51 196
2 51 196
3 51 196
0 52 196
1 52 196
2 52 196
3 52 196
0 53 196
1 53 196
2 53 196
3 53 196
0 54 196
1 54 196
2 54 196
3 54 196
0 55 196
1 55 196
2 55 196
3 55 196
0 56 196
1 56 196
2 56 196
3 56 196
0 57 196
1 57 196
2 57 196
3 57 196
0 58 196
1 58 196
2 58 196
3 58 196
0 59 196
1 59 196
2 59 196
3 59 196
0 60 196
1 60 196
2 60 196
3 60 196
0 61 196
1 61 196
2 61 196
3 61 196
0 62 196
1 62 196
2 62 196
3 62 196
0 63 196
1 63 196
2 63 196
3 63 196
0 64 196
1 64 196
2 64 196
3 64 196
0 65 196
1 65 196
2 65 196
3 65 196
0 66 196
1 66 196
2 66 196
3 66 196
0 0 197
1 0 197
2 0 197
3 0 197
0 1 197
1 1 197
2 1 197
3 1 197
0 2 197
1 2 197
2 2 197
3 2 197
0 3 197
1 3 197
2 3 197
3 3 197
0 4 197
1 4 197
2 4 197
3 4 197
0 5 197
1 5 197
2 5 197
3 5 197
0 6 197
1 6 197
2 6 197
3 6 197
0 7 197
1 7 197
2 7 197
3 7 197
0 8 197
1 8 197
2 8 197
3 8 197
0 9 197
1 9 197
2 9 197
3 9 197
0 10 197
1 10 197
2 10 197
3 10 197
0 11 197
1 11 197
2 11 197
3 11 197
0 12 197
1 12 197
2 12 197
3 12 197
0 13 197
1 13 197
2 13 197
3 13 197
0 14 197
1 14 197
2 14 197
3 14 197
0 15 197
1 15 197
2 15 197
3 15 197
0 16 197
1 16 197
2 16 197
3 16 197
0 17 197
1 17 197
2 17 197
3 17 197
0 18 197
1 18 197
2 18 197
3 18 197
0 19 197
1 19 197
2 19 197
3 19 197
0 20 197
1 20 197
2 20 197
3 20 197
0 21 197
1 21 197
2 21 197
3 21 197
0 22 197
1 22 197
2 22 197
3 22 197
0 23 197
1 23 197
2 23 197
3 23 197
0 24 197
1 24 197
2 24 197
3 24 197
0 25 197
1 25 197
2 25 197
3 25 197
0 26 197
1 26 197
2 26 197
3 26 197
0 27 197
1 27 197
2 27 197
3 27 197
0 28 197
1 28 197
2 28 197
3 28 197
0 29 197
1 29 197
2 29 197
3 29 197
0 30 197
1 30 197
2 30 197
3 30 197
0 31 197
1 31 197
2 31 197
3 31 197
0 32 197
1 32 197
2 32 197
3 32 197
0 33 197
1 33 197
2 33 197
3 33 197
0 34 197
1 34 197
2 34 197
3 34 197
0 35 197
1 35 197
2 35 197
3 35 197
0 36 197
1 36 197
2 36 197
3 36 197
0 37 197
1 37 197
2 37 197
3 37 197
0 38 197
1 38 197
2 38 197
3 38 197
0 39 197
1 39 197
2 39 197
3 39 197
0 40 197
1 40 197
2 40 197
3 40 197
0 41 197
1 41 197
2 41 197
3 41 197
0 42 197
1 42 197
2 42 197
3 42 197
0 43 197
1 43 197
2 43 197
3 43 197
0 44 197
1 44 197
2 44 197
3 44 197
0 45 197
1 45 197
2 45 197
3 45 197
0 46 197
1 46 197
2 46 197
3 46 197
0 47 197
1 47 197
2 47 197
3 47 197
0 48 197
1 48 197
2 48 197
3 48 197
0 49 197
1 49 197
2 49 197
3 49 197
0 50 197
1 50 197
2 50 197
3 50 197
0 51 197
1 51 197
2 51 197
3 51 197
0 52 197
1 52 197
2 52 197
3 52 197
0 53 197
1 53 197
2 53 197
3 53 197
0 54 197
1 54 197
2 54 197
3 54 197
0 55 197
1 55 197
2 55 197
3 55 197
0 56 197
1 56 197
2 56 197
3 56 197
0 57 197
1 57 197
2 57 197
3 57 197
0 58 197
1 58 197
2 58 197
3 58 197
0 59 197
1 59 197
2 59 197
3 59 197
0 60 197
1 60 197
2 60 197
3 60 197
0 61 197
1 61 197
2 61 197
3 61 197
0 62 197
1 62 197
2 62 197
3 62 197
0 63 197
1 63 197
2 63 197
3 63 197
0 64 197
1 64 197
2 64 197
3 64 197
0 65 197
1 65 197
2 65 197
3 65 197
0 66 197
1 66 197
2 66 197
3 66 197
0 0 198
1 0 198
2 0 198
3 0 198
0 1 198
1 1 198
2 1 198
3 1 198
0 2 198
1 2 198
2 2 198
3 2 198
0 3 198
1 3 198
2 3 198
3 3 198
0 4 198
1 4 198
2 4 198
3 4 198
0 5 198
1 5 198
2 5 198
3 5 198
0 6 198
1 6 198
2 6 198
3 6 198
0 7 198
1 7 198
2 7 198
3 7 198
0 8 198
1 8 198
2 8 198
3 8 198
0 9 198
1 9 198
2 9 198
3 9 198
0 10 198
1 10 198
2 10 198
3 10 198
0 11 198
1 11 198
2 11 198
3 11 198
0 12 198
1 12 198
2 12 198
3 12 198
0 13 198
1 13 198
2 13 198
3 13 198
0 14 198
1 14 198
2 14 198
3 14 198
0 15 198
1 15 198
2 15 198
3 15 198
0 16 198
1 16 198
2 16 198
3 16 198
0 17 198
1 17 198
2 17 198
3 17 198
0 18 198
1 18 198
2 18 198
3 18 198
0 19 198
1 19 198
2 19 198
3 19 198
0 20 198
1 20 198
2 20 198
3 20 198
0 21 198
1 21 198
2 21 198
3 21 198
0 22 198
1 22 198
2 22 198
3 22 198
0 23 198
1 23 198
2 23 198
3 23 198
0 24 198
1 24 198
2 24 198
3 24 198
0 25 198
1 25 198
2 25 198
3 25 198
0 26 198
1 26 198
2 26 198
3 26 198
0 27 198
1 27 198
2 27 198
3 27 198
0 28 198
1 28 198
2 28 198
3 28 198
0 29 198
1 29 198
2 29 198
3 29 198
0 30 198
1 30 198
2 30 198
3 30 198
0 31 198
1 31 198
2 31 198
3 31 198
0 32 198
1 32 198
2 32 198
3 32 198
0 33 198
1 33 198
2 33 198
3 33 198
0 34 198
1 34 198
2 34 198
3 34 198
0 35 198
1 35 198
2 35 198
3 35 198
0 36 198
1 36 198
2 36 198
3 36 198
0 37 198
1 37 198
2 37 198
3 37 198
0 38 198
1 38 198
2 38 198
3 38 198
0 39 198
1 39 198
2 39 198
3 39 198
0 40 198
1 40 198
2 40 198
3 40 198
0 41 198
1 41 198
2 41 198
3 41 198
0 42 198
1 42 198
2 42 198
3 42 198
0 43 198
1 43 198
2 43 198
3 43 198
0 44 198
1 44 198
2 44 198
3 44 198
0 45 198
1 45 198
2 45 198
3 45 198
0 46 198
1 46 198
2 46 198
3 46 198
0 47 198
1 47 198
2 47 198
3 47 198
0 48 198
1 48 198
2 48 198
3 48 198
0 49 198
1 49 198
2 49 198
3 49 198
0 50 198
1 50 198
2 50 198
3 50 198
0 51 198
1 51 198
2 51 198
3 51 198
0 52 198
1 52 198
2 52 198
3 52 198
0 53 198
1 53 198
2 53 198
3 53 198
0 54 198
1 54 198
2 54 198
3 54 198
0 55 198
1 55 198
2 55 198
3 55 198
0 56 198
1 56 198
2 56 198
3 56 198
0 57 198
1 57 198
2 57 198
3 57 198
0 58 198
1 58 198
2 58 198
3 58 198
0 59 198
1 59 198
2 59 198
3 59 198
0 60 198
1 60 198
2 60 198
3 60 198
0 61 198
1 61 198
2 61 198
3 61 198
0 62 198
1 62 198
2 62 198
3 62 198
0 63 198
1 63 198
2 63 198
3 63 198
0 64 198
1 64 198
2 64 198
3 64 198
0 65 198
1 65 198
2 65 198
3 65 198
0 66 198
1 66 198
2 66 198
3 66 198
0 0 199
1 0 199
2 0 199
3 0 199
0 1 199
1 1 199
2 1 199
3 1 199
0 2 199
1 2 199
2 2 199
3 2 199
0 3 199
1 3 199
2 3 199
3 3 199
0 4 199
1 4 199
2 4 199
3 4 199
0 5 199
1 5 199
2 5 199
3 5 199
0 6 199
1 6 199
2 6 199
3 6 199
0 7 199
1 7 199
2 7 199
3 7 199
0 8 199
1 8 199
2 8 199
3 8 199
0 9 199
1 9 199
2 9 199
3 9 199
0 10 199
1 10 199
2 10 199
3 10 199
0 11 199
1 11 199
2 11 199
3 11 199
0 12 199
1 12 199
2 12 199
3 12 199
0 13 199
1 13 199
2 13 199
3 13 199
0 14 199
1 14 199
2 14 199
3 14 199
0 15 199
1 15 199
2 15 199
3 15 199
0 16 199
1 16 199
2 16 199
3 16 199
0 17 199
1 17 199
2 17 199
3 17 199
0 18 199
1 18 199
2 18 199
3 18 199
0 19 199
1 19 199
2 19 199
3 19 199
0 20 199
1 20 199
2 20 199
3 20 199
0 21 199
1 21 199
2 21 199
3 21 199
0 22 199
1 22 199
2 22 199
3 22 199
0 23 199
1 23 199
2 23 199
3 23 199
0 24 199
1 24 199
2 24 199
3 24 199
0 25 199
1 25 199
2 25 199
3 25 199
0 26 199
1 26 199
2 26 199
3 26 199
0 27 199
1 27 199
2 27 199
3 27 199
0 28 199
1 28 199
2 28 199
3 28 199
0 29 199
1 29 199
2 29 199
3 29 199
0 30 199
1 30 199
2 30 199
3 30 199
0 31 199
1 31 199
2 31 199
3 31 199
0 32 199
1 32 199
2 32 199
3 32 199
0 33 199
1 33 199
2 33 199
3 33 199
0 34 199
1 34 199
2 34 199
3 34 199
0 35 199
1 35 199
2 35 199
3 35 199
0 36 199
1 36 199
2 36 199
3 36 199
0 37 199
1 37 199
2 37 199
3 37 199
0 38 199
1 38 199
2 38 199
3 38 199
0 39 199
1 39 199
2 39 199
3 39 199
0 40 199
1 40 199
2 40 199
3 40 199
0 41 199
1 41 199
2 41 199
3 41 199
0 42 199
1 42 199
2 42 199
3 42 199
0 43 199
1 43 199
2 43 199
3 43 199
0 44 199
1 44 199
2 44 199
3 44 199
0 45 199
1 45 199
2 45 199
3 45 199
0 46 199
1 46 199
2 46 199
3 46 199
0 47 199
1 47 199
2 47 199
3 47 199
0 48 199
1 48 199
2 48 199
3 48 199
0 49 199
1 49 199
2 49 199
3 49 199
0 50 199
1 50 199
2 50 199
3 50 199
0 51 199
1 51 199
2 51 199
3 51 199
0 52 199
1 52 199
2 52 199
3 52 199
0 53 199
1 53 199
2 53 199
3 53 199
0 54 199
1 54 199
2 54 199
3 54 199
0 55 199
1 55 199
2 55 199
3 55 199
0 56 199
1 56 199
2 56 199
3 56 199
0 57 199
1 57 199
2 57 199
3 57 199
0 58 199
1 58 199
2 58 199
3 58 199
0 59 199
1 59 199
2 59 199
3 59 199
0 60 199
1 60 199
2 60 199
3 60 199
0 61 199
1 61 199
2 61 199
3 61 199
0 62 199
1 62 199
2 62 199
3 62 199
0 63 199
1 63 199
2 63 199
3 63 199
0 64 199
1 64 199
2 64 199
3 64 199
0 65 199
1 65 199
2 65 199
3 65 199
0 66 199
1 66 199
2 66 199
3 66 199
        </DataArray>
      </Points>
      <PointData Scalars="scalar">
        <DataArray Name="scalar" type="Float32" format="ascii">
1
1
1
1
0
0
0
0
0
0
0
0
0
0
0
0
0
0
0
0
0
0
0
0
0
0
0
0
0
0
0
0
0
0
0
0
0
0
0
0
0
0
0
0
0
0
0
0
0
0
0
0
0
0
0
0
0
0
0
0
0
0
0
0
0
0
0
0
0
0
0
0
0
0
0
0
0
0
0
0
0
0
0
0
0
0
0
0
0
0
0
0
0
0
0
0
0
0
0
0
0
0
0
0
0
0
0
0
0
0
0
0
0
0
0
0
0
0
0
0
0
0
0
0
0
0
0
0
0
0
0
0
0
0
0
0
0
0
0
0
0
0
0
0
0
0
0
0
0
0
0
0
0
0
0
0
0
0
0
0
0
0
0
0
0
0
0
0
0
0
0
0
0
0
0
0
0
0
0
0
0
0
0
0
0
0
0
0
0
0
0
0
0
0
0
0
0
0
0
0
0
0
0
0
0
0
0
0
0
0
0
0
0
0
0
0
0
0
0
0
0
0
0
0
0
0
0
0
0
0
0
0
0
0
0
0
0
0
0
0
0
0
0
0
0
0
0
0
0
0
0
0
0
0
0
0
0
0
0
0
0
0
0
0
1
1
1
1
3
3
3
3
1
1
1
1
1
1
1
1
1
1
1
1
1
1
1
1
1
1
1
1
1
1
1
1
1
1
1
1
1
1
1
1
1
1
1
1
1
1
1
1
1
1
1
1
1
1
1
1
1
1
1
1
1
1
1
1
1
1
1
1
1
1
1
1
1
1
1
1
1
1
1
1
1
1
1
1
1
1
1
1
1
1
1
1
1
1
1
1
1
1
1
1
1
1
1
1
1
1
1
1
1
1
1
1
1
1
1
1
1
1
1
1
1
1
1
1
1
1
1
1
1
1
1
1
1
1
1
1
1
1
1
1
1
1
1
1
1
1
1
1
1
1
1
1
1
1
1
1
1
1
1
1
1
1
1
1
1
1
1
1
1
1
1
1
1
1
1
1
1
1
1
1
1
1
1
1
1
1
1
1
1
1
1
1
1
1
1
1
1
1
1
1
1
1
1
1
1
1
1
1
1
1
1
1
1
1
1
1
1
1
1
1
1
1
1
1
1
1
1
1
1
1
1
1
1
1
1
1
1
1
1
1
1
1
1
1
1
1
1
1
1
1
1
1
1
1
1
1
1
1
1
1
1
1
1
1
1
1
1
1
1
1
1
1
3
3
3
3
1
1
1
1
1
1
1
1
1
1
1
1
1
1
1
1
1
1
1
1
1
1
1
1
1
1
1
1
1
1
1
1
1
1
1
1
1
1
1
1
1
1
1
1
1
1
1
1
1
1
1
1
1
1
1
1
1
1
1
1
1
1
1
1
1
1
1
1
1
1
1
1
1
1
1
1
1
1
1
1
1
1
1
1
1
1
1
1
1
1
1
1
1
1
1
1
1
1
1
1
1
1
1
1
1
1
1
1
1
1
1
1
1
1
1
1
1
1
1
1
1
1
1
1
1
1
1
1
1
1
1
1
1
1
1
1
1
1
1
1
1
1
1
1
1
1
1
1
1
1
1
1
1
1
1
1
1
1
1
1
1
1
1
1
1
1
1
1
1
1
1
1
1
1
1
1
1
1
1
1
1
1
1
1
1
1
1
1
1
1
1
1
1
1
1
1
1
1
1
1
1
1
1
1
1
1
1
1
1
1
1
1
1
1
1
1
1
1
1
1
1
1
1
1
1
1
1
1
1
1
1
1
1
1
1
1
1
1
1
1
1
1
1
1
1
1
1
1
1
1
1
1
1
1
1
1
1
1
1
1
1
1
1
1
3
3
3
3
1
1
1
1
1
1
1
1
1
1
1
1
1
1
1
1
1
1
1
1
1
1
1
1
1
1
1
1
1
1
1
1
1
1
1
1
1
1
1
1
1
1
1
1
1
1
1
1
1
1
1
1
1
1
1
1
1
1
1
1
1
1
1
1
1
1
1
1
1
1
1
1
1
1
1
1
1
1
1
1
1
1
1
1
1
1
1
1
1
1
1
1
1
1
1
1
1
1
1
1
1
1
1
1
1
1
1
1
1
1
1
1
1
1
1
1
1
1
1
1
1
1
1
1
1
1
1
1
1
1
1
1
1
1
1
1
1
1
1
1
1
1
1
1
1
1
1
1
1
1
1
1
1
1
1
1
1
1
1
1
1
1
1
1
1
1
1
1
1
1
1
1
1
1
1
1
1
1
1
1
1
1
1
1
1
1
1
1
1
1
1
1
1
1
1
1
1
1
1
1
1
1
1
1
1
1
1
1
1
1
1
1
1
1
1
1
1
1
1
1
1
1
1
1
1
1
1
1
1
1
1
1
1
1
1
1
1
1
1
1
1
1
1
1
1
1
1
1
1
1
1
1
1
1
1
1
1
1
1
1
1
1
1
1
3
3
3
3
1
1
1
1
1
1
1
1
1
1
1
1
1
1
1
1
1
1
1
1
1
1
1
1
1
1
1
1
1
1
1
1
1
1
1
1
1
1
1
1
1
1
1
1
1
1
1
1
1
1
1
1
1
1
1
1
1
1
1
1
1
1
1
1
1
1
1
1
1
1
1
1
1
1
1
1
1
1
1
1
1
1
1
1
1
1
1
1
1
1
1
1
1
1
1
1
1
1
1
1
1
1
1
1
1
1
1
1
1
1
1
1
1
1
1
1
1
1
1
1
1
1
1
1
1
1
1
1
1
1
1
1
1
1
1
1
1
1
1
1
1
1
1
1
1
1
1
1
1
1
1
1
1
1
1
1
1
1
1
1
1
1
1
1
1
1
1
1
1
1
1
1
1
1
1
1
1
1
1
1
1
1
1
1
1
1
1
1
1
1
1
1
1
1
1
1
1
1
1
1
1
1
1
1
1
1
1
1
1
1
1
1
1
1
1
1
1
1
1
1
1
1
1
1
1
1
1
1
1
1
1
1
1
1
1
1
1
1
1
1
1
1
1
1
1
1
1
1
1
1
1
1
1
1
1
1
1
1
1
1
1
1
1
1
3
3
3
3
1
1
1
1
1
1
1
1
1
1
1
1
1
1
1
1
1
1
1
1
1
1
1
1
1
1
1
1
1
1
1
1
1
1
1
1
1
1
1
1
1
1
1
1
1
1
1
1
1
1
1
1
1
1
1
1
1
1
1
1
1
1
1
1
1
1
1
1
1
1
1
1
1
1
1
1
1
1
1
1
1
1
1
1
1
1
1
1
1
1
1
1
1
1
1
1
1
1
1
1
1
1
1
1
1
1
1
1
1
1
1
1
1
1
1
1
1
1
1
1
1
1
1
1
1
1
1
1
1
1
1
1
1
1
1
1
1
1
1
1
1
1
1
1
1
1
1
1
1
1
1
1
1
1
1
1
1
1
1
1
1
1
1
1
1
1
1
1
1
1
1
1
1
1
1
1
1
1
1
1
1
1
1
1
1
1
1
1
1
1
1
1
1
1
1
1
1
1
1
1
1
1
1
1
1
1
1
1
1
1
1
1
1
1
1
1
1
1
1
1
1
1
1
1
1
1
1
1
1
1
1
1
1
1
1
1
1
1
1
1
1
1
1
1
1
1
1
1
1
1
1
1
1
1
1
1
1
1
1
1
1
1
1
1
3
3
3
3
1
1
1
1
1
1
1
1
1
1
1
1
1
1
1
1
1
1
1
1
1
1
1
1
1
1
1
1
1
1
1
1
1
1
1
1
1
1
1
1
1
1
1
1
1
1
1
1
1
1
1
1
1
1
1
1
1
1
1
1
1
1
1
1
1
1
1
1
1
1
1
1
1
1
1
1
1
1
1
1
1
1
1
1
1
1
1
1
1
1
1
1
1
1
1
1
1
1
1
1
1
1
1
1
1
1
1
1
1
1
1
1
1
1
1
1
1
1
1
1
1
1
1
1
1
1
1
1
1
1
1
1
1
1
1
1
1
1
1
1
1
1
1
1
1
1
1
1
1
1
1
1
1
1
1
1
1
1
1
1
1
1
1
1
1
1
1
1
1
1
1
1
1
1
1
1
1
1
1
1
1
1
1
1
1
1
1
1
1
1
1
1
1
1
1
1
1
1
1
1
1
1
1
1
1
1
1
1
1
1
1
1
1
1
1
1
1
1
1
1
1
1
1
1
1
1
1
1
1
1
1
1
1
1
1
1
1
1
1
1
1
1
1
1
1
1
1
1
1
1
1
1
1
1
1
1
1
1
1
1
1
1
1
1
3
3
3
3
1
1
1
1
1
1
1
1
1
1
1
1
1
1
1
1
1
1
1
1
1
1
1
1
1
1
1
1
1
1
1
1
1
1
1
1
1
1
1
1
1
1
1
1
1
1
1
1
1
1
1
1
1
1
1
1
1
1
1
1
1
1
1
1
1
1
1
1
1
1
1
1
1
1
1
1
1
1
1
1
1
1
1
1
1
1
1
1
1
1
1
1
1
1
1
1
1
1
1
1
1
1
1
1
1
1
1
1
1
1
1
1
1
1
1
1
1
1
1
1
1
1
1
1
1
1
1
1
1
1
1
1
1
1
1
1
1
1
1
1
1
1
1
1
1
1
1
1
1
1
1
1
1
1
1
1
1
1
1
1
1
1
1
1
1
1
1
1
1
1
1
1
1
1
1
1
1
1
1
1
1
1
1
1
1
1
1
1
1
1
1
1
1
1
1
1
1
1
1
1
1
1
1
1
1
1
1
1
1
1
1
1
1
1
1
1
1
1
1
1
1
1
1
1
1
1
1
1
1
1
1
1
1
1
1
1
1
1
1
1
1
1
1
1
1
1
1
1
1
1
1
1
1
1
1
1
1
1
1
1
1
1
1
1
3
3
3
3
1
1
1
1
1
1
1
1
1
1
1
1
1
1
1
1
1
1
1
1
1
1
1
1
1
1
1
1
1
1
1
1
1
1
1
1
1
1
1
1
1
1
1
1
1
1
1
1
1
1
1
1
1
1
1
1
1
1
1
1
1
1
1
1
1
1
1
1
1
1
1
1
1
1
1
1
1
1
1
1
1
1
1
1
1
1
1
1
1
1
1
1
1
1
1
1
1
1
1
1
1
1
1
1
1
1
1
1
1
1
1
1
1
1
1
1
1
1
1
1
1
1
1
1
1
1
1
1
1
1
1
1
1
1
1
1
1
1
1
1
1
1
1
1
1
1
1
1
1
1
1
1
1
1
1
1
1
1
1
1
1
1
1
1
1
1
1
1
1
1
1
1
1
1
1
1
1
1
1
1
1
1
1
1
1
1
1
1
1
1
1
1
1
1
1
1
1
1
1
1
1
1
1
1
1
1
1
1
1
1
1
1
1
1
1
1
1
1
1
1
1
1
1
1
1
1
1
1
1
1
1
1
1
1
1
1
1
1
1
1
1
1
1
1
1
1
1
1
1
1
1
1
1
1
1
1
1
1
1
1
1
1
1
1
3
3
3
3
1
1
1
1
1
1
1
1
1
1
1
1
1
1
1
1
1
1
1
1
1
1
1
1
1
1
1
1
1
1
1
1
1
1
1
1
1
1
1
1
1
1
1
1
1
1
1
1
1
1
1
1
1
1
1
1
1
1
1
1
1
1
1
1
1
1
1
1
1
1
1
1
1
1
1
1
1
1
1
1
1
1
1
1
1
1
1
1
1
1
1
1
1
1
1
1
1
1
1
1
1
1
1
1
1
1
1
1
1
1
1
1
1
1
1
1
1
1
1
1
1
1
1
1
1
1
1
1
1
1
1
1
1
1
1
1
1
1
1
1
1
1
1
1
1
1
1
1
1
1
1
1
1
1
1
1
1
1
1
1
1
1
1
1
1
1
1
1
1
1
1
1
1
1
1
1
1
1
1
1
1
1
1
1
1
1
1
1
1
1
1
1
1
1
1
1
1
1
1
1
1
1
1
1
1
1
1
1
1
1
1
1
1
1
1
1
1
1
1
1
1
1
1
1
1
1
1
1
1
1
1
1
1
1
1
1
1
1
1
1
1
1
1
1
1
1
1
1
1
1
1
1
1
1
1
1
1
1
1
1
1
1
1
1
3
3
3
3
1
1
1
1
1
1
1
1
1
1
1
1
1
1
1
1
1
1
1
1
1
1
1
1
1
1
1
1
1
1
1
1
1
1
1
1
1
1
1
1
1
1
1
1
1
1
1
1
1
1
1
1
1
1
1
1
1
1
1
1
1
1
1
1
1
1
1
1
1
1
1
1
1
1
1
1
1
1
1
1
1
1
1
1
1
1
1
1
1
1
1
1
1
1
1
1
1
1
1
1
1
1
1
1
1
1
1
1
1
1
1
1
1
1
1
1
1
1
1
1
1
1
1
1
1
1
1
1
1
1
1
1
1
1
1
1
1
1
1
1
1
1
1
1
1
1
1
1
1
1
1
1
1
1
1
1
1
1
1
1
1
1
1
1
1
1
1
1
1
1
1
1
1
1
1
1
1
1
1
1
1
1
1
1
1
1
1
1
1
1
1
1
1
1
1
1
1
1
1
1
1
1
1
1
1
1
1
1
1
1
1
1
1
1
1
1
1
1
1
1
1
1
1
1
1
1
1
1
1
1
1
1
1
1
1
1
1
1
1
1
1
1
1
1
1
1
1
1
1
1
1
1
1
1
1
1
1
1
1
1
1
1
1
1
3
3
3
3
1
1
1
1
1
1
1
1
1
1
1
1
1
1
1
1
1
1
1
1
1
1
1
1
1
1
1
1
1
1
1
1
1
1
1
1
1
1
1
1
1
1
1
1
1
1
1
1
1
1
1
1
1
1
1
1
1
1
1
1
1
1
1
1
1
1
1
1
1
1
1
1
1
1
1
1
1
1
1
1
1
1
1
1
1
1
1
1
1
1
1
1
1
1
1
1
1
1
1
1
1
1
1
1
1
1
1
1
1
1
1
1
1
1
1
1
1
1
1
1
1
1
1
1
1
1
1
1
1
1
1
1
1
1
1
1
1
1
1
1
1
1
1
1
1
1
1
1
1
1
1
1
1
1
1
1
1
1
1
1
1
1
1
1
1
1
1
1
1
1
1
1
1
1
1
1
1
1
1
1
1
1
1
1
1
1
1
1
1
1
1
1
1
1
1
1
1
1
1
1
1
1
1
1
1
1
1
1
1
1
1
1
1
1
1
1
1
1
1
1
1
1
1
1
1
1
1
1
1
1
1
1
1
1
1
1
1
1
1
1
1
1
1
1
1
1
1
1
1
1
1
1
1
1
1
1
1
1
1
1
1
1
1
1
3
3
3
3
1
1
1
1
1
1
1
1
1
1
1
1
1
1
1
1
1
1
1
1
1
1
1
1
1
1
1
1
1
1
1
1
1
1
1
1
1
1
1
1
1
1
1
1
1
1
1
1
1
1
1
1
1
1
1
1
1
1
1
1
1
1
1
1
1
1
1
1
1
1
1
1
1
1
1
1
1
1
1
1
1
1
1
1
1
1
1
1
1
1
1
1
1
1
1
1
1
1
1
1
1
1
1
1
1
1
1
1
1
1
1
1
1
1
1
1
1
1
1
1
1
1
1
1
1
1
1
1
1
1
1
1
1
1
1
1
1
1
1
1
1
1
1
1
1
1
1
1
1
1
1
1
1
1
1
1
1
1
1
1
1
1
1
1
1
1
1
1
1
1
1
1
1
1
1
1
1
1
1
1
1
1
1
1
1
1
1
1
1
1
1
1
1
1
1
1
1
1
1
1
1
1
1
1
1
1
1
1
1
1
1
1
1
1
1
1
1
1
1
1
1
1
1
1
1
1
1
1
1
1
1
1
1
1
1
1
1
1
1
1
1
1
1
1
1
1
1
1
1
1
1
1
1
1
1
1
1
1
1
1
1
1
1
1
3
3
3
3
1
1
1
1
1
1
1
1
1
1
1
1
1
1
1
1
1
1
1
1
1
1
1
1
1
1
1
1
1
1
1
1
1
1
1
1
1
1
1
1
1
1
1
1
1
1
1
1
1
1
1
1
1
1
1
1
1
1
1
1
1
1
1
1
1
1
1
1
1
1
1
1
1
1
1
1
1
1
1
1
1
1
1
1
1
1
1
1
1
1
1
1
1
1
1
1
1
1
1
1
1
1
1
1
1
1
1
1
1
1
1
1
1
1
1
1
1
1
1
1
1
1
1
1
1
1
1
1
1
1
1
1
1
1
1
1
1
1
1
1
1
1
1
1
1
1
1
1
1
1
1
1
1
1
1
1
1
1
1
1
1
1
1
1
1
1
1
1
1
1
1
1
1
1
1
1
1
1
1
1
1
1
1
1
1
1
1
1
1
1
1
1
1
1
1
1
1
1
1
1
1
1
1
1
1
1
1
1
1
1
1
1
1
1
1
1
1
1
1
1
1
1
1
1
1
1
1
1
1
1
1
1
1
1
1
1
1
1
1
1
1
1
1
1
1
1
1
1
1
1
1
1
1
1
1
1
1
1
1
1
1
1
1
1
3
3
3
3
1
1
1
1
1
1
1
1
1
1
1
1
1
1
1
1
1
1
1
1
1
1
1
1
1
1
1
1
1
1
1
1
1
1
1
1
1
1
1
1
1
1
1
1
1
1
1
1
1
1
1
1
1
1
1
1
1
1
1
1
1
1
1
1
1
1
1
1
1
1
1
1
1
1
1
1
1
1
1
1
1
1
1
1
1
1
1
1
1
1
1
1
1
1
1
1
1
1
1
1
1
1
1
1
1
1
1
1
1
1
1
1
1
1
1
1
1
1
1
1
1
1
1
1
1
1
1
1
1
1
1
1
1
1
1
1
1
1
1
1
1
1
1
1
1
1
1
1
1
1
1
1
1
1
1
1
1
1
1
1
1
1
1
1
1
1
1
1
1
1
1
1
1
1
1
1
1
1
1
1
1
1
1
1
1
1
1
1
1
1
1
1
1
1
1
1
1
1
1
1
1
1
1
1
1
1
1
1
1
1
1
1
1
1
1
1
1
1
1
1
1
1
1
1
1
1
1
1
1
1
1
1
1
1
1
1
1
1
1
1
1
1
1
1
1
1
1
1
1
1
1
1
1
1
1
1
1
1
1
1
1
1
1
1
3
3
3
3
1
1
1
1
1
1
1
1
1
1
1
1
1
1
1
1
1
1
1
1
1
1
1
1
1
1
1
1
1
1
1
1
1
1
1
1
1
1
1
1
1
1
1
1
1
1
1
1
1
1
1
1
1
1
1
1
1
1
1
1
1
1
1
1
1
1
1
1
1
1
1
1
1
1
1
1
1
1
1
1
1
1
1
1
1
1
1
1
1
1
1
1
1
1
1
1
1
1
1
1
1
1
1
1
1
1
1
1
1
1
1
1
1
1
1
1
1
1
1
1
1
1
1
1
1
1
1
1
1
1
1
1
1
1
1
1
1
1
1
1
1
1
1
1
1
1
1
1
1
1
1
1
1
1
1
1
1
1
1
1
1
1
1
1
1
1
1
1
1
1
1
1
1
1
1
1
1
1
1
1
1
1
1
1
1
1
1
1
1
1
1
1
1
1
1
1
1
1
1
1
1
1
1
1
1
1
1
1
1
1
1
1
1
1
1
1
1
1
1
1
1
1
1
1
1
1
1
1
1
1
1
1
1
1
1
1
1
1
1
1
1
1
1
1
1
1
1
1
1
1
1
1
1
1
1
1
1
1
1
1
1
1
1
1
3
3
3
3
1
1
1
1
1
1
1
1
1
1
1
1
1
1
1
1
1
1
1
1
1
1
1
1
1
1
1
1
1
1
1
1
1
1
1
1
1
1
1
1
1
1
1
1
1
1
1
1
1
1
1
1
1
1
1
1
1
1
1
1
1
1
1
1
1
1
1
1
1
1
1
1
1
1
1
1
1
1
1
1
1
1
1
1
1
1
1
1
1
1
1
1
1
1
1
1
1
1
1
1
1
1
1
1
1
1
1
1
1
1
1
1
1
1
1
1
1
1
1
1
1
1
1
1
1
1
1
1
1
1
1
1
1
1
1
1
1
1
1
1
1
1
1
1
1
1
1
1
1
1
1
1
1
1
1
1
1
1
1
1
1
1
1
1
1
1
1
1
1
1
1
1
1
1
1
1
1
1
1
1
1
1
1
1
1
1
1
1
1
1
1
1
1
1
1
1
1
1
1
1
1
1
1
1
1
1
1
1
1
1
1
1
1
1
1
1
1
1
1
1
1
1
1
1
1
1
1
1
1
1
1
1
1
1
1
1
1
1
1
1
1
1
1
1
1
1
1
1
1
1
1
1
1
1
1
1
1
1
1
1
1
1
1
1
3
3
3
3
1
1
1
1
1
1
1
1
1
1
1
1
1
1
1
1
1
1
1
1
1
1
1
1
1
1
1
1
1
1
1
1
1
1
1
1
1
1
1
1
1
1
1
1
1
1
1
1
1
1
1
1
1
1
1
1
1
1
1
1
1
1
1
1
1
1
1
1
1
1
1
1
1
1
1
1
1
1
1
1
1
1
1
1
1
1
1
1
1
1
1
1
1
1
1
1
1
1
1
1
1
1
1
1
1
1
1
1
1
1
1
1
1
1
1
1
1
1
1
1
1
1
1
1
1
1
1
1
1
1
1
1
1
1
1
1
1
1
1
1
1
1
1
1
1
1
1
1
1
1
1
1
1
1
1
1
1
1
1
1
1
1
1
1
1
1
1
1
1
1
1
1
1
1
1
1
1
1
1
1
1
1
1
1
1
1
1
1
1
1
1
1
1
1
1
1
1
1
1
1
1
1
1
1
1
1
1
1
1
1
1
1
1
1
1
1
1
1
1
1
1
1
1
1
1
1
1
1
1
1
1
1
1
1
1
1
1
1
1
1
1
1
1
1
1
1
1
1
1
1
1
1
1
1
1
1
1
1
1
1
1
1
1
1
3
3
3
3
1
1
1
1
1
1
1
1
1
1
1
1
1
1
1
1
1
1
1
1
1
1
1
1
1
1
1
1
1
1
1
1
1
1
1
1
1
1
1
1
1
1
1
1
1
1
1
1
1
1
1
1
1
1
1
1
1
1
1
1
1
1
1
1
1
1
1
1
1
1
1
1
1
1
1
1
1
1
1
1
1
1
1
1
1
1
1
1
1
1
1
1
1
1
1
1
1
1
1
1
1
1
1
1
1
1
1
1
1
1
1
1
1
1
1
1
1
1
1
1
1
1
1
1
1
1
1
1
1
1
1
1
1
1
1
1
1
1
1
1
1
1
1
1
1
1
1
1
1
1
1
1
1
1
1
1
1
1
1
1
1
1
1
1
1
1
1
1
1
1
1
1
1
1
1
1
1
1
1
1
1
1
1
1
1
1
1
1
1
1
1
1
1
1
1
1
1
1
1
1
1
1
1
1
1
1
1
1
1
1
1
1
1
1
1
1
1
1
1
1
1
1
1
1
1
1
1
1
1
1
1
1
1
1
1
1
1
1
1
1
1
1
1
1
1
1
1
1
1
1
1
1
1
1
1
1
1
1
1
1
1
1
1
1
3
3
3
3
1
1
1
1
1
1
1
1
1
1
1
1
1
1
1
1
1
1
1
1
1
1
1
1
1
1
1
1
1
1
1
1
1
1
1
1
1
1
1
1
1
1
1
1
1
1
1
1
1
1
1
1
1
1
1
1
1
1
1
1
1
1
1
1
1
1
1
1
1
1
1
1
1
1
1
1
1
1
1
1
1
1
1
1
1
1
1
1
1
1
1
1
1
1
1
1
1
1
1
1
1
1
1
1
1
1
1
1
1
1
1
1
1
1
1
1
1
1
1
1
1
1
1
1
1
1
1
1
1
1
1
1
1
1
1
1
1
1
1
1
1
1
1
1
1
1
1
1
1
1
1
1
1
1
1
1
1
1
1
1
1
1
1
1
1
1
1
1
1
1
1
1
1
1
1
1
1
1
1
1
1
1
1
1
1
1
1
1
1
1
1
1
1
1
1
1
1
1
1
1
1
1
1
1
1
1
1
1
1
1
1
1
1
1
1
1
1
1
1
1
1
1
1
1
1
1
1
1
1
1
1
1
1
1
1
1
1
1
1
1
1
1
1
1
1
1
1
1
1
1
1
1
1
1
1
1
1
1
1
1
1
1
1
1
3
3
3
3
1
1
1
1
1
1
1
1
1
1
1
1
1
1
1
1
1
1
1
1
1
1
1
1
1
1
1
1
1
1
1
1
1
1
1
1
1
1
1
1
1
1
1
1
1
1
1
1
1
1
1
1
1
1
1
1
1
1
1
1
1
1
1
1
1
1
1
1
1
1
1
1
1
1
1
1
1
1
1
1
1
1
1
1
1
1
1
1
1
1
1
1
1
1
1
1
1
1
1
1
1
1
1
1
1
1
1
1
1
1
1
1
1
1
1
1
1
1
1
1
1
1
1
1
1
1
1
1
1
1
1
1
1
1
1
1
1
1
1
1
1
1
1
1
1
1
1
1
1
1
1
1
1
1
1
1
1
1
1
1
1
1
1
1
1
1
1
1
1
1
1
1
1
1
1
1
1
1
1
1
1
1
1
1
1
1
1
1
1
1
1
1
1
1
1
1
1
1
1
1
1
1
1
1
1
1
1
1
1
1
1
1
1
1
1
1
1
1
1
1
1
1
1
1
1
1
1
1
1
1
1
1
1
1
1
1
1
1
1
1
1
1
1
1
1
1
1
1
1
1
1
1
1
1
1
1
1
1
1
1
1
1
1
1
3
3
3
3
1
1
1
1
1
1
1
1
1
1
1
1
1
1
1
1
1
1
1
1
1
1
1
1
1
1
1
1
1
1
1
1
1
1
1
1
1
1
1
1
1
1
1
1
1
1
1
1
1
1
1
1
1
1
1
1
1
1
1
1
1
1
1
1
1
1
1
1
1
1
1
1
1
1
1
1
1
1
1
1
1
1
1
1
1
1
1
1
1
1
1
1
1
1
1
1
1
1
1
1
1
1
1
1
1
1
1
1
1
1
1
1
1
1
1
1
1
1
1
1
1
1
1
1
1
1
1
1
1
1
1
1
1
1
1
1
1
1
1
1
1
1
1
1
1
1
1
1
1
1
1
1
1
1
1
1
1
1
1
1
1
1
1
1
1
1
1
1
1
1
1
1
1
1
1
1
1
1
1
1
1
1
1
1
1
1
1
1
1
1
1
1
1
1
1
1
1
1
1
1
1
1
1
1
1
1
1
1
1
1
1
1
1
1
1
1
1
1
1
1
1
1
1
1
1
1
1
1
1
1
1
1
1
1
1
1
1
1
1
1
1
1
1
1
1
1
1
1
1
1
1
1
1
1
1
1
1
1
1
1
1
1
1
1
3
3
3
3
1
1
1
1
1
1
1
1
1
1
1
1
1
1
1
1
1
1
1
1
1
1
1
1
1
1
1
1
1
1
1
1
1
1
1
1
1
1
1
1
1
1
1
1
1
1
1
1
1
1
1
1
1
1
1
1
1
1
1
1
1
1
1
1
1
1
1
1
1
1
1
1
1
1
1
1
1
1
1
1
1
1
1
1
1
1
1
1
1
1
1
1
1
1
1
1
1
1
1
1
1
1
1
1
1
1
1
1
1
1
1
1
1
1
1
1
1
1
1
1
1
1
1
1
1
1
1
1
1
1
1
1
1
1
1
1
1
1
1
1
1
1
1
1
1
1
1
1
1
1
1
1
1
1
1
1
1
1
1
1
1
1
1
1
1
1
1
1
1
1
1
1
1
1
1
1
1
1
1
1
1
1
1
1
1
1
1
1
1
1
1
1
1
1
1
1
1
1
1
1
1
1
1
1
1
1
1
1
1
1
1
1
1
1
1
1
1
1
1
1
1
1
1
1
1
1
1
1
1
1
1
1
1
1
1
1
1
1
1
1
1
1
1
1
1
1
1
1
1
1
1
1
1
1
1
1
1
1
1
1
1
1
1
1
3
3
3
3
1
1
1
1
1
1
1
1
1
1
1
1
1
1
1
1
1
1
1
1
1
1
1
1
1
1
1
1
1
1
1
1
1
1
1
1
1
1
1
1
1
1
1
1
1
1
1
1
1
1
1
1
1
1
1
1
1
1
1
1
1
1
1
1
1
1
1
1
1
1
1
1
1
1
1
1
1
1
1
1
1
1
1
1
1
1
1
1
1
1
1
1
1
1
1
1
1
1
1
1
1
1
1
1
1
1
1
1
1
1
1
1
1
1
1
1
1
1
1
1
1
1
1
1
1
1
1
1
1
1
1
1
1
1
1
1
1
1
1
1
1
1
1
1
1
1
1
1
1
1
1
1
1
1
1
1
1
1
1
1
1
1
1
1
1
1
1
1
1
1
1
1
1
1
1
1
1
1
1
1
1
1
1
1
1
1
1
1
1
1
1
1
1
1
1
1
1
1
1
1
1
1
1
1
1
1
1
1
1
1
1
1
1
1
1
1
1
1
1
1
1
1
1
1
1
1
1
1
1
1
1
1
1
1
1
1
1
1
1
1
1
1
1
1
1
1
1
1
1
1
1
1
1
1
1
1
1
1
1
1
1
1
1
1
3
3
3
3
1
1
1
1
1
1
1
1
1
1
1
1
1
1
1
1
1
1
1
1
1
1
1
1
1
1
1
1
1
1
1
1
1
1
1
1
1
1
1
1
1
1
1
1
1
1
1
1
1
1
1
1
1
1
1
1
1
1
1
1
1
1
1
1
1
1
1
1
1
1
1
1
1
1
1
1
1
1
1
1
1
1
1
1
1
1
1
1
1
1
1
1
1
1
1
1
1
1
1
1
1
1
1
1
1
1
1
1
1
1
1
1
1
1
1
1
1
1
1
1
1
1
1
1
1
1
1
1
1
1
1
1
1
1
1
1
1
1
1
1
1
1
1
1
1
1
1
1
1
1
1
1
1
1
1
1
1
1
1
1
1
1
1
1
1
1
1
1
1
1
1
1
1
1
1
1
1
1
1
1
1
1
1
1
1
1
1
1
1
1
1
1
1
1
1
1
1
1
1
1
1
1
1
1
1
1
1
1
1
1
1
1
1
1
1
1
1
1
1
1
1
1
1
1
1
1
1
1
1
1
1
1
1
1
1
1
1
1
1
1
1
1
1
1
1
1
1
1
1
1
1
1
1
1
1
1
1
1
1
1
1
1
1
1
3
3
3
3
1
1
1
1
1
1
1
1
1
1
1
1
1
1
1
1
1
1
1
1
1
1
1
1
1
1
1
1
1
1
1
1
1
1
1
1
1
1
1
1
1
1
1
1
1
1
1
1
1
1
1
1
1
1
1
1
1
1
1
1
1
1
1
1
1
1
1
1
1
1
1
1
1
1
1
1
1
1
1
1
1
1
1
1
1
1
1
1
1
1
1
1
1
1
1
1
1
1
1
1
1
1
1
1
1
1
1
1
1
1
1
1
1
1
1
1
1
1
1
1
1
1
1
1
1
1
1
1
1
1
1
1
1
1
1
1
1
1
1
1
1
1
1
1
1
1
1
1
1
1
1
1
1
1
1
1
1
1
1
1
1
1
1
1
1
1
1
1
1
1
1
1
1
1
1
1
1
1
1
1
1
1
1
1
1
1
1
1
1
1
1
1
1
1
1
1
1
1
1
1
1
1
1
1
1
1
1
1
1
1
1
1
1
1
1
1
1
1
1
1
1
1
1
1
1
1
1
1
1
1
1
1
1
1
1
1
1
1
1
1
1
1
1
1
1
1
1
1
1
1
1
1
1
1
1
1
1
1
1
1
1
1
1
1
3
3
3
3
1
1
1
1
1
1
1
1
1
1
1
1
1
1
1
1
1
1
1
1
1
1
1
1
1
1
1
1
1
1
1
1
1
1
1
1
1
1
1
1
1
1
1
1
1
1
1
1
1
1
1
1
1
1
1
1
1
1
1
1
1
1
1
1
1
1
1
1
1
1
1
1
1
1
1
1
1
1
1
1
1
1
1
1
1
1
1
1
1
1
1
1
1
1
1
1
1
1
1
1
1
1
1
1
1
1
1
1
1
1
1
1
1
1
1
1
1
1
1
1
1
1
1
1
1
1
1
1
1
1
1
1
1
1
1
1
1
1
1
1
1
1
1
1
1
1
1
1
1
1
1
1
1
1
1
1
1
1
1
1
1
1
1
1
1
1
1
1
1
1
1
1
1
1
1
1
1
1
1
1
1
1
1
1
1
1
1
1
1
1
1
1
1
1
1
1
1
1
1
1
1
1
1
1
1
1
1
1
1
1
1
1
1
1
1
1
1
1
1
1
1
1
1
1
1
1
1
1
1
1
1
1
1
1
1
1
1
1
1
1
1
1
1
1
1
1
1
1
1
1
1
1
1
1
1
1
1
1
1
1
1
1
1
1
3
3
3
3
1
1
1
1
1
1
1
1
1
1
1
1
1
1
1
1
1
1
1
1
1
1
1
1
1
1
1
1
1
1
1
1
1
1
1
1
1
1
1
1
1
1
1
1
1
1
1
1
1
1
1
1
1
1
1
1
1
1
1
1
1
1
1
1
1
1
1
1
1
1
1
1
1
1
1
1
1
1
1
1
1
1
1
1
1
1
1
1
1
1
1
1
1
1
1
1
1
1
1
1
1
1
1
1
1
1
1
1
1
1
1
1
1
1
1
1
1
1
1
1
1
1
1
1
1
1
1
1
1
1
1
1
1
1
1
1
1
1
1
1
1
1
1
1
1
1
1
1
1
1
1
1
1
1
1
1
1
1
1
1
1
1
1
1
1
1
1
1
1
1
1
1
1
1
1
1
1
1
1
1
1
1
1
1
1
1
1
1
1
1
1
1
1
1
1
1
1
1
1
1
1
1
1
1
1
1
1
1
1
1
1
1
1
1
1
1
1
1
1
1
1
1
1
1
1
1
1
1
1
1
1
1
1
1
1
1
1
1
1
1
1
1
1
1
1
1
1
1
1
1
1
1
1
1
1
1
1
1
1
1
1
1
1
1
3
3
3
3
1
1
1
1
1
1
1
1
1
1
1
1
1
1
1
1
1
1
1
1
1
1
1
1
1
1
1
1
1
1
1
1
1
1
1
1
1
1
1
1
1
1
1
1
1
1
1
1
1
1
1
1
1
1
1
1
1
1
1
1
1
1
1
1
1
1
1
1
1
1
1
1
1
1
1
1
1
1
1
1
1
1
1
1
1
1
1
1
1
1
1
1
1
1
1
1
1
1
1
1
1
1
1
1
1
1
1
1
1
1
1
1
1
1
1
1
1
1
1
1
1
1
1
1
1
1
1
1
1
1
1
1
1
1
1
1
1
1
1
1
1
1
1
1
1
1
1
1
1
1
1
1
1
1
1
1
1
1
1
1
1
1
1
1
1
1
1
1
1
1
1
1
1
1
1
1
1
1
1
1
1
1
1
1
1
1
1
1
1
1
1
1
1
1
1
1
1
1
1
1
1
1
1
1
1
1
1
1
1
1
1
1
1
1
1
1
1
1
1
1
1
1
1
1
1
1
1
1
1
1
1
1
1
1
1
1
1
1
1
1
1
1
1
1
1
1
1
1
1
1
1
1
1
1
1
1
1
1
1
1
1
1
1
1
3
3
3
3
1
1
1
1
1
1
1
1
1
1
1
1
1
1
1
1
1
1
1
1
1
1
1
1
1
1
1
1
1
1
1
1
1
1
1
1
1
1
1
1
1
1
1
1
1
1
1
1
1
1
1
1
1
1
1
1
1
1
1
1
1
1
1
1
1
1
1
1
1
1
1
1
1
1
1
1
1
1
1
1
1
1
1
1
1
1
1
1
1
1
1
1
1
1
1
1
1
1
1
1
1
1
1
1
1
1
1
1
1
1
1
1
1
1
1
1
1
1
1
1
1
1
1
1
1
1
1
1
1
1
1
1
1
1
1
1
1
1
1
1
1
1
1
1
1
1
1
1
1
1
1
1
1
1
1
1
1
1
1
1
1
1
1
1
1
1
1
1
1
1
1
1
1
1
1
1
1
1
1
1
1
1
1
1
1
1
1
1
1
1
1
1
1
1
1
1
1
1
1
1
1
1
1
1
1
1
1
1
1
1
1
1
1
1
1
1
1
1
1
1
1
1
1
1
1
1
1
1
1
1
1
1
1
1
1
1
1
1
1
1
1
1
1
1
1
1
1
1
1
1
1
1
1
1
1
1
1
1
1
1
1
1
1
1
3
3
3
3
1
1
1
1
1
1
1
1
1
1
1
1
1
1
1
1
1
1
1
1
1
1
1
1
1
1
1
1
1
1
1
1
1
1
1
1
1
1
1
1
1
1
1
1
1
1
1
1
1
1
1
1
1
1
1
1
1
1
1
1
1
1
1
1
1
1
1
1
1
1
1
1
1
1
1
1
1
1
1
1
1
1
1
1
1
1
1
1
1
1
1
1
1
1
1
1
1
1
1
1
1
1
1
1
1
1
1
1
1
1
1
1
1
1
1
1
1
1
1
1
1
1
1
1
1
1
1
1
1
1
1
1
1
1
1
1
1
1
1
1
1
1
1
1
1
1
1
1
1
1
1
1
1
1
1
1
1
1
1
1
1
1
1
1
1
1
1
1
1
1
1
1
1
1
1
1
1
1
1
1
1
1
1
1
1
1
1
1
1
1
1
1
1
1
1
1
1
1
1
1
1
1
1
1
1
1
1
1
1
1
1
1
1
1
1
1
1
1
1
1
1
1
1
1
1
1
1
1
1
1
1
1
1
1
1
1
1
1
1
1
1
1
1
1
1
1
1
1
1
1
1
1
1
1
1
1
1
1
1
1
1
1
1
1
3
3
3
3
1
1
1
1
1
1
1
1
1
1
1
1
1
1
1
1
1
1
1
1
1
1
1
1
1
1
1
1
1
1
1
1
1
1
1
1
1
1
1
1
1
1
1
1
1
1
1
1
1
1
1
1
1
1
1
1
1
1
1
1
1
1
1
1
1
1
1
1
1
1
1
1
1
1
1
1
1
1
1
1
1
1
1
1
1
1
1
1
1
1
1
1
1
1
1
1
1
1
1
1
1
1
1
1
1
1
1
1
1
1
1
1
1
1
1
1
1
1
1
1
1
1
1
1
1
1
1
1
1
1
1
1
1
1
1
1
1
1
1
1
1
1
1
1
1
1
1
1
1
1
1
1
1
1
1
1
1
1
1
1
1
1
1
1
1
1
1
1
1
1
1
1
1
1
1
1
1
1
1
1
1
1
1
1
1
1
1
1
1
1
1
1
1
1
1
1
1
1
1
1
1
1
1
1
1
1
1
1
1
1
1
1
1
1
1
1
1
1
1
1
1
1
1
1
1
1
1
1
1
1
1
1
1
1
1
1
1
1
1
1
1
1
1
1
1
1
1
1
1
1
1
1
1
1
1
1
1
1
1
1
1
1
1
1
3
3
3
3
1
1
1
1
1
1
1
1
1
1
1
1
1
1
1
1
1
1
1
1
1
1
1
1
1
1
1
1
1
1
1
1
1
1
1
1
1
1
1
1
1
1
1
1
1
1
1
1
1
1
1
1
1
1
1
1
1
1
1
1
1
1
1
1
1
1
1
1
1
1
1
1
1
1
1
1
1
1
1
1
1
1
1
1
1
1
1
1
1
1
1
1
1
1
1
1
1
1
1
1
1
1
1
1
1
1
1
1
1
1
1
1
1
1
1
1
1
1
1
1
1
1
1
1
1
1
1
1
1
1
1
1
1
1
1
1
1
1
1
1
1
1
1
1
1
1
1
1
1
1
1
1
1
1
1
1
1
1
1
1
1
1
1
1
1
1
1
1
1
1
1
1
1
1
1
1
1
1
1
1
1
1
1
1
1
1
1
1
1
1
1
1
1
1
1
1
1
1
1
1
1
1
1
1
1
1
1
1
1
1
1
1
1
1
1
1
1
1
1
1
1
1
1
1
1
1
1
1
1
1
1
1
1
1
1
1
1
1
1
1
1
1
1
1
1
1
1
1
1
1
1
1
1
1
1
1
1
1
1
1
1
1
1
1
3
3
3
3
1
1
1
1
1
1
1
1
1
1
1
1
1
1
1
1
1
1
1
1
1
1
1
1
1
1
1
1
1
1
1
1
1
1
1
1
1
1
1
1
1
1
1
1
1
1
1
1
1
1
1
1
1
1
1
1
1
1
1
1
1
1
1
1
1
1
1
1
1
1
1
1
1
1
1
1
1
1
1
1
1
1
1
1
1
1
1
1
1
1
1
1
1
1
1
1
1
1
1
1
1
1
1
1
1
1
1
1
1
1
1
1
1
1
1
1
1
1
1
1
1
1
1
1
1
1
1
1
1
1
1
1
1
1
1
1
1
1
1
1
1
1
1
1
1
1
1
1
1
1
1
1
1
1
1
1
1
1
1
1
1
1
1
1
1
1
1
1
1
1
1
1
1
1
1
1
1
1
1
1
1
1
1
1
1
1
1
1
1
1
1
1
1
1
1
1
1
1
1
1
1
1
1
1
1
1
1
1
1
1
1
1
1
1
1
1
1
1
1
1
1
1
1
1
1
1
1
1
1
1
1
1
1
1
1
1
1
1
1
1
1
1
1
1
1
1
1
1
1
1
1
1
1
1
1
1
1
1
1
1
1
1
1
1
3
3
3
3
1
1
1
1
1
1
1
1
1
1
1
1
1
1
1
1
1
1
1
1
1
1
1
1
1
1
1
1
1
1
1
1
1
1
1
1
1
1
1
1
1
1
1
1
1
1
1
1
1
1
1
1
1
1
1
1
1
1
1
1
1
1
1
1
1
1
1
1
1
1
1
1
1
1
1
1
1
1
1
1
1
1
1
1
1
1
1
1
1
1
1
1
1
1
1
1
1
1
1
1
1
1
1
1
1
1
1
1
1
1
1
1
1
1
1
1
1
1
1
1
1
1
1
1
1
1
1
1
1
1
1
1
1
1
1
1
1
1
1
1
1
1
1
1
1
1
1
1
1
1
1
1
1
1
1
1
1
1
1
1
1
1
1
1
1
1
1
1
1
1
1
1
1
1
1
1
1
1
1
1
1
1
1
1
1
1
1
1
1
1
1
1
1
1
1
1
1
1
1
1
1
1
1
1
1
1
1
1
1
1
1
1
1
1
1
1
1
1
1
1
1
1
1
1
1
1
1
1
1
1
1
1
1
1
1
1
1
1
1
1
1
1
1
1
1
1
1
1
1
1
1
1
1
1
1
1
1
1
1
1
1
1
1
1
3
3
3
3
1
1
1
1
1
1
1
1
1
1
1
1
1
1
1
1
1
1
1
1
1
1
1
1
1
1
1
1
1
1
1
1
1
1
1
1
1
1
1
1
1
1
1
1
1
1
1
1
1
1
1
1
1
1
1
1
1
1
1
1
1
1
1
1
1
1
1
1
1
1
1
1
1
1
1
1
1
1
1
1
1
1
1
1
1
1
1
1
1
1
1
1
1
1
1
1
1
1
1
1
1
1
1
1
1
1
1
1
1
1
1
1
1
1
1
1
1
1
1
1
1
1
1
1
1
1
1
1
1
1
1
1
1
1
1
1
1
1
1
1
1
1
1
1
1
1
1
1
1
1
1
1
1
1
1
1
1
1
1
1
1
1
1
1
1
1
1
1
1
1
1
1
1
1
1
1
1
1
1
1
1
1
1
1
1
1
1
1
1
1
1
1
1
1
1
1
1
1
1
1
1
1
1
1
1
1
1
1
1
1
1
1
1
1
1
1
1
1
1
1
1
1
1
1
1
1
1
1
1
1
1
1
1
1
1
1
1
1
1
1
1
1
1
1
1
1
1
1
1
1
1
1
1
1
1
1
1
1
1
1
1
1
1
1
3
3
3
3
1
1
1
1
1
1
1
1
1
1
1
1
1
1
1
1
1
1
1
1
1
1
1
1
1
1
1
1
1
1
1
1
1
1
1
1
1
1
1
1
1
1
1
1
1
1
1
1
1
1
1
1
1
1
1
1
1
1
1
1
1
1
1
1
1
1
1
1
1
1
1
1
1
1
1
1
1
1
1
1
1
1
1
1
1
1
1
1
1
1
1
1
1
1
1
1
1
1
1
1
1
1
1
1
1
1
1
1
1
1
1
1
1
1
1
1
1
1
1
1
1
1
1
1
1
1
1
1
1
1
1
1
1
1
1
1
1
1
1
1
1
1
1
1
1
1
1
1
1
1
1
1
1
1
1
1
1
1
1
1
1
1
1
1
1
1
1
1
1
1
1
1
1
1
1
1
1
1
1
1
1
1
1
1
1
1
1
1
1
1
1
1
1
1
1
1
1
1
1
1
1
1
1
1
1
1
1
1
1
1
1
1
1
1
1
1
1
1
1
1
1
1
1
1
1
1
1
1
1
1
1
1
1
1
1
1
1
1
1
1
1
1
1
1
1
1
1
1
1
1
1
1
1
1
1
1
1
1
1
1
1
1
1
1
3
3
3
3
1
1
1
1
1
1
1
1
1
1
1
1
1
1
1
1
1
1
1
1
1
1
1
1
1
1
1
1
1
1
1
1
1
1
1
1
1
1
1
1
1
1
1
1
1
1
1
1
1
1
1
1
1
1
1
1
1
1
1
1
1
1
1
1
1
1
1
1
1
1
1
1
1
1
1
1
1
1
1
1
1
1
1
1
1
1
1
1
1
1
1
1
1
1
1
1
1
1
1
1
1
1
1
1
1
1
1
1
1
1
1
1
1
1
1
1
1
1
1
1
1
1
1
1
1
1
1
1
1
1
1
1
1
1
1
1
1
1
1
1
1
1
1
1
1
1
1
1
1
1
1
1
1
1
1
1
1
1
1
1
1
1
1
1
1
1
1
1
1
1
1
1
1
1
1
1
1
1
1
1
1
1
1
1
1
1
1
1
1
1
1
1
1
1
1
1
1
1
1
1
1
1
1
1
1
1
1
1
1
1
1
1
1
1
1
1
1
1
1
1
1
1
1
1
1
1
1
1
1
1
1
1
1
1
1
1
1
1
1
1
1
1
1
1
1
1
1
1
1
1
1
1
1
1
1
1
1
1
1
1
1
1
1
1
3
3
3
3
1
1
1
1
1
1
1
1
1
1
1
1
1
1
1
1
1
1
1
1
1
1
1
1
1
1
1
1
1
1
1
1
1
1
1
1
1
1
1
1
1
1
1
1
1
1
1
1
1
1
1
1
1
1
1
1
1
1
1
1
1
1
1
1
1
1
1
1
1
1
1
1
1
1
1
1
1
1
1
1
1
1
1
1
1
1
1
1
1
1
1
1
1
1
1
1
1
1
1
1
1
1
1
1
1
1
1
1
1
1
1
1
1
1
1
1
1
1
1
1
1
1
1
1
1
1
1
1
1
1
1
1
1
1
1
1
1
1
1
1
1
1
1
1
1
1
1
1
1
1
1
1
1
1
1
1
1
1
1
1
1
1
1
1
1
1
1
1
1
1
1
1
1
1
1
1
1
1
1
1
1
1
1
1
1
1
1
1
1
1
1
1
1
1
1
1
1
1
1
1
1
1
1
1
1
1
1
1
1
1
1
1
1
1
1
1
1
1
1
1
1
1
1
1
1
1
1
1
1
1
1
1
1
1
1
1
1
1
1
1
1
1
1
1
1
1
1
1
1
1
1
1
1
1
1
1
1
1
1
1
1
1
1
1
3
3
3
3
1
1
1
1
1
1
1
1
1
1
1
1
1
1
1
1
1
1
1
1
1
1
1
1
1
1
1
1
1
1
1
1
1
1
1
1
1
1
1
1
1
1
1
1
1
1
1
1
1
1
1
1
1
1
1
1
1
1
1
1
1
1
1
1
1
1
1
1
1
1
1
1
1
1
1
1
1
1
1
1
1
1
1
1
1
1
1
1
1
1
1
1
1
1
1
1
1
1
1
1
1
1
1
1
1
1
1
1
1
1
1
1
1
1
1
1
1
1
1
1
1
1
1
1
1
1
1
1
1
1
1
1
1
1
1
1
1
1
1
1
1
1
1
1
1
1
1
1
1
1
1
1
1
1
1
1
1
1
1
1
1
1
1
1
1
1
1
1
1
1
1
1
1
1
1
1
1
1
1
1
1
1
1
1
1
1
1
1
1
1
1
1
1
1
1
1
1
1
1
1
1
1
1
1
1
1
1
1
1
1
1
1
1
1
1
1
1
1
1
1
1
1
1
1
1
1
1
1
1
1
1
1
1
1
1
1
1
1
1
1
1
1
1
1
1
1
1
1
1
1
1
1
1
1
1
1
1
1
1
1
1
1
1
1
3
3
3
3
1
1
1
1
1
1
1
1
1
1
1
1
1
1
1
1
1
1
1
1
1
1
1
1
1
1
1
1
1
1
1
1
1
1
1
1
1
1
1
1
1
1
1
1
1
1
1
1
1
1
1
1
1
1
1
1
1
1
1
1
1
1
1
1
1
1
1
1
1
1
1
1
1
1
1
1
1
1
1
1
1
1
1
1
1
1
1
1
1
1
1
1
1
1
1
1
1
1
1
1
1
1
1
1
1
1
1
1
1
1
1
1
1
1
1
1
1
1
1
1
1
1
1
1
1
1
1
1
1
1
1
1
1
1
1
1
1
1
1
1
1
1
1
1
1
1
1
1
1
1
1
1
1
1
1
1
1
1
1
1
1
1
1
1
1
1
1
1
1
1
1
1
1
1
1
1
1
1
1
1
1
1
1
1
1
1
1
1
1
1
1
1
1
1
1
1
1
1
1
1
1
1
1
1
1
1
1
1
1
1
1
1
1
1
1
1
1
1
1
1
1
1
1
1
1
1
1
1
1
1
1
1
1
1
1
1
1
1
1
1
1
1
1
1
1
1
1
1
1
1
1
1
1
1
1
1
1
1
1
1
1
1
1
1
3
3
3
3
1
1
1
1
1
1
1
1
1
1
1
1
1
1
1
1
1
1
1
1
1
1
1
1
1
1
1
1
1
1
1
1
1
1
1
1
1
1
1
1
1
1
1
1
1
1
1
1
1
1
1
1
1
1
1
1
1
1
1
1
1
1
1
1
1
1
1
1
1
1
1
1
1
1
1
1
1
1
1
1
1
1
1
1
1
1
1
1
1
1
1
1
1
1
1
1
1
1
1
1
1
1
1
1
1
1
1
1
1
1
1
1
1
1
1
1
1
1
1
1
1
1
1
1
1
1
1
1
1
1
1
1
1
1
1
1
1
1
1
1
1
1
1
1
1
1
1
1
1
1
1
1
1
1
1
1
1
1
1
1
1
1
1
1
1
1
1
1
1
1
1
1
1
1
1
1
1
1
1
1
1
1
1
1
1
1
1
1
1
1
1
1
1
1
1
1
1
1
1
1
1
1
1
1
1
1
1
1
1
1
1
1
1
1
1
1
1
1
1
1
1
1
1
1
1
1
1
1
1
1
1
1
1
1
1
1
1
1
1
1
1
1
1
1
1
1
1
1
1
1
1
1
1
1
1
1
1
1
1
1
1
1
1
1
3
3
3
3
1
1
1
1
1
1
1
1
1
1
1
1
1
1
1
1
1
1
1
1
1
1
1
1
1
1
1
1
1
1
1
1
1
1
1
1
1
1
1
1
1
1
1
1
1
1
1
1
1
1
1
1
1
1
1
1
1
1
1
1
1
1
1
1
1
1
1
1
1
1
1
1
1
1
1
1
1
1
1
1
1
1
1
1
1
1
1
1
1
1
1
1
1
1
1
1
1
1
1
1
1
1
1
1
1
1
1
1
1
1
1
1
1
1
1
1
1
1
1
1
1
1
1
1
1
1
1
1
1
1
1
1
1
1
1
1
1
1
1
1
1
1
1
1
1
1
1
1
1
1
1
1
1
1
1
1
1
1
1
1
1
1
1
1
1
1
1
1
1
1
1
1
1
1
1
1
1
1
1
1
1
1
1
1
1
1
1
1
1
1
1
1
1
1
1
1
1
1
1
1
1
1
1
1
1
1
1
1
1
1
1
1
1
1
1
1
1
1
1
1
1
1
1
1
1
1
1
1
1
1
1
1
1
1
1
1
1
1
1
1
1
1
1
1
1
1
1
1
1
1
1
1
1
1
1
1
1
1
1
1
1
1
1
1
3
3
3
3
1
1
1
1
1
1
1
1
1
1
1
1
1
1
1
1
1
1
1
1
1
1
1
1
1
1
1
1
1
1
1
1
1
1
1
1
1
1
1
1
1
1
1
1
1
1
1
1
1
1
1
1
1
1
1
1
1
1
1
1
1
1
1
1
1
1
1
1
1
1
1
1
1
1
1
1
1
1
1
1
1
1
1
1
1
1
1
1
1
1
1
1
1
1
1
1
1
1
1
1
1
1
1
1
1
1
1
1
1
1
1
1
1
1
1
1
1
1
1
1
1
1
1
1
1
1
1
1
1
1
1
1
1
1
1
1
1
1
1
1
1
1
1
1
1
1
1
1
1
1
1
1
1
1
1
1
1
1
1
1
1
1
1
1
1
1
1
1
1
1
1
1
1
1
1
1
1
1
1
1
1
1
1
1
1
1
1
1
1
1
1
1
1
1
1
1
1
1
1
1
1
1
1
1
1
1
1
1
1
1
1
1
1
1
1
1
1
1
1
1
1
1
1
1
1
1
1
1
1
1
1
1
1
1
1
1
1
1
1
1
1
1
1
1
1
1
1
1
1
1
1
1
1
1
1
1
1
1
1
1
1
1
1
1
3
3
3
3
1
1
1
1
1
1
1
1
1
1
1
1
1
1
1
1
1
1
1
1
1
1
1
1
1
1
1
1
1
1
1
1
1
1
1
1
1
1
1
1
1
1
1
1
1
1
1
1
1
1
1
1
1
1
1
1
1
1
1
1
1
1
1
1
1
1
1
1
1
1
1
1
1
1
1
1
1
1
1
1
1
1
1
1
1
1
1
1
1
1
1
1
1
1
1
1
1
1
1
1
1
1
1
1
1
1
1
1
1
1
1
1
1
1
1
1
1
1
1
1
1
1
1
1
1
1
1
1
1
1
1
1
1
1
1
1
1
1
1
1
1
1
1
1
1
1
1
1
1
1
1
1
1
1
1
1
1
1
1
1
1
1
1
1
1
1
1
1
1
1
1
1
1
1
1
1
1
1
1
1
1
1
1
1
1
1
1
1
1
1
1
1
1
1
1
1
1
1
1
1
1
1
1
1
1
1
1
1
1
1
1
1
1
1
1
1
1
1
1
1
1
1
1
1
1
1
1
1
1
1
1
1
1
1
1
1
1
1
1
1
1
1
1
1
1
1
1
1
1
1
1
1
1
1
1
1
1
1
1
1
1
1
1
1
3
3
3
3
1
1
1
1
1
1
1
1
1
1
1
1
1
1
1
1
1
1
1
1
1
1
1
1
1
1
1
1
1
1
1
1
1
1
1
1
1
1
1
1
1
1
1
1
1
1
1
1
1
1
1
1
1
1
1
1
1
1
1
1
1
1
1
1
1
1
1
1
1
1
1
1
1
1
1
1
1
1
1
1
1
1
1
1
1
1
1
1
1
1
1
1
1
1
1
1
1
1
1
1
1
1
1
1
1
1
1
1
1
1
1
1
1
1
1
1
1
1
1
1
1
1
1
1
1
1
1
1
1
1
1
1
1
1
1
1
1
1
1
1
1
1
1
1
1
1
1
1
1
1
1
1
1
1
1
1
1
1
1
1
1
1
1
1
1
1
1
1
1
1
1
1
1
1
1
1
1
1
1
1
1
1
1
1
1
1
1
1
1
1
1
1
1
1
1
1
1
1
1
1
1
1
1
1
1
1
1
1
1
1
1
1
1
1
1
1
1
1
1
1
1
1
1
1
1
1
1
1
1
1
1
1
1
1
1
1
1
1
1
1
1
1
1
1
1
1
1
1
1
1
1
1
1
1
1
1
1
1
1
1
1
1
1
1
3
3
3
3
1
1
1
1
1
1
1
1
1
1
1
1
1
1
1
1
1
1
1
1
1
1
1
1
1
1
1
1
1
1
1
1
1
1
1
1
1
1
1
1
1
1
1
1
1
1
1
1
1
1
1
1
1
1
1
1
1
1
1
1
1
1
1
1
1
1
1
1
1
1
1
1
1
1
1
1
1
1
1
1
1
1
1
1
1
1
1
1
1
1
1
1
1
1
1
1
1
1
1
1
1
1
1
1
1
1
1
1
1
1
1
1
1
1
1
1
1
1
1
1
1
1
1
1
1
1
1
1
1
1
1
1
1
1
1
1
1
1
1
1
1
1
1
1
1
1
1
1
1
1
1
1
1
1
1
1
1
1
1
1
1
1
1
1
1
1
1
1
1
1
1
1
1
1
1
1
1
1
1
1
1
1
1
1
1
1
1
1
1
1
1
1
1
1
1
1
1
1
1
1
1
1
1
1
1
1
1
1
1
1
1
1
1
1
1
1
1
1
1
1
1
1
1
1
1
1
1
1
1
1
1
1
1
1
1
1
1
1
1
1
1
1
1
1
1
1
1
1
1
1
1
1
1
1
1
1
1
1
1
1
1
1
1
1
3
3
3
3
1
1
1
1
1
1
1
1
1
1
1
1
1
1
1
1
1
1
1
1
1
1
1
1
1
1
1
1
1
1
1
1
1
1
1
1
1
1
1
1
1
1
1
1
1
1
1
1
1
1
1
1
1
1
1
1
1
1
1
1
1
1
1
1
1
1
1
1
1
1
1
1
1
1
1
1
1
1
1
1
1
1
1
1
1
1
1
1
1
1
1
1
1
1
1
1
1
1
1
1
1
1
1
1
1
1
1
1
1
1
1
1
1
1
1
1
1
1
1
1
1
1
1
1
1
1
1
1
1
1
1
1
1
1
1
1
1
1
1
1
1
1
1
1
1
1
1
1
1
1
1
1
1
1
1
1
1
1
1
1
1
1
1
1
1
1
1
1
1
1
1
1
1
1
1
1
1
1
1
1
1
1
1
1
1
1
1
1
1
1
1
1
1
1
1
1
1
1
1
1
1
1
1
1
1
1
1
1
1
1
1
1
1
1
1
1
1
1
1
1
1
1
1
1
1
1
1
1
1
1
1
1
1
1
1
1
1
1
1
1
1
1
1
1
1
1
1
1
1
1
1
1
1
1
1
1
1
1
1
1
1
1
1
1
3
3
3
3
1
1
1
1
1
1
1
1
1
1
1
1
1
1
1
1
1
1
1
1
1
1
1
1
1
1
1
1
1
1
1
1
1
1
1
1
1
1
1
1
1
1
1
1
1
1
1
1
1
1
1
1
1
1
1
1
1
1
1
1
1
1
1
1
1
1
1
1
1
1
1
1
1
1
1
1
1
1
1
1
1
1
1
1
1
1
1
1
1
1
1
1
1
1
1
1
1
1
1
1
1
1
1
1
1
1
1
1
1
1
1
1
1
1
1
1
1
1
1
1
1
1
1
1
1
1
1
1
1
1
1
1
1
1
1
1
1
1
1
1
1
1
1
1
1
1
1
1
1
1
1
1
1
1
1
1
1
1
1
1
1
1
1
1
1
1
1
1
1
1
1
1
1
1
1
1
1
1
1
1
1
1
1
1
1
1
1
1
1
1
1
1
1
1
1
1
1
1
1
1
1
1
1
1
1
1
1
1
1
1
1
1
1
1
1
1
1
1
1
1
1
1
1
1
1
1
1
1
1
1
1
1
1
1
1
1
1
1
1
1
1
1
1
1
1
1
1
1
1
1
1
1
1
1
1
1
1
1
1
1
1
1
1
1
3
3
3
3
1
1
1
1
1
1
1
1
1
1
1
1
1
1
1
1
1
1
1
1
1
1
1
1
1
1
1
1
1
1
1
1
1
1
1
1
1
1
1
1
1
1
1
1
1
1
1
1
1
1
1
1
1
1
1
1
1
1
1
1
1
1
1
1
1
1
1
1
1
1
1
1
1
1
1
1
1
1
1
1
1
1
1
1
1
1
1
1
1
1
1
1
1
1
1
1
1
1
1
1
1
1
1
1
1
1
1
1
1
1
1
1
1
1
1
1
1
1
1
1
1
1
1
1
1
1
1
1
1
1
1
1
1
1
1
1
1
1
1
1
1
1
1
1
1
1
1
1
1
1
1
1
1
1
1
1
1
1
1
1
1
1
1
1
1
1
1
1
1
1
1
1
1
1
1
1
1
1
1
1
1
1
1
1
1
1
1
1
1
1
1
1
1
1
1
1
1
1
1
1
1
1
1
1
1
1
1
1
1
1
1
1
1
1
1
1
1
1
1
1
1
1
1
1
1
1
1
1
1
1
1
1
1
1
1
1
1
1
1
1
1
1
1
1
1
1
1
1
1
1
1
1
1
1
1
1
1
1
1
1
1
1
1
1
3
3
3
3
1
1
1
1
1
1
1
1
1
1
1
1
1
1
1
1
1
1
1
1
1
1
1
1
1
1
1
1
1
1
1
1
1
1
1
1
1
1
1
1
1
1
1
1
1
1
1
1
1
1
1
1
1
1
1
1
1
1
1
1
1
1
1
1
1
1
1
1
1
1
1
1
1
1
1
1
1
1
1
1
1
1
1
1
1
1
1
1
1
1
1
1
1
1
1
1
1
1
1
1
1
1
1
1
1
1
1
1
1
1
1
1
1
1
1
1
1
1
1
1
1
1
1
1
1
1
1
1
1
1
1
1
1
1
1
1
1
1
1
1
1
1
1
1
1
1
1
1
1
1
1
1
1
1
1
1
1
1
1
1
1
1
1
1
1
1
1
1
1
1
1
1
1
1
1
1
1
1
1
1
1
1
1
1
1
1
1
1
1
1
1
1
1
1
1
1
1
1
1
1
1
1
1
1
1
1
1
1
1
1
1
1
1
1
1
1
1
1
1
1
1
1
1
1
1
1
1
1
1
1
1
1
1
1
1
1
1
1
1
1
1
1
1
1
1
1
1
1
1
1
1
1
1
1
1
1
1
1
1
1
1
1
1
1
3
3
3
3
1
1
1
1
1
1
1
1
1
1
1
1
1
1
1
1
1
1
1
1
1
1
1
1
1
1
1
1
1
1
1
1
1
1
1
1
1
1
1
1
1
1
1
1
1
1
1
1
1
1
1
1
1
1
1
1
1
1
1
1
1
1
1
1
1
1
1
1
1
1
1
1
1
1
1
1
1
1
1
1
1
1
1
1
1
1
1
1
1
1
1
1
1
1
1
1
1
1
1
1
1
1
1
1
1
1
1
1
1
1
1
1
1
1
1
1
1
1
1
1
1
1
1
1
1
1
1
1
1
1
1
1
1
1
1
1
1
1
1
1
1
1
1
1
1
1
1
1
1
1
1
1
1
1
1
1
1
1
1
1
1
1
1
1
1
1
1
1
1
1
1
1
1
1
1
1
1
1
1
1
1
1
1
1
1
1
1
1
1
1
1
1
1
1
1
1
1
1
1
1
1
1
1
1
1
1
1
1
1
1
1
1
1
1
1
1
1
1
1
1
1
1
1
1
1
1
1
1
1
1
1
1
1
1
1
1
1
1
1
1
1
1
1
1
1
1
1
1
1
1
1
1
1
1
1
1
1
1
1
1
1
1
1
1
3
3
3
3
1
1
1
1
1
1
1
1
1
1
1
1
1
1
1
1
1
1
1
1
1
1
1
1
1
1
1
1
1
1
1
1
1
1
1
1
1
1
1
1
1
1
1
1
1
1
1
1
1
1
1
1
1
1
1
1
1
1
1
1
1
1
1
1
1
1
1
1
1
1
1
1
1
1
1
1
1
1
1
1
1
1
1
1
1
1
1
1
1
1
1
1
1
1
1
1
1
1
1
1
1
1
1
1
1
1
1
1
1
1
1
1
1
1
1
1
1
1
1
1
1
1
1
1
1
1
1
1
1
1
1
1
1
1
1
1
1
1
1
1
1
1
1
1
1
1
1
1
1
1
1
1
1
1
1
1
1
1
1
1
1
1
1
1
1
1
1
1
1
1
1
1
1
1
1
1
1
1
1
1
1
1
1
1
1
1
1
1
1
1
1
1
1
1
1
1
1
1
1
1
1
1
1
1
1
1
1
1
1
1
1
1
1
1
1
1
1
1
1
1
1
1
1
1
1
1
1
1
1
1
1
1
1
1
1
1
1
1
1
1
1
1
1
1
1
1
1
1
1
1
1
1
1
1
1
1
1
1
1
1
1
1
1
1
3
3
3
3
1
1
1
1
1
1
1
1
1
1
1
1
1
1
1
1
1
1
1
1
1
1
1
1
1
1
1
1
1
1
1
1
1
1
1
1
1
1
1
1
1
1
1
1
1
1
1
1
1
1
1
1
1
1
1
1
1
1
1
1
1
1
1
1
1
1
1
1
1
1
1
1
1
1
1
1
1
1
1
1
1
1
1
1
1
1
1
1
1
1
1
1
1
1
1
1
1
1
1
1
1
1
1
1
1
1
1
1
1
1
1
1
1
1
1
1
1
1
1
1
1
1
1
1
1
1
1
1
1
1
1
1
1
1
1
1
1
1
1
1
1
1
1
1
1
1
1
1
1
1
1
1
1
1
1
1
1
1
1
1
1
1
1
1
1
1
1
1
1
1
1
1
1
1
1
1
1
1
1
1
1
1
1
1
1
1
1
1
1
1
1
1
1
1
1
1
1
1
1
1
1
1
1
1
1
1
1
1
1
1
1
1
1
1
1
1
1
1
1
1
1
1
1
1
1
1
1
1
1
1
1
1
1
1
1
1
1
1
1
1
1
1
1
1
1
1
1
1
1
1
1
1
1
1
1
1
1
1
1
1
1
1
1
1
3
3
3
3
1
1
1
1
1
1
1
1
1
1
1
1
1
1
1
1
1
1
1
1
1
1
1
1
1
1
1
1
1
1
1
1
1
1
1
1
1
1
1
1
1
1
1
1
1
1
1
1
1
1
1
1
1
1
1
1
1
1
1
1
1
1
1
1
1
1
1
1
1
1
1
1
1
1
1
1
1
1
1
1
1
1
1
1
1
1
1
1
1
1
1
1
1
1
1
1
1
1
1
1
1
1
1
1
1
1
1
1
1
1
1
1
1
1
1
1
1
1
1
1
1
1
1
1
1
1
1
1
1
1
1
1
1
1
1
1
1
1
1
1
1
1
1
1
1
1
1
1
1
1
1
1
1
1
1
1
1
1
1
1
1
1
1
1
1
1
1
1
1
1
1
1
1
1
1
1
1
1
1
1
1
1
1
1
1
1
1
1
1
1
1
1
1
1
1
1
1
1
1
1
1
1
1
1
1
1
1
1
1
1
1
1
1
1
1
1
1
1
1
1
1
1
1
1
1
1
1
1
1
1
1
1
1
1
1
1
1
1
1
1
1
1
1
1
1
1
1
1
1
1
1
1
1
1
1
1
1
1
1
1
1
1
1
1
3
3
3
3
1
1
1
1
1
1
1
1
1
1
1
1
1
1
1
1
1
1
1
1
1
1
1
1
1
1
1
1
1
1
1
1
1
1
1
1
1
1
1
1
1
1
1
1
1
1
1
1
1
1
1
1
1
1
1
1
1
1
1
1
1
1
1
1
1
1
1
1
1
1
1
1
1
1
1
1
1
1
1
1
1
1
1
1
1
1
1
1
1
1
1
1
1
1
1
1
1
1
1
1
1
1
1
1
1
1
1
1
1
1
1
1
1
1
1
1
1
1
1
1
1
1
1
1
1
1
1
1
1
1
1
1
1
1
1
1
1
1
1
1
1
1
1
1
1
1
1
1
1
1
1
1
1
1
1
1
1
1
1
1
1
1
1
1
1
1
1
1
1
1
1
1
1
1
1
1
1
1
1
1
1
1
1
1
1
1
1
1
1
1
1
1
1
1
1
1
1
1
1
1
1
1
1
1
1
1
1
1
1
1
1
1
1
1
1
1
1
1
1
1
1
1
1
1
1
1
1
1
1
1
1
1
1
1
1
1
1
1
1
1
1
1
1
1
1
1
1
1
1
1
1
1
1
1
1
1
1
1
1
1
1
1
1
1
3
3
3
3
1
1
1
1
1
1
1
1
1
1
1
1
1
1
1
1
1
1
1
1
1
1
1
1
1
1
1
1
1
1
1
1
1
1
1
1
1
1
1
1
1
1
1
1
1
1
1
1
1
1
1
1
1
1
1
1
1
1
1
1
1
1
1
1
1
1
1
1
1
1
1
1
1
1
1
1
1
1
1
1
1
1
1
1
1
1
1
1
1
1
1
1
1
1
1
1
1
1
1
1
1
1
1
1
1
1
1
1
1
1
1
1
1
1
1
1
1
1
1
1
1
1
1
1
1
1
1
1
1
1
1
1
1
1
1
1
1
1
1
1
1
1
1
1
1
1
1
1
1
1
1
1
1
1
1
1
1
1
1
1
1
1
1
1
1
1
1
1
1
1
1
1
1
1
1
1
1
1
1
1
1
1
1
1
1
1
1
1
1
1
1
1
1
1
1
1
1
1
1
1
1
1
1
1
1
1
1
1
1
1
1
1
1
1
1
1
1
1
1
1
1
1
1
1
1
1
1
1
1
1
1
1
1
1
1
1
1
1
1
1
1
1
1
1
1
1
1
1
1
1
1
1
1
1
1
1
1
1
1
1
1
1
1
1
3
3
3
3
1
1
1
1
1
1
1
1
1
1
1
1
1
1
1
1
1
1
1
1
1
1
1
1
1
1
1
1
1
1
1
1
1
1
1
1
1
1
1
1
1
1
1
1
1
1
1
1
1
1
1
1
1
1
1
1
1
1
1
1
1
1
1
1
1
1
1
1
1
1
1
1
1
1
1
1
1
1
1
1
1
1
1
1
1
1
1
1
1
1
1
1
1
1
1
1
1
1
1
1
1
1
1
1
1
1
1
1
1
1
1
1
1
1
1
1
1
1
1
1
1
1
1
1
1
1
1
1
1
1
1
1
1
1
1
1
1
1
1
1
1
1
1
1
1
1
1
1
1
1
1
1
1
1
1
1
1
1
1
1
1
1
1
1
1
1
1
1
1
1
1
1
1
1
1
1
1
1
1
1
1
1
1
1
1
1
1
1
1
1
1
1
1
1
1
1
1
1
1
1
1
1
1
1
1
1
1
1
1
1
1
1
1
1
1
1
1
1
1
1
1
1
1
1
1
1
1
1
1
1
1
1
1
1
1
1
1
1
1
1
1
1
1
1
1
1
1
1
1
1
1
1
1
1
1
1
1
1
1
1
1
1
1
1
3
3
3
3
1
1
1
1
1
1
1
1
1
1
1
1
1
1
1
1
1
1
1
1
1
1
1
1
1
1
1
1
1
1
1
1
1
1
1
1
1
1
1
1
1
1
1
1
1
1
1
1
1
1
1
1
1
1
1
1
1
1
1
1
1
1
1
1
1
1
1
1
1
1
1
1
1
1
1
1
1
1
1
1
1
1
1
1
1
1
1
1
1
1
1
1
1
1
1
1
1
1
1
1
1
1
1
1
1
1
1
1
1
1
1
1
1
1
1
1
1
1
1
1
1
1
1
1
1
1
1
1
1
1
1
1
1
1
1
1
1
1
1
1
1
1
1
1
1
1
1
1
1
1
1
1
1
1
1
1
1
1
1
1
1
1
1
1
1
1
1
1
1
1
1
1
1
1
1
1
1
1
1
1
1
1
1
1
1
1
1
1
1
1
1
1
1
1
1
1
1
1
1
1
1
1
1
1
1
1
1
1
1
1
1
1
1
1
1
1
1
1
1
1
1
1
1
1
1
1
1
1
1
1
1
1
1
1
1
1
1
1
1
1
1
1
1
1
1
1
1
1
1
1
1
1
1
1
1
1
1
1
1
1
1
1
1
1
3
3
3
3
1
1
1
1
1
1
1
1
1
1
1
1
1
1
1
1
1
1
1
1
1
1
1
1
1
1
1
1
1
1
1
1
1
1
1
1
1
1
1
1
1
1
1
1
1
1
1
1
1
1
1
1
1
1
1
1
1
1
1
1
1
1
1
1
1
1
1
1
1
1
1
1
1
1
1
1
1
1
1
1
1
1
1
1
1
1
1
1
1
1
1
1
1
1
1
1
1
1
1
1
1
1
1
1
1
1
1
1
1
1
1
1
1
1
1
1
1
1
1
1
1
1
1
1
1
1
1
1
1
1
1
1
1
1
1
1
1
1
1
1
1
1
1
1
1
1
1
1
1
1
1
1
1
1
1
1
1
1
1
1
1
1
1
1
1
1
1
1
1
1
1
1
1
1
1
1
1
1
1
1
1
1
1
1
1
1
1
1
1
1
1
1
1
1
1
1
1
1
1
1
1
1
1
1
1
1
1
1
1
1
1
1
1
1
1
1
1
1
1
1
1
1
1
1
1
1
1
1
1
1
1
1
1
1
1
1
1
1
1
1
1
1
1
1
1
1
1
1
1
1
1
1
1
1
1
1
1
1
1
1
1
1
1
1
3
3
3
3
1
1
1
1
1
1
1
1
1
1
1
1
1
1
1
1
1
1
1
1
1
1
1
1
1
1
1
1
1
1
1
1
1
1
1
1
1
1
1
1
1
1
1
1
1
1
1
1
1
1
1
1
1
1
1
1
1
1
1
1
1
1
1
1
1
1
1
1
1
1
1
1
1
1
1
1
1
1
1
1
1
1
1
1
1
1
1
1
1
1
1
1
1
1
1
1
1
1
1
1
1
1
1
1
1
1
1
1
1
1
1
1
1
1
1
1
1
1
1
1
1
1
1
1
1
1
1
1
1
1
1
1
1
1
1
1
1
1
1
1
1
1
1
1
1
1
1
1
1
1
1
1
1
1
1
1
1
1
1
1
1
1
1
1
1
1
1
1
1
1
1
1
1
1
1
1
1
1
1
1
1
1
1
1
1
1
1
1
1
1
1
1
1
1
1
1
1
1
1
1
1
1
1
1
1
1
1
1
1
1
1
1
1
1
1
1
1
1
1
1
1
1
1
1
1
1
1
1
1
1
1
1
1
1
1
1
1
1
1
1
1
1
1
1
1
1
1
1
1
1
1
1
1
1
1
1
1
1
1
1
1
1
1
1
3
3
3
3
1
1
1
1
1
1
1
1
1
1
1
1
1
1
1
1
1
1
1
1
1
1
1
1
1
1
1
1
1
1
1
1
1
1
1
1
1
1
1
1
1
1
1
1
1
1
1
1
1
1
1
1
1
1
1
1
1
1
1
1
1
1
1
1
1
1
1
1
1
1
1
1
1
1
1
1
1
1
1
1
1
1
1
1
1
1
1
1
1
1
1
1
1
1
1
1
1
1
1
1
1
1
1
1
1
1
1
1
1
1
1
1
1
1
1
1
1
1
1
1
1
1
1
1
1
1
1
1
1
1
1
1
1
1
1
1
1
1
1
1
1
1
1
1
1
1
1
1
1
1
1
1
1
1
1
1
1
1
1
1
1
1
1
1
1
1
1
1
1
1
1
1
1
1
1
1
1
1
1
1
1
1
1
1
1
1
1
1
1
1
1
1
1
1
1
1
1
1
1
1
1
1
1
1
1
1
1
1
1
1
1
1
1
1
1
1
1
1
1
1
1
1
1
1
1
1
1
1
1
1
1
1
1
1
1
1
1
1
1
1
1
1
1
1
1
1
1
1
1
1
1
1
1
1
1
1
1
1
1
1
1
1
1
1
3
3
3
3
1
1
1
1
1
1
1
1
1
1
1
1
1
1
1
1
1
1
1
1
1
1
1
1
1
1
1
1
1
1
1
1
1
1
1
1
1
1
1
1
1
1
1
1
1
1
1
1
1
1
1
1
1
1
1
1
1
1
1
1
1
1
1
1
1
1
1
1
1
1
1
1
1
1
1
1
1
1
1
1
1
1
1
1
1
1
1
1
1
1
1
1
1
1
1
1
1
1
1
1
1
1
1
1
1
1
1
1
1
1
1
1
1
1
1
1
1
1
1
1
1
1
1
1
1
1
1
1
1
1
1
1
1
1
1
1
1
1
1
1
1
1
1
1
1
1
1
1
1
1
1
1
1
1
1
1
1
1
1
1
1
1
1
1
1
1
1
1
1
1
1
1
1
1
1
1
1
1
1
1
1
1
1
1
1
1
1
1
1
1
1
1
1
1
1
1
1
1
1
1
1
1
1
1
1
1
1
1
1
1
1
1
1
1
1
1
1
1
1
1
1
1
1
1
1
1
1
1
1
1
1
1
1
1
1
1
1
1
1
1
1
1
1
1
1
1
1
1
1
1
1
1
1
1
1
1
1
1
1
1
1
1
1
1
3
3
3
3
1
1
1
1
1
1
1
1
1
1
1
1
1
1
1
1
1
1
1
1
1
1
1
1
1
1
1
1
1
1
1
1
1
1
1
1
1
1
1
1
1
1
1
1
1
1
1
1
1
1
1
1
1
1
1
1
1
1
1
1
1
1
1
1
1
1
1
1
1
1
1
1
1
1
1
1
1
1
1
1
1
1
1
1
1
1
1
1
1
1
1
1
1
1
1
1
1
1
1
1
1
1
1
1
1
1
1
1
1
1
1
1
1
1
1
1
1
1
1
1
1
1
1
1
1
1
1
1
1
1
1
1
1
1
1
1
1
1
1
1
1
1
1
1
1
1
1
1
1
1
1
1
1
1
1
1
1
1
1
1
1
1
1
1
1
1
1
1
1
1
1
1
1
1
1
1
1
1
1
1
1
1
1
1
1
1
1
1
1
1
1
1
1
1
1
1
1
1
1
1
1
1
1
1
1
1
1
1
1
1
1
1
1
1
1
1
1
1
1
1
1
1
1
1
1
1
1
1
1
1
1
1
1
1
1
1
1
1
1
1
1
1
1
1
1
1
1
1
1
1
1
1
1
1
1
1
1
1
1
1
1
1
1
1
3
3
3
3
1
1
1
1
1
1
1
1
1
1
1
1
1
1
1
1
1
1
1
1
1
1
1
1
1
1
1
1
1
1
1
1
1
1
1
1
1
1
1
1
1
1
1
1
1
1
1
1
1
1
1
1
1
1
1
1
1
1
1
1
1
1
1
1
1
1
1
1
1
1
1
1
1
1
1
1
1
1
1
1
1
1
1
1
1
1
1
1
1
1
1
1
1
1
1
1
1
1
1
1
1
1
1
1
1
1
1
1
1
1
1
1
1
1
1
1
1
1
1
1
1
1
1
1
1
1
1
1
1
1
1
1
1
1
1
1
1
1
1
1
1
1
1
1
1
1
1
1
1
1
1
1
1
1
1
1
1
1
1
1
1
1
1
1
1
1
1
1
1
1
1
1
1
1
1
1
1
1
1
1
1
1
1
1
1
1
1
1
1
1
1
1
1
1
1
1
1
1
1
1
1
1
1
1
1
1
1
1
1
1
1
1
1
1
1
1
1
1
1
1
1
1
1
1
1
1
1
1
1
1
1
1
1
1
1
1
1
1
1
1
1
1
1
1
1
1
1
1
1
1
1
1
1
1
1
1
1
1
1
1
1
1
1
1
3
3
3
3
1
1
1
1
1
1
1
1
1
1
1
1
1
1
1
1
1
1
1
1
1
1
1
1
1
1
1
1
1
1
1
1
1
1
1
1
1
1
1
1
1
1
1
1
1
1
1
1
1
1
1
1
1
1
1
1
1
1
1
1
1
1
1
1
1
1
1
1
1
1
1
1
1
1
1
1
1
1
1
1
1
1
1
1
1
1
1
1
1
1
1
1
1
1
1
1
1
1
1
1
1
1
1
1
1
1
1
1
1
1
1
1
1
1
1
1
1
1
1
1
1
1
1
1
1
1
1
1
1
1
1
1
1
1
1
1
1
1
1
1
1
1
1
1
1
1
1
1
1
1
1
1
1
1
1
1
1
1
1
1
1
1
1
1
1
1
1
1
1
1
1
1
1
1
1
1
1
1
1
1
1
1
1
1
1
1
1
1
1
1
1
1
1
1
1
1
1
1
1
1
1
1
1
1
1
1
1
1
1
1
1
1
1
1
1
1
1
1
1
1
1
1
1
1
1
1
1
1
1
1
1
1
1
1
1
1
1
1
1
1
1
1
1
1
1
1
1
1
1
1
1
1
1
1
1
1
1
1
1
1
1
1
1
1
3
3
3
3
1
1
1
1
1
1
1
1
1
1
1
1
1
1
1
1
1
1
1
1
1
1
1
1
1
1
1
1
1
1
1
1
1
1
1
1
1
1
1
1
1
1
1
1
1
1
1
1
1
1
1
1
1
1
1
1
1
1
1
1
1
1
1
1
1
1
1
1
1
1
1
1
1
1
1
1
1
1
1
1
1
1
1
1
1
1
1
1
1
1
1
1
1
1
1
1
1
1
1
1
1
1
1
1
1
1
1
1
1
1
1
1
1
1
1
1
1
1
1
1
1
1
1
1
1
1
1
1
1
1
1
1
1
1
1
1
1
1
1
1
1
1
1
1
1
1
1
1
1
1
1
1
1
1
1
1
1
1
1
1
1
1
1
1
1
1
1
1
1
1
1
1
1
1
1
1
1
1
1
1
1
1
1
1
1
1
1
1
1
1
1
1
1
1
1
1
1
1
1
1
1
1
1
1
1
1
1
1
1
1
1
1
1
1
1
1
1
1
1
1
1
1
1
1
1
1
1
1
1
1
1
1
1
1
1
1
1
1
1
1
1
1
1
1
1
1
1
1
1
1
1
1
1
1
1
1
1
1
1
1
1
1
1
1
3
3
3
3
1
1
1
1
1
1
1
1
1
1
1
1
1
1
1
1
1
1
1
1
1
1
1
1
1
1
1
1
1
1
1
1
1
1
1
1
1
1
1
1
1
1
1
1
1
1
1
1
1
1
1
1
1
1
1
1
1
1
1
1
1
1
1
1
1
1
1
1
1
1
1
1
1
1
1
1
1
1
1
1
1
1
1
1
1
1
1
1
1
1
1
1
1
1
1
1
1
1
1
1
1
1
1
1
1
1
1
1
1
1
1
1
1
1
1
1
1
1
1
1
1
1
1
1
1
1
1
1
1
1
1
1
1
1
1
1
1
1
1
1
1
1
1
1
1
1
1
1
1
1
1
1
1
1
1
1
1
1
1
1
1
1
1
1
1
1
1
1
1
1
1
1
1
1
1
1
1
1
1
1
1
1
1
1
1
1
1
1
1
1
1
1
1
1
1
1
1
1
1
1
1
1
1
1
1
1
1
1
1
1
1
1
1
1
1
1
1
1
1
1
1
1
1
1
1
1
1
1
1
1
1
1
1
1
1
1
1
1
1
1
1
1
1
1
1
1
1
1
1
1
1
1
1
1
1
1
1
1
1
1
1
1
1
1
3
3
3
3
1
1
1
1
1
1
1
1
1
1
1
1
1
1
1
1
1
1
1
1
1
1
1
1
1
1
1
1
1
1
1
1
1
1
1
1
1
1
1
1
1
1
1
1
1
1
1
1
1
1
1
1
1
1
1
1
1
1
1
1
1
1
1
1
1
1
1
1
1
1
1
1
1
1
1
1
1
1
1
1
1
1
1
1
1
1
1
1
1
1
1
1
1
1
1
1
1
1
1
1
1
1
1
1
1
1
1
1
1
1
1
1
1
1
1
1
1
1
1
1
1
1
1
1
1
1
1
1
1
1
1
1
1
1
1
1
1
1
1
1
1
1
1
1
1
1
1
1
1
1
1
1
1
1
1
1
1
1
1
1
1
1
1
1
1
1
1
1
1
1
1
1
1
1
1
1
1
1
1
1
1
1
1
1
1
1
1
1
1
1
1
1
1
1
1
1
1
1
1
1
1
1
1
1
1
1
1
1
1
1
1
1
1
1
1
1
1
1
1
1
1
1
1
1
1
1
1
1
1
1
1
1
1
1
1
1
1
1
1
1
1
1
1
1
1
1
1
1
1
1
1
1
1
1
1
1
1
1
1
1
1
1
1
1
3
3
3
3
1
1
1
1
1
1
1
1
1
1
1
1
1
1
1
1
1
1
1
1
1
1
1
1
1
1
1
1
1
1
1
1
1
1
1
1
1
1
1
1
1
1
1
1
1
1
1
1
1
1
1
1
1
1
1
1
1
1
1
1
1
1
1
1
1
1
1
1
1
1
1
1
1
1
1
1
1
1
1
1
1
1
1
1
1
1
1
1
1
1
1
1
1
1
1
1
1
1
1
1
1
1
1
1
1
1
1
1
1
1
1
1
1
1
1
1
1
1
1
1
1
1
1
1
1
1
1
1
1
1
1
1
1
1
1
1
1
1
1
1
1
1
1
1
1
1
1
1
1
1
1
1
1
1
1
1
1
1
1
1
1
1
1
1
1
1
1
1
1
1
1
1
1
1
1
1
1
1
1
1
1
1
1
1
1
1
1
1
1
1
1
1
1
1
1
1
1
1
1
1
1
1
1
1
1
1
1
1
1
1
1
1
1
1
1
1
1
1
1
1
1
1
1
1
1
1
1
1
1
1
1
1
1
1
1
1
1
1
1
1
1
1
1
1
1
1
1
1
1
1
1
1
1
1
1
1
1
1
1
1
1
1
1
1
3
3
3
3
1
1
1
1
1
1
1
1
1
1
1
1
1
1
1
1
1
1
1
1
1
1
1
1
1
1
1
1
1
1
1
1
1
1
1
1
1
1
1
1
1
1
1
1
1
1
1
1
1
1
1
1
1
1
1
1
1
1
1
1
1
1
1
1
1
1
1
1
1
1
1
1
1
1
1
1
1
1
1
1
1
1
1
1
1
1
1
1
1
1
1
1
1
1
1
1
1
1
1
1
1
1
1
1
1
1
1
1
1
1
1
1
1
1
1
1
1
1
1
1
1
1
1
1
1
1
1
1
1
1
1
1
1
1
1
1
1
1
1
1
1
1
1
1
1
1
1
1
1
1
1
1
1
1
1
1
1
1
1
1
1
1
1
1
1
1
1
1
1
1
1
1
1
1
1
1
1
1
1
1
1
1
1
1
1
1
1
1
1
1
1
1
1
1
1
1
1
1
1
1
1
1
1
1
1
1
1
1
1
1
1
1
1
1
1
1
1
1
1
1
1
1
1
1
1
1
1
1
1
1
1
1
1
1
1
1
1
1
1
1
1
1
1
1
1
1
1
1
1
1
1
1
1
1
1
1
1
1
1
1
1
1
1
1
3
3
3
3
1
1
1
1
1
1
1
1
1
1
1
1
1
1
1
1
1
1
1
1
1
1
1
1
1
1
1
1
1
1
1
1
1
1
1
1
1
1
1
1
1
1
1
1
1
1
1
1
1
1
1
1
1
1
1
1
1
1
1
1
1
1
1
1
1
1
1
1
1
1
1
1
1
1
1
1
1
1
1
1
1
1
1
1
1
1
1
1
1
1
1
1
1
1
1
1
1
1
1
1
1
1
1
1
1
1
1
1
1
1
1
1
1
1
1
1
1
1
1
1
1
1
1
1
1
1
1
1
1
1
1
1
1
1
1
1
1
1
1
1
1
1
1
1
1
1
1
1
1
1
1
1
1
1
1
1
1
1
1
1
1
1
1
1
1
1
1
1
1
1
1
1
1
1
1
1
1
1
1
1
1
1
1
1
1
1
1
1
1
1
1
1
1
1
1
1
1
1
1
1
1
1
1
1
1
1
1
1
1
1
1
1
1
1
1
1
1
1
1
1
1
1
1
1
1
1
1
1
1
1
1
1
1
1
1
1
1
1
1
1
1
1
1
1
1
1
1
1
1
1
1
1
1
1
1
1
1
1
1
1
1
1
1
1
3
3
3
3
1
1
1
1
1
1
1
1
1
1
1
1
1
1
1
1
1
1
1
1
1
1
1
1
1
1
1
1
1
1
1
1
1
1
1
1
1
1
1
1
1
1
1
1
1
1
1
1
1
1
1
1
1
1
1
1
1
1
1
1
1
1
1
1
1
1
1
1
1
1
1
1
1
1
1
1
1
1
1
1
1
1
1
1
1
1
1
1
1
1
1
1
1
1
1
1
1
1
1
1
1
1
1
1
1
1
1
1
1
1
1
1
1
1
1
1
1
1
1
1
1
1
1
1
1
1
1
1
1
1
1
1
1
1
1
1
1
1
1
1
1
1
1
1
1
1
1
1
1
1
1
1
1
1
1
1
1
1
1
1
1
1
1
1
1
1
1
1
1
1
1
1
1
1
1
1
1
1
1
1
1
1
1
1
1
1
1
1
1
1
1
1
1
1
1
1
1
1
1
1
1
1
1
1
1
1
1
1
1
1
1
1
1
1
1
1
1
1
1
1
1
1
1
1
1
1
1
1
1
1
1
1
1
1
1
1
1
1
1
1
1
1
1
1
1
1
1
1
1
1
1
1
1
1
1
1
1
1
1
1
1
1
1
1
3
3
3
3
1
1
1
1
1
1
1
1
1
1
1
1
1
1
1
1
1
1
1
1
1
1
1
1
1
1
1
1
1
1
1
1
1
1
1
1
1
1
1
1
1
1
1
1
1
1
1
1
1
1
1
1
1
1
1
1
1
1
1
1
1
1
1
1
1
1
1
1
1
1
1
1
1
1
1
1
1
1
1
1
1
1
1
1
1
1
1
1
1
1
1
1
1
1
1
1
1
1
1
1
1
1
1
1
1
1
1
1
1
1
1
1
1
1
1
1
1
1
1
1
1
1
1
1
1
1
1
1
1
1
1
1
1
1
1
1
1
1
1
1
1
1
1
1
1
1
1
1
1
1
1
1
1
1
1
1
1
1
1
1
1
1
1
1
1
1
1
1
1
1
1
1
1
1
1
1
1
1
1
1
1
1
1
1
1
1
1
1
1
1
1
1
1
1
1
1
1
1
1
1
1
1
1
1
1
1
1
1
1
1
1
1
1
1
1
1
1
1
1
1
1
1
1
1
1
1
1
1
1
1
1
1
1
1
1
1
1
1
1
1
1
1
1
1
1
1
1
1
1
1
1
1
1
1
1
1
1
1
1
1
1
1
1
1
3
3
3
3
1
1
1
1
1
1
1
1
1
1
1
1
1
1
1
1
1
1
1
1
1
1
1
1
1
1
1
1
1
1
1
1
1
1
1
1
1
1
1
1
1
1
1
1
1
1
1
1
1
1
1
1
1
1
1
1
1
1
1
1
1
1
1
1
1
1
1
1
1
1
1
1
1
1
1
1
1
1
1
1
1
1
1
1
1
1
1
1
1
1
1
1
1
1
1
1
1
1
1
1
1
1
1
1
1
1
1
1
1
1
1
1
1
1
1
1
1
1
1
1
1
1
1
1
1
1
1
1
1
1
1
1
1
1
1
1
1
1
1
1
1
1
1
1
1
1
1
1
1
1
1
1
1
1
1
1
1
1
1
1
1
1
1
1
1
1
1
1
1
1
1
1
1
1
1
1
1
1
1
1
1
1
1
1
1
1
1
1
1
1
1
1
1
1
1
1
1
1
1
1
1
1
1
1
1
1
1
1
1
1
1
1
1
1
1
1
1
1
1
1
1
1
1
1
1
1
1
1
1
1
1
1
1
1
1
1
1
1
1
1
1
1
1
1
1
1
1
1
1
1
1
1
1
1
1
1
1
1
1
1
1
1
1
1
3
3
3
3
1
1
1
1
1
1
1
1
1
1
1
1
1
1
1
1
1
1
1
1
1
1
1
1
1
1
1
1
1
1
1
1
1
1
1
1
1
1
1
1
1
1
1
1
1
1
1
1
1
1
1
1
1
1
1
1
1
1
1
1
1
1
1
1
1
1
1
1
1
1
1
1
1
1
1
1
1
1
1
1
1
1
1
1
1
1
1
1
1
1
1
1
1
1
1
1
1
1
1
1
1
1
1
1
1
1
1
1
1
1
1
1
1
1
1
1
1
1
1
1
1
1
1
1
1
1
1
1
1
1
1
1
1
1
1
1
1
1
1
1
1
1
1
1
1
1
1
1
1
1
1
1
1
1
1
1
1
1
1
1
1
1
1
1
1
1
1
1
1
1
1
1
1
1
1
1
1
1
1
1
1
1
1
1
1
1
1
1
1
1
1
1
1
1
1
1
1
1
1
1
1
1
1
1
1
1
1
1
1
1
1
1
1
1
1
1
1
1
1
1
1
1
1
1
1
1
1
1
1
1
1
1
1
1
1
1
1
1
1
1
1
1
1
1
1
1
1
1
1
1
1
1
1
1
1
1
1
1
1
1
1
1
1
1
3
3
3
3
1
1
1
1
1
1
1
1
1
1
1
1
1
1
1
1
1
1
1
1
1
1
1
1
1
1
1
1
1
1
1
1
1
1
1
1
1
1
1
1
1
1
1
1
1
1
1
1
1
1
1
1
1
1
1
1
1
1
1
1
1
1
1
1
1
1
1
1
1
1
1
1
1
1
1
1
1
1
1
1
1
1
1
1
1
1
1
1
1
1
1
1
1
1
1
1
1
1
1
1
1
1
1
1
1
1
1
1
1
1
1
1
1
1
1
1
1
1
1
1
1
1
1
1
1
1
1
1
1
1
1
1
1
1
1
1
1
1
1
1
1
1
1
1
1
1
1
1
1
1
1
1
1
1
1
1
1
1
1
1
1
1
1
1
1
1
1
1
1
1
1
1
1
1
1
1
1
1
1
1
1
1
1
1
1
1
1
1
1
1
1
1
1
1
1
1
1
1
1
1
1
1
1
1
1
1
1
1
1
1
1
1
1
1
1
1
1
1
1
1
1
1
1
1
1
1
1
1
1
1
1
1
1
1
1
1
1
1
1
1
1
1
1
1
1
1
1
1
1
1
1
1
1
1
1
1
1
1
1
1
1
1
1
1
3
3
3
3
1
1
1
1
1
1
1
1
1
1
1
1
1
1
1
1
1
1
1
1
1
1
1
1
1
1
1
1
1
1
1
1
1
1
1
1
1
1
1
1
1
1
1
1
1
1
1
1
1
1
1
1
1
1
1
1
1
1
1
1
1
1
1
1
1
1
1
1
1
1
1
1
1
1
1
1
1
1
1
1
1
1
1
1
1
1
1
1
1
1
1
1
1
1
1
1
1
1
1
1
1
1
1
1
1
1
1
1
1
1
1
1
1
1
1
1
1
1
1
1
1
1
1
1
1
1
1
1
1
1
1
1
1
1
1
1
1
1
1
1
1
1
1
1
1
1
1
1
1
1
1
1
1
1
1
1
1
1
1
1
1
1
1
1
1
1
1
1
1
1
1
1
1
1
1
1
1
1
1
1
1
1
1
1
1
1
1
1
1
1
1
1
1
1
1
1
1
1
1
1
1
1
1
1
1
1
1
1
1
1
1
1
1
1
1
1
1
1
1
1
1
1
1
1
1
1
1
1
1
1
1
1
1
1
1
1
1
1
1
1
1
1
1
1
1
1
1
1
1
1
1
1
1
1
1
1
1
1
1
1
1
1
1
1
3
3
3
3
1
1
1
1
1
1
1
1
1
1
1
1
1
1
1
1
1
1
1
1
1
1
1
1
1
1
1
1
1
1
1
1
1
1
1
1
1
1
1
1
1
1
1
1
1
1
1
1
1
1
1
1
1
1
1
1
1
1
1
1
1
1
1
1
1
1
1
1
1
1
1
1
1
1
1
1
1
1
1
1
1
1
1
1
1
1
1
1
1
1
1
1
1
1
1
1
1
1
1
1
1
1
1
1
1
1
1
1
1
1
1
1
1
1
1
1
1
1
1
1
1
1
1
1
1
1
1
1
1
1
1
1
1
1
1
1
1
1
1
1
1
1
1
1
1
1
1
1
1
1
1
1
1
1
1
1
1
1
1
1
1
1
1
1
1
1
1
1
1
1
1
1
1
1
1
1
1
1
1
1
1
1
1
1
1
1
1
1
1
1
1
1
1
1
1
1
1
1
1
1
1
1
1
1
1
1
1
1
1
1
1
1
1
1
1
1
1
1
1
1
1
1
1
1
1
1
1
1
1
1
1
1
1
1
1
1
1
1
1
1
1
1
1
1
1
1
1
1
1
1
1
1
1
1
1
1
1
1
1
1
1
1
1
1
3
3
3
3
1
1
1
1
1
1
1
1
1
1
1
1
1
1
1
1
1
1
1
1
1
1
1
1
1
1
1
1
1
1
1
1
1
1
1
1
1
1
1
1
1
1
1
1
1
1
1
1
1
1
1
1
1
1
1
1
1
1
1
1
1
1
1
1
1
1
1
1
1
1
1
1
1
1
1
1
1
1
1
1
1
1
1
1
1
1
1
1
1
1
1
1
1
1
1
1
1
1
1
1
1
1
1
1
1
1
1
1
1
1
1
1
1
1
1
1
1
1
1
1
1
1
1
1
1
1
1
1
1
1
1
1
1
1
1
1
1
1
1
1
1
1
1
1
1
1
1
1
1
1
1
1
1
1
1
1
1
1
1
1
1
1
1
1
1
1
1
1
1
1
1
1
1
1
1
1
1
1
1
1
1
1
1
1
1
1
1
1
1
1
1
1
1
1
1
1
1
1
1
1
1
1
1
1
1
1
1
1
1
1
1
1
1
1
1
1
1
1
1
1
1
1
1
1
1
1
1
1
1
1
1
1
1
1
1
1
1
1
1
1
1
1
1
1
1
1
1
1
1
1
1
1
1
1
1
1
1
1
1
1
1
1
1
1
3
3
3
3
1
1
1
1
1
1
1
1
1
1
1
1
1
1
1
1
1
1
1
1
1
1
1
1
1
1
1
1
1
1
1
1
1
1
1
1
1
1
1
1
1
1
1
1
1
1
1
1
1
1
1
1
1
1
1
1
1
1
1
1
1
1
1
1
1
1
1
1
1
1
1
1
1
1
1
1
1
1
1
1
1
1
1
1
1
1
1
1
1
1
1
1
1
1
1
1
1
1
1
1
1
1
1
1
1
1
1
1
1
1
1
1
1
1
1
1
1
1
1
1
1
1
1
1
1
1
1
1
1
1
1
1
1
1
1
1
1
1
1
1
1
1
1
1
1
1
1
1
1
1
1
1
1
1
1
1
1
1
1
1
1
1
1
1
1
1
1
1
1
1
1
1
1
1
1
1
1
1
1
1
1
1
1
1
1
1
1
1
1
1
1
1
1
1
1
1
1
1
1
1
1
1
1
1
1
1
1
1
1
1
1
1
1
1
1
1
1
1
1
1
1
1
1
1
1
1
1
1
1
1
1
1
1
1
1
1
1
1
1
1
1
1
1
1
1
1
1
1
1
1
1
1
1
1
1
1
1
1
1
1
1
1
1
1
3
3
3
3
1
1
1
1
1
1
1
1
1
1
1
1
1
1
1
1
1
1
1
1
1
1
1
1
1
1
1
1
1
1
1
1
1
1
1
1
1
1
1
1
1
1
1
1
1
1
1
1
1
1
1
1
1
1
1
1
1
1
1
1
1
1
1
1
1
1
1
1
1
1
1
1
1
1
1
1
1
1
1
1
1
1
1
1
1
1
1
1
1
1
1
1
1
1
1
1
1
1
1
1
1
1
1
1
1
1
1
1
1
1
1
1
1
1
1
1
1
1
1
1
1
1
1
1
1
1
1
1
1
1
1
1
1
1
1
1
1
1
1
1
1
1
1
1
1
1
1
1
1
1
1
1
1
1
1
1
1
1
1
1
1
1
1
1
1
1
1
1
1
1
1
1
1
1
1
1
1
1
1
1
1
1
1
1
1
1
1
1
1
1
1
1
1
1
1
1
1
1
1
1
1
1
1
1
1
1
1
1
1
1
1
1
1
1
1
1
1
1
1
1
1
1
1
1
1
1
1
1
1
1
1
1
1
1
1
1
1
1
1
1
1
1
1
1
1
1
1
1
1
1
1
1
1
1
1
1
1
1
1
1
1
1
1
1
3
3
3
3
1
1
1
1
1
1
1
1
1
1
1
1
1
1
1
1
1
1
1
1
1
1
1
1
1
1
1
1
1
1
1
1
1
1
1
1
1
1
1
1
1
1
1
1
1
1
1
1
1
1
1
1
1
1
1
1
1
1
1
1
1
1
1
1
1
1
1
1
1
1
1
1
1
1
1
1
1
1
1
1
1
1
1
1
1
1
1
1
1
1
1
1
1
1
1
1
1
1
1
1
1
1
1
1
1
1
1
1
1
1
1
1
1
1
1
1
1
1
1
1
1
1
1
1
1
1
1
1
1
1
1
1
1
1
1
1
1
1
1
1
1
1
1
1
1
1
1
1
1
1
1
1
1
1
1
1
1
1
1
1
1
1
1
1
1
1
1
1
1
1
1
1
1
1
1
1
1
1
1
1
1
1
1
1
1
1
1
1
1
1
1
1
1
1
1
1
1
1
1
1
1
1
1
1
1
1
1
1
1
1
1
1
1
1
1
1
1
1
1
1
1
1
1
1
1
1
1
1
1
1
1
1
1
1
1
1
1
1
1
1
1
1
1
1
1
1
1
1
1
1
1
1
1
1
1
1
1
1
1
1
1
1
1
1
3
3
3
3
1
1
1
1
1
1
1
1
1
1
1
1
1
1
1
1
1
1
1
1
1
1
1
1
1
1
1
1
1
1
1
1
1
1
1
1
1
1
1
1
1
1
1
1
1
1
1
1
1
1
1
1
1
1
1
1
1
1
1
1
1
1
1
1
1
1
1
1
1
1
1
1
1
1
1
1
1
1
1
1
1
1
1
1
1
1
1
1
1
1
1
1
1
1
1
1
1
1
1
1
1
1
1
1
1
1
1
1
1
1
1
1
1
1
1
1
1
1
1
1
1
1
1
1
1
1
1
1
1
1
1
1
1
1
1
1
1
1
1
1
1
1
1
1
1
1
1
1
1
1
1
1
1
1
1
1
1
1
1
1
1
1
1
1
1
1
1
1
1
1
1
1
1
1
1
1
1
1
1
1
1
1
1
1
1
1
1
1
1
1
1
1
1
1
1
1
1
1
1
1
1
1
1
1
1
1
1
1
1
1
1
1
1
1
1
1
1
1
1
1
1
1
1
1
1
1
1
1
1
1
1
1
1
1
1
1
1
1
1
1
1
1
1
1
1
1
1
1
1
1
1
1
1
1
1
1
1
1
1
1
1
1
1
1
3
3
3
3
1
1
1
1
1
1
1
1
1
1
1
1
1
1
1
1
1
1
1
1
1
1
1
1
1
1
1
1
1
1
1
1
1
1
1
1
1
1
1
1
1
1
1
1
1
1
1
1
1
1
1
1
1
1
1
1
1
1
1
1
1
1
1
1
1
1
1
1
1
1
1
1
1
1
1
1
1
1
1
1
1
1
1
1
1
1
1
1
1
1
1
1
1
1
1
1
1
1
1
1
1
1
1
1
1
1
1
1
1
1
1
1
1
1
1
1
1
1
1
1
1
1
1
1
1
1
1
1
1
1
1
1
1
1
1
1
1
1
1
1
1
1
1
1
1
1
1
1
1
1
1
1
1
1
1
1
1
1
1
1
1
1
1
1
1
1
1
1
1
1
1
1
1
1
1
1
1
1
1
1
1
1
1
1
1
1
1
1
1
1
1
1
1
1
1
1
1
1
1
1
1
1
1
1
1
1
1
1
1
1
1
1
1
1
1
1
1
1
1
1
1
1
1
1
1
1
1
1
1
1
1
1
1
1
1
1
1
1
1
1
1
1
1
1
1
1
1
1
1
1
1
1
1
1
1
1
1
1
1
1
1
1
1
1
3
3
3
3
1
1
1
1
1
1
1
1
1
1
1
1
1
1
1
1
1
1
1
1
1
1
1
1
1
1
1
1
1
1
1
1
1
1
1
1
1
1
1
1
1
1
1
1
1
1
1
1
1
1
1
1
1
1
1
1
1
1
1
1
1
1
1
1
1
1
1
1
1
1
1
1
1
1
1
1
1
1
1
1
1
1
1
1
1
1
1
1
1
1
1
1
1
1
1
1
1
1
1
1
1
1
1
1
1
1
1
1
1
1
1
1
1
1
1
1
1
1
1
1
1
1
1
1
1
1
1
1
1
1
1
1
1
1
1
1
1
1
1
1
1
1
1
1
1
1
1
1
1
1
1
1
1
1
1
1
1
1
1
1
1
1
1
1
1
1
1
1
1
1
1
1
1
1
1
1
1
1
1
1
1
1
1
1
1
1
1
1
1
1
1
1
1
1
1
1
1
1
1
1
1
1
1
1
1
1
1
1
1
1
1
1
1
1
1
1
1
1
1
1
1
1
1
1
1
1
1
1
1
1
1
1
1
1
1
1
1
1
1
1
1
1
1
1
1
1
1
1
1
1
1
1
1
1
1
1
1
1
1
1
1
1
1
1
3
3
3
3
1
1
1
1
1
1
1
1
1
1
1
1
1
1
1
1
1
1
1
1
1
1
1
1
1
1
1
1
1
1
1
1
1
1
1
1
1
1
1
1
1
1
1
1
1
1
1
1
1
1
1
1
1
1
1
1
1
1
1
1
1
1
1
1
1
1
1
1
1
1
1
1
1
1
1
1
1
1
1
1
1
1
1
1
1
1
1
1
1
1
1
1
1
1
1
1
1
1
1
1
1
1
1
1
1
1
1
1
1
1
1
1
1
1
1
1
1
1
1
1
1
1
1
1
1
1
1
1
1
1
1
1
1
1
1
1
1
1
1
1
1
1
1
1
1
1
1
1
1
1
1
1
1
1
1
1
1
1
1
1
1
1
1
1
1
1
1
1
1
1
1
1
1
1
1
1
1
1
1
1
1
1
1
1
1
1
1
1
1
1
1
1
1
1
1
1
1
1
1
1
1
1
1
1
1
1
1
1
1
1
1
1
1
1
1
1
1
1
1
1
1
1
1
1
1
1
1
1
1
1
1
1
1
1
1
1
1
1
1
1
1
1
1
1
1
1
1
1
1
1
1
1
1
1
1
1
1
1
1
1
1
1
1
1
3
3
3
3
1
1
1
1
1
1
1
1
1
1
1
1
1
1
1
1
1
1
1
1
1
1
1
1
1
1
1
1
1
1
1
1
1
1
1
1
1
1
1
1
1
1
1
1
1
1
1
1
1
1
1
1
1
1
1
1
1
1
1
1
1
1
1
1
1
1
1
1
1
1
1
1
1
1
1
1
1
1
1
1
1
1
1
1
1
1
1
1
1
1
1
1
1
1
1
1
1
1
1
1
1
1
1
1
1
1
1
1
1
1
1
1
1
1
1
1
1
1
1
1
1
1
1
1
1
1
1
1
1
1
1
1
1
1
1
1
1
1
1
1
1
1
1
1
1
1
1
1
1
1
1
1
1
1
1
1
1
1
1
1
1
1
1
1
1
1
1
1
1
1
1
1
1
1
1
1
1
1
1
1
1
1
1
1
1
1
1
1
1
1
1
1
1
1
1
1
1
1
1
1
1
1
1
1
1
1
1
1
1
1
1
1
1
1
1
1
1
1
1
1
1
1
1
1
1
1
1
1
1
1
1
1
1
1
1
1
1
1
1
1
1
1
1
1
1
1
1
1
1
1
1
1
1
1
1
1
1
1
1
1
1
1
1
1
3
3
3
3
1
1
1
1
1
1
1
1
1
1
1
1
1
1
1
1
1
1
1
1
1
1
1
1
1
1
1
1
1
1
1
1
1
1
1
1
1
1
1
1
1
1
1
1
1
1
1
1
1
1
1
1
1
1
1
1
1
1
1
1
1
1
1
1
1
1
1
1
1
1
1
1
1
1
1
1
1
1
1
1
1
1
1
1
1
1
1
1
1
1
1
1
1
1
1
1
1
1
1
1
1
1
1
1
1
1
1
1
1
1
1
1
1
1
1
1
1
1
1
1
1
1
1
1
1
1
1
1
1
1
1
1
1
1
1
1
1
1
1
1
1
1
1
1
1
1
1
1
1
1
1
1
1
1
1
1
1
1
1
1
1
1
1
1
1
1
1
1
1
1
1
1
1
1
1
1
1
1
1
1
1
1
1
1
1
1
1
1
1
1
1
1
1
1
1
1
1
1
1
1
1
1
1
1
1
1
1
1
1
1
1
1
1
1
1
1
1
1
1
1
1
1
1
1
1
1
1
1
1
1
1
1
1
1
1
1
1
1
1
1
1
1
1
1
1
1
1
1
1
1
1
1
1
1
1
1
1
1
1
1
1
1
1
1
3
3
3
3
1
1
1
1
1
1
1
1
1
1
1
1
1
1
1
1
1
1
1
1
1
1
1
1
1
1
1
1
1
1
1
1
1
1
1
1
1
1
1
1
1
1
1
1
1
1
1
1
1
1
1
1
1
1
1
1
1
1
1
1
1
1
1
1
1
1
1
1
1
1
1
1
1
1
1
1
1
1
1
1
1
1
1
1
1
1
1
1
1
1
1
1
1
1
1
1
1
1
1
1
1
1
1
1
1
1
1
1
1
1
1
1
1
1
1
1
1
1
1
1
1
1
1
1
1
1
1
1
1
1
1
1
1
1
1
1
1
1
1
1
1
1
1
1
1
1
1
1
1
1
1
1
1
1
1
1
1
1
1
1
1
1
1
1
1
1
1
1
1
1
1
1
1
1
1
1
1
1
1
1
1
1
1
1
1
1
1
1
1
1
1
1
1
1
1
1
1
1
1
1
1
1
1
1
1
1
1
1
1
1
1
1
1
1
1
1
1
1
1
1
1
1
1
1
1
1
1
1
1
1
1
1
1
1
1
1
1
1
1
1
1
1
1
1
1
1
1
1
1
1
1
1
1
1
1
1
1
1
1
1
1
1
1
1
3
3
3
3
1
1
1
1
1
1
1
1
1
1
1
1
1
1
1
1
1
1
1
1
1
1
1
1
1
1
1
1
1
1
1
1
1
1
1
1
1
1
1
1
1
1
1
1
1
1
1
1
1
1
1
1
1
1
1
1
1
1
1
1
1
1
1
1
1
1
1
1
1
1
1
1
1
1
1
1
1
1
1
1
1
1
1
1
1
1
1
1
1
1
1
1
1
1
1
1
1
1
1
1
1
1
1
1
1
1
1
1
1
1
1
1
1
1
1
1
1
1
1
1
1
1
1
1
1
1
1
1
1
1
1
1
1
1
1
1
1
1
1
1
1
1
1
1
1
1
1
1
1
1
1
1
1
1
1
1
1
1
1
1
1
1
1
1
1
1
1
1
1
1
1
1
1
1
1
1
1
1
1
1
1
1
1
1
1
1
1
1
1
1
1
1
1
1
1
1
1
1
1
1
1
1
1
1
1
1
1
1
1
1
1
1
1
1
1
1
1
1
1
1
1
1
1
1
1
1
1
1
1
1
1
1
1
1
1
1
1
1
1
1
1
1
1
1
1
1
1
1
1
1
1
1
1
1
1
1
1
1
1
1
1
1
1
1
3
3
3
3
1
1
1
1
1
1
1
1
1
1
1
1
1
1
1
1
1
1
1
1
1
1
1
1
1
1
1
1
1
1
1
1
1
1
1
1
1
1
1
1
1
1
1
1
1
1
1
1
1
1
1
1
1
1
1
1
1
1
1
1
1
1
1
1
1
1
1
1
1
1
1
1
1
1
1
1
1
1
1
1
1
1
1
1
1
1
1
1
1
1
1
1
1
1
1
1
1
1
1
1
1
1
1
1
1
1
1
1
1
1
1
1
1
1
1
1
1
1
1
1
1
1
1
1
1
1
1
1
1
1
1
1
1
1
1
1
1
1
1
1
1
1
1
1
1
1
1
1
1
1
1
1
1
1
1
1
1
1
1
1
1
1
1
1
1
1
1
1
1
1
1
1
1
1
1
1
1
1
1
1
1
1
1
1
1
1
1
1
1
1
1
1
1
1
1
1
1
1
1
1
1
1
1
1
1
1
1
1
1
1
1
1
1
1
1
1
1
1
1
1
1
1
1
1
1
1
1
1
1
1
1
1
1
1
1
1
1
1
1
1
1
1
1
1
1
1
1
1
1
1
1
1
1
1
1
1
1
1
1
1
1
1
1
1
3
3
3
3
1
1
1
1
1
1
1
1
1
1
1
1
1
1
1
1
1
1
1
1
1
1
1
1
1
1
1
1
1
1
1
1
1
1
1
1
1
1
1
1
1
1
1
1
1
1
1
1
1
1
1
1
1
1
1
1
1
1
1
1
1
1
1
1
1
1
1
1
1
1
1
1
1
1
1
1
1
1
1
1
1
1
1
1
1
1
1
1
1
1
1
1
1
1
1
1
1
1
1
1
1
1
1
1
1
1
1
1
1
1
1
1
1
1
1
1
1
1
1
1
1
1
1
1
1
1
1
1
1
1
1
1
1
1
1
1
1
1
1
1
1
1
1
1
1
1
1
1
1
1
1
1
1
1
1
1
1
1
1
1
1
1
1
1
1
1
1
1
1
1
1
1
1
1
1
1
1
1
1
1
1
1
1
1
1
1
1
1
1
1
1
1
1
1
1
1
1
1
1
1
1
1
1
1
1
1
1
1
1
1
1
1
1
1
1
1
1
1
1
1
1
1
1
1
1
1
1
1
1
1
1
1
1
1
1
1
1
1
1
1
1
1
1
1
1
1
1
1
1
1
1
1
1
1
1
1
1
1
1
1
1
1
1
1
3
3
3
3
1
1
1
1
1
1
1
1
1
1
1
1
1
1
1
1
1
1
1
1
1
1
1
1
1
1
1
1
1
1
1
1
1
1
1
1
1
1
1
1
1
1
1
1
1
1
1
1
1
1
1
1
1
1
1
1
1
1
1
1
1
1
1
1
1
1
1
1
1
1
1
1
1
1
1
1
1
1
1
1
1
1
1
1
1
1
1
1
1
1
1
1
1
1
1
1
1
1
1
1
1
1
1
1
1
1
1
1
1
1
1
1
1
1
1
1
1
1
1
1
1
1
1
1
1
1
1
1
1
1
1
1
1
1
1
1
1
1
1
1
1
1
1
1
1
1
1
1
1
1
1
1
1
1
1
1
1
1
1
1
1
1
1
1
1
1
1
1
1
1
1
1
1
1
1
1
1
1
1
1
1
1
1
1
1
1
1
1
1
1
1
1
1
1
1
1
1
1
1
1
1
1
1
1
1
1
1
1
1
1
1
1
1
1
1
1
1
1
1
1
1
1
1
1
1
1
1
1
1
1
1
1
1
1
1
1
1
1
1
1
1
1
1
1
1
1
1
1
1
1
1
1
1
1
1
1
1
1
1
1
1
1
1
1
3
3
3
3
1
1
1
1
1
1
1
1
1
1
1
1
1
1
1
1
1
1
1
1
1
1
1
1
1
1
1
1
1
1
1
1
1
1
1
1
1
1
1
1
1
1
1
1
1
1
1
1
1
1
1
1
1
1
1
1
1
1
1
1
1
1
1
1
1
1
1
1
1
1
1
1
1
1
1
1
1
1
1
1
1
1
1
1
1
1
1
1
1
1
1
1
1
1
1
1
1
1
1
1
1
1
1
1
1
1
1
1
1
1
1
1
1
1
1
1
1
1
1
1
1
1
1
1
1
1
1
1
1
1
1
1
1
1
1
1
1
1
1
1
1
1
1
1
1
1
1
1
1
1
1
1
1
1
1
1
1
1
1
1
1
1
1
1
1
1
1
1
1
1
1
1
1
1
1
1
1
1
1
1
1
1
1
1
1
1
1
1
1
1
1
1
1
1
1
1
1
1
1
1
1
1
1
1
1
1
1
1
1
1
1
1
1
1
1
1
1
1
1
1
1
1
1
1
1
1
1
1
1
1
1
1
1
1
1
1
1
1
1
1
1
1
1
1
1
1
1
1
1
1
1
1
1
1
1
1
1
1
1
1
1
1
1
1
3
3
3
3
1
1
1
1
1
1
1
1
1
1
1
1
1
1
1
1
1
1
1
1
1
1
1
1
1
1
1
1
1
1
1
1
1
1
1
1
1
1
1
1
1
1
1
1
1
1
1
1
1
1
1
1
1
1
1
1
1
1
1
1
1
1
1
1
1
1
1
1
1
1
1
1
1
1
1
1
1
1
1
1
1
1
1
1
1
1
1
1
1
1
1
1
1
1
1
1
1
1
1
1
1
1
1
1
1
1
1
1
1
1
1
1
1
1
1
1
1
1
1
1
1
1
1
1
1
1
1
1
1
1
1
1
1
1
1
1
1
1
1
1
1
1
1
1
1
1
1
1
1
1
1
1
1
1
1
1
1
1
1
1
1
1
1
1
1
1
1
1
1
1
1
1
1
1
1
1
1
1
1
1
1
1
1
1
1
1
1
1
1
1
1
1
1
1
1
1
1
1
1
1
1
1
1
1
1
1
1
1
1
1
1
1
1
1
1
1
1
1
1
1
1
1
1
1
1
1
1
1
1
1
1
1
1
1
1
1
1
1
1
1
1
1
1
1
1
1
1
1
1
1
1
1
1
1
1
1
1
1
1
1
1
1
1
1
3
3
3
3
1
1
1
1
1
1
1
1
1
1
1
1
1
1
1
1
1
1
1
1
1
1
1
1
1
1
1
1
1
1
1
1
1
1
1
1
1
1
1
1
1
1
1
1
1
1
1
1
1
1
1
1
1
1
1
1
1
1
1
1
1
1
1
1
1
1
1
1
1
1
1
1
1
1
1
1
1
1
1
1
1
1
1
1
1
1
1
1
1
1
1
1
1
1
1
1
1
1
1
1
1
1
1
1
1
1
1
1
1
1
1
1
1
1
1
1
1
1
1
1
1
1
1
1
1
1
1
1
1
1
1
1
1
1
1
1
1
1
1
1
1
1
1
1
1
1
1
1
1
1
1
1
1
1
1
1
1
1
1
1
1
1
1
1
1
1
1
1
1
1
1
1
1
1
1
1
1
1
1
1
1
1
1
1
1
1
1
1
1
1
1
1
1
1
1
1
1
1
1
1
1
1
1
1
1
1
1
1
1
1
1
1
1
1
1
1
1
1
1
1
1
1
1
1
1
1
1
1
1
1
1
1
1
1
1
1
1
1
1
1
1
1
1
1
1
1
1
1
1
1
1
1
1
1
1
1
1
1
1
1
1
1
1
1
3
3
3
3
1
1
1
1
1
1
1
1
1
1
1
1
1
1
1
1
1
1
1
1
1
1
1
1
1
1
1
1
1
1
1
1
1
1
1
1
1
1
1
1
1
1
1
1
1
1
1
1
1
1
1
1
1
1
1
1
1
1
1
1
1
1
1
1
1
1
1
1
1
1
1
1
1
1
1
1
1
1
1
1
1
1
1
1
1
1
1
1
1
1
1
1
1
1
1
1
1
1
1
1
1
1
1
1
1
1
1
1
1
1
1
1
1
1
1
1
1
1
1
1
1
1
1
1
1
1
1
1
1
1
1
1
1
1
1
1
1
1
1
1
1
1
1
1
1
1
1
1
1
1
1
1
1
1
1
1
1
1
1
1
1
1
1
1
1
1
1
1
1
1
1
1
1
1
1
1
1
1
1
1
1
1
1
1
1
1
1
1
1
1
1
1
1
1
1
1
1
1
1
1
1
1
1
1
1
1
1
1
1
1
1
1
1
1
1
1
1
1
1
1
1
1
1
1
1
1
1
1
1
1
1
1
1
1
1
1
1
1
1
1
1
1
1
1
1
1
1
1
1
1
1
1
1
1
1
1
1
1
1
1
1
1
1
1
3
3
3
3
1
1
1
1
1
1
1
1
1
1
1
1
1
1
1
1
1
1
1
1
1
1
1
1
1
1
1
1
1
1
1
1
1
1
1
1
1
1
1
1
1
1
1
1
1
1
1
1
1
1
1
1
1
1
1
1
1
1
1
1
1
1
1
1
1
1
1
1
1
1
1
1
1
1
1
1
1
1
1
1
1
1
1
1
1
1
1
1
1
1
1
1
1
1
1
1
1
1
1
1
1
1
1
1
1
1
1
1
1
1
1
1
1
1
1
1
1
1
1
1
1
1
1
1
1
1
1
1
1
1
1
1
1
1
1
1
1
1
1
1
1
1
1
1
1
1
1
1
1
1
1
1
1
1
1
1
1
1
1
1
1
1
1
1
1
1
1
1
1
1
1
1
1
1
1
1
1
1
1
1
1
1
1
1
1
1
1
1
1
1
1
1
1
1
1
1
1
1
1
1
1
1
1
1
1
1
1
1
1
1
1
1
1
1
1
1
1
1
1
1
1
1
1
1
1
1
1
1
1
1
1
1
1
1
1
1
1
1
1
1
1
1
1
1
1
1
1
1
1
1
1
1
1
1
1
1
1
1
1
1
1
1
1
1
3
3
3
3
1
1
1
1
1
1
1
1
1
1
1
1
1
1
1
1
1
1
1
1
1
1
1
1
1
1
1
1
1
1
1
1
1
1
1
1
1
1
1
1
1
1
1
1
1
1
1
1
1
1
1
1
1
1
1
1
1
1
1
1
1
1
1
1
1
1
1
1
1
1
1
1
1
1
1
1
1
1
1
1
1
1
1
1
1
1
1
1
1
1
1
1
1
1
1
1
1
1
1
1
1
1
1
1
1
1
1
1
1
1
1
1
1
1
1
1
1
1
1
1
1
1
1
1
1
1
1
1
1
1
1
1
1
1
1
1
1
1
1
1
1
1
1
1
1
1
1
1
1
1
1
1
1
1
1
1
1
1
1
1
1
1
1
1
1
1
1
1
1
1
1
1
1
1
1
1
1
1
1
1
1
1
1
1
1
1
1
1
1
1
1
1
1
1
1
1
1
1
1
1
1
1
1
1
1
1
1
1
1
1
1
1
1
1
1
1
1
1
1
1
1
1
1
1
1
1
1
1
1
1
1
1
1
1
1
1
1
1
1
1
1
1
1
1
1
1
1
1
1
1
1
1
1
1
1
1
1
1
1
1
1
1
1
1
1
1
1
1
1
1
1
1
1
1
1
1
1
1
1
1
1
1
1
1
1
1
1
1
1
1
1
1
1
1
1
1
1
1
1
1
1
1
1
1
1
1
1
1
1
1
1
1
1
1
1
1
1
1
1
1
1
1
1
1
1
1
1
1
1
1
1
1
1
1
1
1
1
1
1
1
1
1
1
1
1
1
1
1
1
1
1
1
1
1
1
1
1
1
1
1
1
1
1
1
1
1
1
1
1
1
1
1
1
1
1
1
1
1
1
1
1
1
1
1
1
1
1
1
1
1
1
1
1
1
1
1
1
1
1
1
1
1
1
1
1
1
1
1
1
1
1
1
1
1
1
1
1
1
1
1
1
1
1
1
1
1
1
1
1
1
1
1
1
1
1
1
1
1
1
1
1
1
1
1
1
1
1
1
1
1
1
1
1
1
1
1
1
1
1
1
1
1
1
1
1
1
1
1
1
1
1
1
1
1
1
1
1
1
1
1
1
1
1
1
1
1
1
1
1
1
1
1
1
1
1
1
1
1
1
1
1
1
1
1
1
1
1
1
1
1
1
1
1
1
1
1
1
1
1
1
1
1
1
1
1
1
1
1
1
1
1
1
        </DataArray>
      </PointData>
    </Piece>
  </StructuredGrid>
</VTKFile>
