<?xml version="1.0"?>
<VTKFile type="StructuredGrid" version="0.1" byte_order="LittleEndian">
  <StructuredGrid WholeExtent="0 9 0 9 0 9">
    <Piece Extent="0 9 -1 5 -1 5">
      <Points>
        <DataArray type="Float32" NumberOfComponents="3" format="ascii">
0 -0.1 -0.1
0.1 -0.1 -0.1
0.2 -0.1 -0.1
0.3 -0.1 -0.1
0.4 -0.1 -0.1
0.5 -0.1 -0.1
0.6 -0.1 -0.1
0.7 -0.1 -0.1
0.8 -0.1 -0.1
0.9 -0.1 -0.1
0 0 -0.1
0.1 0 -0.1
0.2 0 -0.1
0.3 0 -0.1
0.4 0 -0.1
0.5 0 -0.1
0.6 0 -0.1
0.7 0 -0.1
0.8 0 -0.1
0.9 0 -0.1
0 0.1 -0.1
0.1 0.1 -0.1
0.2 0.1 -0.1
0.3 0.1 -0.1
0.4 0.1 -0.1
0.5 0.1 -0.1
0.6 0.1 -0.1
0.7 0.1 -0.1
0.8 0.1 -0.1
0.9 0.1 -0.1
0 0.2 -0.1
0.1 0.2 -0.1
0.2 0.2 -0.1
0.3 0.2 -0.1
0.4 0.2 -0.1
0.5 0.2 -0.1
0.6 0.2 -0.1
0.7 0.2 -0.1
0.8 0.2 -0.1
0.9 0.2 -0.1
0 0.3 -0.1
0.1 0.3 -0.1
0.2 0.3 -0.1
0.3 0.3 -0.1
0.4 0.3 -0.1
0.5 0.3 -0.1
0.6 0.3 -0.1
0.7 0.3 -0.1
0.8 0.3 -0.1
0.9 0.3 -0.1
0 0.4 -0.1
0.1 0.4 -0.1
0.2 0.4 -0.1
0.3 0.4 -0.1
0.4 0.4 -0.1
0.5 0.4 -0.1
0.6 0.4 -0.1
0.7 0.4 -0.1
0.8 0.4 -0.1
0.9 0.4 -0.1
0 0.5 -0.1
0.1 0.5 -0.1
0.2 0.5 -0.1
0.3 0.5 -0.1
0.4 0.5 -0.1
0.5 0.5 -0.1
0.6 0.5 -0.1
0.7 0.5 -0.1
0.8 0.5 -0.1
0.9 0.5 -0.1
0 -0.1 0
0.1 -0.1 0
0.2 -0.1 0
0.3 -0.1 0
0.4 -0.1 0
0.5 -0.1 0
0.6 -0.1 0
0.7 -0.1 0
0.8 -0.1 0
0.9 -0.1 0
0 0 0
0.1 0 0
0.2 0 0
0.3 0 0
0.4 0 0
0.5 0 0
0.6 0 0
0.7 0 0
0.8 0 0
0.9 0 0
0 0.1 0
0.1 0.1 0
0.2 0.1 0
0.3 0.1 0
0.4 0.1 0
0.5 0.1 0
0.6 0.1 0
0.7 0.1 0
0.8 0.1 0
0.9 0.1 0
0 0.2 0
0.1 0.2 0
0.2 0.2 0
0.3 0.2 0
0.4 0.2 0
0.5 0.2 0
0.6 0.2 0
0.7 0.2 0
0.8 0.2 0
0.9 0.2 0
0 0.3 0
0.1 0.3 0
0.2 0.3 0
0.3 0.3 0
0.4 0.3 0
0.5 0.3 0
0.6 0.3 0
0.7 0.3 0
0.8 0.3 0
0.9 0.3 0
0 0.4 0
0.1 0.4 0
0.2 0.4 0
0.3 0.4 0
0.4 0.4 0
0.5 0.4 0
0.6 0.4 0
0.7 0.4 0
0.8 0.4 0
0.9 0.4 0
0 0.5 0
0.1 0.5 0
0.2 0.5 0
0.3 0.5 0
0.4 0.5 0
0.5 0.5 0
0.6 0.5 0
0.7 0.5 0
0.8 0.5 0
0.9 0.5 0
0 -0.1 0.1
0.1 -0.1 0.1
0.2 -0.1 0.1
0.3 -0.1 0.1
0.4 -0.1 0.1
0.5 -0.1 0.1
0.6 -0.1 0.1
0.7 -0.1 0.1
0.8 -0.1 0.1
0.9 -0.1 0.1
0 0 0.1
0.1 0 0.1
0.2 0 0.1
0.3 0 0.1
0.4 0 0.1
0.5 0 0.1
0.6 0 0.1
0.7 0 0.1
0.8 0 0.1
0.9 0 0.1
0 0.1 0.1
0.1 0.1 0.1
0.2 0.1 0.1
0.3 0.1 0.1
0.4 0.1 0.1
0.5 0.1 0.1
0.6 0.1 0.1
0.7 0.1 0.1
0.8 0.1 0.1
0.9 0.1 0.1
0 0.2 0.1
0.1 0.2 0.1
0.2 0.2 0.1
0.3 0.2 0.1
0.4 0.2 0.1
0.5 0.2 0.1
0.6 0.2 0.1
0.7 0.2 0.1
0.8 0.2 0.1
0.9 0.2 0.1
0 0.3 0.1
0.1 0.3 0.1
0.2 0.3 0.1
0.3 0.3 0.1
0.4 0.3 0.1
0.5 0.3 0.1
0.6 0.3 0.1
0.7 0.3 0.1
0.8 0.3 0.1
0.9 0.3 0.1
0 0.4 0.1
0.1 0.4 0.1
0.2 0.4 0.1
0.3 0.4 0.1
0.4 0.4 0.1
0.5 0.4 0.1
0.6 0.4 0.1
0.7 0.4 0.1
0.8 0.4 0.1
0.9 0.4 0.1
0 0.5 0.1
0.1 0.5 0.1
0.2 0.5 0.1
0.3 0.5 0.1
0.4 0.5 0.1
0.5 0.5 0.1
0.6 0.5 0.1
0.7 0.5 0.1
0.8 0.5 0.1
0.9 0.5 0.1
0 -0.1 0.2
0.1 -0.1 0.2
0.2 -0.1 0.2
0.3 -0.1 0.2
0.4 -0.1 0.2
0.5 -0.1 0.2
0.6 -0.1 0.2
0.7 -0.1 0.2
0.8 -0.1 0.2
0.9 -0.1 0.2
0 0 0.2
0.1 0 0.2
0.2 0 0.2
0.3 0 0.2
0.4 0 0.2
0.5 0 0.2
0.6 0 0.2
0.7 0 0.2
0.8 0 0.2
0.9 0 0.2
0 0.1 0.2
0.1 0.1 0.2
0.2 0.1 0.2
0.3 0.1 0.2
0.4 0.1 0.2
0.5 0.1 0.2
0.6 0.1 0.2
0.7 0.1 0.2
0.8 0.1 0.2
0.9 0.1 0.2
0 0.2 0.2
0.1 0.2 0.2
0.2 0.2 0.2
0.3 0.2 0.2
0.4 0.2 0.2
0.5 0.2 0.2
0.6 0.2 0.2
0.7 0.2 0.2
0.8 0.2 0.2
0.9 0.2 0.2
0 0.3 0.2
0.1 0.3 0.2
0.2 0.3 0.2
0.3 0.3 0.2
0.4 0.3 0.2
0.5 0.3 0.2
0.6 0.3 0.2
0.7 0.3 0.2
0.8 0.3 0.2
0.9 0.3 0.2
0 0.4 0.2
0.1 0.4 0.2
0.2 0.4 0.2
0.3 0.4 0.2
0.4 0.4 0.2
0.5 0.4 0.2
0.6 0.4 0.2
0.7 0.4 0.2
0.8 0.4 0.2
0.9 0.4 0.2
0 0.5 0.2
0.1 0.5 0.2
0.2 0.5 0.2
0.3 0.5 0.2
0.4 0.5 0.2
0.5 0.5 0.2
0.6 0.5 0.2
0.7 0.5 0.2
0.8 0.5 0.2
0.9 0.5 0.2
0 -0.1 0.3
0.1 -0.1 0.3
0.2 -0.1 0.3
0.3 -0.1 0.3
0.4 -0.1 0.3
0.5 -0.1 0.3
0.6 -0.1 0.3
0.7 -0.1 0.3
0.8 -0.1 0.3
0.9 -0.1 0.3
0 0 0.3
0.1 0 0.3
0.2 0 0.3
0.3 0 0.3
0.4 0 0.3
0.5 0 0.3
0.6 0 0.3
0.7 0 0.3
0.8 0 0.3
0.9 0 0.3
0 0.1 0.3
0.1 0.1 0.3
0.2 0.1 0.3
0.3 0.1 0.3
0.4 0.1 0.3
0.5 0.1 0.3
0.6 0.1 0.3
0.7 0.1 0.3
0.8 0.1 0.3
0.9 0.1 0.3
0 0.2 0.3
0.1 0.2 0.3
0.2 0.2 0.3
0.3 0.2 0.3
0.4 0.2 0.3
0.5 0.2 0.3
0.6 0.2 0.3
0.7 0.2 0.3
0.8 0.2 0.3
0.9 0.2 0.3
0 0.3 0.3
0.1 0.3 0.3
0.2 0.3 0.3
0.3 0.3 0.3
0.4 0.3 0.3
0.5 0.3 0.3
0.6 0.3 0.3
0.7 0.3 0.3
0.8 0.3 0.3
0.9 0.3 0.3
0 0.4 0.3
0.1 0.4 0.3
0.2 0.4 0.3
0.3 0.4 0.3
0.4 0.4 0.3
0.5 0.4 0.3
0.6 0.4 0.3
0.7 0.4 0.3
0.8 0.4 0.3
0.9 0.4 0.3
0 0.5 0.3
0.1 0.5 0.3
0.2 0.5 0.3
0.3 0.5 0.3
0.4 0.5 0.3
0.5 0.5 0.3
0.6 0.5 0.3
0.7 0.5 0.3
0.8 0.5 0.3
0.9 0.5 0.3
0 -0.1 0.4
0.1 -0.1 0.4
0.2 -0.1 0.4
0.3 -0.1 0.4
0.4 -0.1 0.4
0.5 -0.1 0.4
0.6 -0.1 0.4
0.7 -0.1 0.4
0.8 -0.1 0.4
0.9 -0.1 0.4
0 0 0.4
0.1 0 0.4
0.2 0 0.4
0.3 0 0.4
0.4 0 0.4
0.5 0 0.4
0.6 0 0.4
0.7 0 0.4
0.8 0 0.4
0.9 0 0.4
0 0.1 0.4
0.1 0.1 0.4
0.2 0.1 0.4
0.3 0.1 0.4
0.4 0.1 0.4
0.5 0.1 0.4
0.6 0.1 0.4
0.7 0.1 0.4
0.8 0.1 0.4
0.9 0.1 0.4
0 0.2 0.4
0.1 0.2 0.4
0.2 0.2 0.4
0.3 0.2 0.4
0.4 0.2 0.4
0.5 0.2 0.4
0.6 0.2 0.4
0.7 0.2 0.4
0.8 0.2 0.4
0.9 0.2 0.4
0 0.3 0.4
0.1 0.3 0.4
0.2 0.3 0.4
0.3 0.3 0.4
0.4 0.3 0.4
0.5 0.3 0.4
0.6 0.3 0.4
0.7 0.3 0.4
0.8 0.3 0.4
0.9 0.3 0.4
0 0.4 0.4
0.1 0.4 0.4
0.2 0.4 0.4
0.3 0.4 0.4
0.4 0.4 0.4
0.5 0.4 0.4
0.6 0.4 0.4
0.7 0.4 0.4
0.8 0.4 0.4
0.9 0.4 0.4
0 0.5 0.4
0.1 0.5 0.4
0.2 0.5 0.4
0.3 0.5 0.4
0.4 0.5 0.4
0.5 0.5 0.4
0.6 0.5 0.4
0.7 0.5 0.4
0.8 0.5 0.4
0.9 0.5 0.4
0 -0.1 0.5
0.1 -0.1 0.5
0.2 -0.1 0.5
0.3 -0.1 0.5
0.4 -0.1 0.5
0.5 -0.1 0.5
0.6 -0.1 0.5
0.7 -0.1 0.5
0.8 -0.1 0.5
0.9 -0.1 0.5
0 0 0.5
0.1 0 0.5
0.2 0 0.5
0.3 0 0.5
0.4 0 0.5
0.5 0 0.5
0.6 0 0.5
0.7 0 0.5
0.8 0 0.5
0.9 0 0.5
0 0.1 0.5
0.1 0.1 0.5
0.2 0.1 0.5
0.3 0.1 0.5
0.4 0.1 0.5
0.5 0.1 0.5
0.6 0.1 0.5
0.7 0.1 0.5
0.8 0.1 0.5
0.9 0.1 0.5
0 0.2 0.5
0.1 0.2 0.5
0.2 0.2 0.5
0.3 0.2 0.5
0.4 0.2 0.5
0.5 0.2 0.5
0.6 0.2 0.5
0.7 0.2 0.5
0.8 0.2 0.5
0.9 0.2 0.5
0 0.3 0.5
0.1 0.3 0.5
0.2 0.3 0.5
0.3 0.3 0.5
0.4 0.3 0.5
0.5 0.3 0.5
0.6 0.3 0.5
0.7 0.3 0.5
0.8 0.3 0.5
0.9 0.3 0.5
0 0.4 0.5
0.1 0.4 0.5
0.2 0.4 0.5
0.3 0.4 0.5
0.4 0.4 0.5
0.5 0.4 0.5
0.6 0.4 0.5
0.7 0.4 0.5
0.8 0.4 0.5
0.9 0.4 0.5
0 0.5 0.5
0.1 0.5 0.5
0.2 0.5 0.5
0.3 0.5 0.5
0.4 0.5 0.5
0.5 0.5 0.5
0.6 0.5 0.5
0.7 0.5 0.5
0.8 0.5 0.5
0.9 0.5 0.5
        </DataArray>
      </Points>
      <PointData Scalars="scalar">
        <DataArray Name="scalar" type="Float32" format="ascii">
0
0
0
0
0
0
0
0
0
0
0
0
0
0
0
0
0
0
0
0
0
0
0
0
0
0
0
0
0
0
0
0
0
0
0
0
0
0
0
0
0
0
0
0
0
0
0
0
0
0
0
0
0
0
0
0
0
0
0
0
0
0
0
0
0
0
0
0
0
0
0
0
0
0
0
0
0
0
0
0
0
0.000995011
0.00198008
0.00294536
0.00388122
0.0047783
0.00562763
0.00642073
0.00714968
0
0
0.00198008
0.00394038
0.0058613
0.00772366
0.00950885
0.011199
0.0127773
0.0142279
0
0
0.00294536
0.0058613
0.00871867
0.0114889
0.0141444
0.0166585
0.0190062
0.021164
0
0
0.00388122
0.00772366
0.0114889
0.0151394
0.0186386
0.0219516
0.0250452
0.0278886
0
0
0.0047783
0.00950885
0.0141444
0.0186386
0.0229466
0.0270253
0.030834
0.0343346
0
0
0
0
0
0
0
0
0
0
0
0
0
0
0
0
0
0
0
0
0
0
0.00198008
0.00394038
0.0058613
0.00772366
0.00950885
0.011199
0.0127773
0.0142279
0
0
0.00394038
0.00784138
0.011664
0.0153701
0.0189227
0.0222862
0.025427
0.0283137
0
0
0.0058613
0.011664
0.0173502
0.0228631
0.0281475
0.0331506
0.0378225
0.0421166
0
0
0.00772366
0.0153701
0.0228631
0.0301275
0.037091
0.0436838
0.0498402
0.0554986
0
0
0.00950885
0.0189227
0.0281475
0.037091
0.0456639
0.0537806
0.0613599
0.0683261
0
0
0
0
0
0
0
0
0
0
0
0
0
0
0
0
0
0
0
0
0
0
0.00294536
0.0058613
0.00871867
0.0114889
0.0141444
0.0166585
0.0190062
0.021164
0
0
0.0058613
0.011664
0.0173502
0.0228631
0.0281475
0.0331506
0.0378225
0.0421166
0
0
0.00871867
0.0173502
0.0258084
0.0340088
0.0418693
0.0493115
0.0562609
0.0626483
0
0
0.0114889
0.0228631
0.0340088
0.0448146
0.0551728
0.0649796
0.0741372
0.082554
0
0
0.0141444
0.0281475
0.0418693
0.0551728
0.067925
0.0799985
0.0912727
0.101635
0
0
0
0
0
0
0
0
0
0
0
0
0
0
0
0
0
0
0
0
0
0
0.00388122
0.00772366
0.0114889
0.0151394
0.0186386
0.0219516
0.0250452
0.0278886
0
0
0.00772366
0.0153701
0.0228631
0.0301275
0.037091
0.0436838
0.0498402
0.0554986
0
0
0.0114889
0.0228631
0.0340088
0.0448146
0.0551728
0.0649796
0.0741372
0.082554
0
0
0.0151394
0.0301275
0.0448146
0.059054
0.0727033
0.0856261
0.0976935
0.108785
0
0
0.0186386
0.037091
0.0551728
0.0727033
0.0895074
0.105417
0.120274
0.133928
0
0
0
0
0
0
0
0
0
0
0
0
0
0
0
0
0
0
0
0
0
0
0.0047783
0.00950885
0.0141444
0.0186386
0.0229466
0.0270253
0.030834
0.0343346
0
0
0.00950885
0.0189227
0.0281475
0.037091
0.0456639
0.0537806
0.0613599
0.0683261
0
0
0.0141444
0.0281475
0.0418693
0.0551728
0.067925
0.0799985
0.0912727
0.101635
0
0
0.0186386
0.037091
0.0551728
0.0727033
0.0895074
0.105417
0.120274
0.133928
0
0
0.0229466
0.0456639
0.067925
0.0895074
0.110195
0.129782
0.148073
0.164883
0
0
0
0
0
0
0
0
0
0
0
0
0
0
0
0
0
0
0
0
0
0
0
0
0
0
0
0
0
0
0
0
0
0
0
0
0
0
0
0
0
0
0
0
0
0
0
0
0
0
0
0
0
0
0
0
0
0
0
0
0
0
0
0
0
0
0
0
0
0
0
0
0
0
0
0
0
0
0
0
0
        </DataArray>
      </PointData>
    </Piece>
  </StructuredGrid>
</VTKFile>
