<?xml version="1.0"?>
<VTKFile type="StructuredGrid" version="0.1" byte_order="LittleEndian">
  <StructuredGrid WholeExtent="0 3 0 99 0 99">
    <Piece Extent="0 3 32 66 0 33">
      <Points>
        <DataArray type="Float32" NumberOfComponents="3" format="ascii">
0 32 0
1 32 0
2 32 0
3 32 0
0 33 0
1 33 0
2 33 0
3 33 0
0 34 0
1 34 0
2 34 0
3 34 0
0 35 0
1 35 0
2 35 0
3 35 0
0 36 0
1 36 0
2 36 0
3 36 0
0 37 0
1 37 0
2 37 0
3 37 0
0 38 0
1 38 0
2 38 0
3 38 0
0 39 0
1 39 0
2 39 0
3 39 0
0 40 0
1 40 0
2 40 0
3 40 0
0 41 0
1 41 0
2 41 0
3 41 0
0 42 0
1 42 0
2 42 0
3 42 0
0 43 0
1 43 0
2 43 0
3 43 0
0 44 0
1 44 0
2 44 0
3 44 0
0 45 0
1 45 0
2 45 0
3 45 0
0 46 0
1 46 0
2 46 0
3 46 0
0 47 0
1 47 0
2 47 0
3 47 0
0 48 0
1 48 0
2 48 0
3 48 0
0 49 0
1 49 0
2 49 0
3 49 0
0 50 0
1 50 0
2 50 0
3 50 0
0 51 0
1 51 0
2 51 0
3 51 0
0 52 0
1 52 0
2 52 0
3 52 0
0 53 0
1 53 0
2 53 0
3 53 0
0 54 0
1 54 0
2 54 0
3 54 0
0 55 0
1 55 0
2 55 0
3 55 0
0 56 0
1 56 0
2 56 0
3 56 0
0 57 0
1 57 0
2 57 0
3 57 0
0 58 0
1 58 0
2 58 0
3 58 0
0 59 0
1 59 0
2 59 0
3 59 0
0 60 0
1 60 0
2 60 0
3 60 0
0 61 0
1 61 0
2 61 0
3 61 0
0 62 0
1 62 0
2 62 0
3 62 0
0 63 0
1 63 0
2 63 0
3 63 0
0 64 0
1 64 0
2 64 0
3 64 0
0 65 0
1 65 0
2 65 0
3 65 0
0 66 0
1 66 0
2 66 0
3 66 0
0 32 1
1 32 1
2 32 1
3 32 1
0 33 1
1 33 1
2 33 1
3 33 1
0 34 1
1 34 1
2 34 1
3 34 1
0 35 1
1 35 1
2 35 1
3 35 1
0 36 1
1 36 1
2 36 1
3 36 1
0 37 1
1 37 1
2 37 1
3 37 1
0 38 1
1 38 1
2 38 1
3 38 1
0 39 1
1 39 1
2 39 1
3 39 1
0 40 1
1 40 1
2 40 1
3 40 1
0 41 1
1 41 1
2 41 1
3 41 1
0 42 1
1 42 1
2 42 1
3 42 1
0 43 1
1 43 1
2 43 1
3 43 1
0 44 1
1 44 1
2 44 1
3 44 1
0 45 1
1 45 1
2 45 1
3 45 1
0 46 1
1 46 1
2 46 1
3 46 1
0 47 1
1 47 1
2 47 1
3 47 1
0 48 1
1 48 1
2 48 1
3 48 1
0 49 1
1 49 1
2 49 1
3 49 1
0 50 1
1 50 1
2 50 1
3 50 1
0 51 1
1 51 1
2 51 1
3 51 1
0 52 1
1 52 1
2 52 1
3 52 1
0 53 1
1 53 1
2 53 1
3 53 1
0 54 1
1 54 1
2 54 1
3 54 1
0 55 1
1 55 1
2 55 1
3 55 1
0 56 1
1 56 1
2 56 1
3 56 1
0 57 1
1 57 1
2 57 1
3 57 1
0 58 1
1 58 1
2 58 1
3 58 1
0 59 1
1 59 1
2 59 1
3 59 1
0 60 1
1 60 1
2 60 1
3 60 1
0 61 1
1 61 1
2 61 1
3 61 1
0 62 1
1 62 1
2 62 1
3 62 1
0 63 1
1 63 1
2 63 1
3 63 1
0 64 1
1 64 1
2 64 1
3 64 1
0 65 1
1 65 1
2 65 1
3 65 1
0 66 1
1 66 1
2 66 1
3 66 1
0 32 2
1 32 2
2 32 2
3 32 2
0 33 2
1 33 2
2 33 2
3 33 2
0 34 2
1 34 2
2 34 2
3 34 2
0 35 2
1 35 2
2 35 2
3 35 2
0 36 2
1 36 2
2 36 2
3 36 2
0 37 2
1 37 2
2 37 2
3 37 2
0 38 2
1 38 2
2 38 2
3 38 2
0 39 2
1 39 2
2 39 2
3 39 2
0 40 2
1 40 2
2 40 2
3 40 2
0 41 2
1 41 2
2 41 2
3 41 2
0 42 2
1 42 2
2 42 2
3 42 2
0 43 2
1 43 2
2 43 2
3 43 2
0 44 2
1 44 2
2 44 2
3 44 2
0 45 2
1 45 2
2 45 2
3 45 2
0 46 2
1 46 2
2 46 2
3 46 2
0 47 2
1 47 2
2 47 2
3 47 2
0 48 2
1 48 2
2 48 2
3 48 2
0 49 2
1 49 2
2 49 2
3 49 2
0 50 2
1 50 2
2 50 2
3 50 2
0 51 2
1 51 2
2 51 2
3 51 2
0 52 2
1 52 2
2 52 2
3 52 2
0 53 2
1 53 2
2 53 2
3 53 2
0 54 2
1 54 2
2 54 2
3 54 2
0 55 2
1 55 2
2 55 2
3 55 2
0 56 2
1 56 2
2 56 2
3 56 2
0 57 2
1 57 2
2 57 2
3 57 2
0 58 2
1 58 2
2 58 2
3 58 2
0 59 2
1 59 2
2 59 2
3 59 2
0 60 2
1 60 2
2 60 2
3 60 2
0 61 2
1 61 2
2 61 2
3 61 2
0 62 2
1 62 2
2 62 2
3 62 2
0 63 2
1 63 2
2 63 2
3 63 2
0 64 2
1 64 2
2 64 2
3 64 2
0 65 2
1 65 2
2 65 2
3 65 2
0 66 2
1 66 2
2 66 2
3 66 2
0 32 3
1 32 3
2 32 3
3 32 3
0 33 3
1 33 3
2 33 3
3 33 3
0 34 3
1 34 3
2 34 3
3 34 3
0 35 3
1 35 3
2 35 3
3 35 3
0 36 3
1 36 3
2 36 3
3 36 3
0 37 3
1 37 3
2 37 3
3 37 3
0 38 3
1 38 3
2 38 3
3 38 3
0 39 3
1 39 3
2 39 3
3 39 3
0 40 3
1 40 3
2 40 3
3 40 3
0 41 3
1 41 3
2 41 3
3 41 3
0 42 3
1 42 3
2 42 3
3 42 3
0 43 3
1 43 3
2 43 3
3 43 3
0 44 3
1 44 3
2 44 3
3 44 3
0 45 3
1 45 3
2 45 3
3 45 3
0 46 3
1 46 3
2 46 3
3 46 3
0 47 3
1 47 3
2 47 3
3 47 3
0 48 3
1 48 3
2 48 3
3 48 3
0 49 3
1 49 3
2 49 3
3 49 3
0 50 3
1 50 3
2 50 3
3 50 3
0 51 3
1 51 3
2 51 3
3 51 3
0 52 3
1 52 3
2 52 3
3 52 3
0 53 3
1 53 3
2 53 3
3 53 3
0 54 3
1 54 3
2 54 3
3 54 3
0 55 3
1 55 3
2 55 3
3 55 3
0 56 3
1 56 3
2 56 3
3 56 3
0 57 3
1 57 3
2 57 3
3 57 3
0 58 3
1 58 3
2 58 3
3 58 3
0 59 3
1 59 3
2 59 3
3 59 3
0 60 3
1 60 3
2 60 3
3 60 3
0 61 3
1 61 3
2 61 3
3 61 3
0 62 3
1 62 3
2 62 3
3 62 3
0 63 3
1 63 3
2 63 3
3 63 3
0 64 3
1 64 3
2 64 3
3 64 3
0 65 3
1 65 3
2 65 3
3 65 3
0 66 3
1 66 3
2 66 3
3 66 3
0 32 4
1 32 4
2 32 4
3 32 4
0 33 4
1 33 4
2 33 4
3 33 4
0 34 4
1 34 4
2 34 4
3 34 4
0 35 4
1 35 4
2 35 4
3 35 4
0 36 4
1 36 4
2 36 4
3 36 4
0 37 4
1 37 4
2 37 4
3 37 4
0 38 4
1 38 4
2 38 4
3 38 4
0 39 4
1 39 4
2 39 4
3 39 4
0 40 4
1 40 4
2 40 4
3 40 4
0 41 4
1 41 4
2 41 4
3 41 4
0 42 4
1 42 4
2 42 4
3 42 4
0 43 4
1 43 4
2 43 4
3 43 4
0 44 4
1 44 4
2 44 4
3 44 4
0 45 4
1 45 4
2 45 4
3 45 4
0 46 4
1 46 4
2 46 4
3 46 4
0 47 4
1 47 4
2 47 4
3 47 4
0 48 4
1 48 4
2 48 4
3 48 4
0 49 4
1 49 4
2 49 4
3 49 4
0 50 4
1 50 4
2 50 4
3 50 4
0 51 4
1 51 4
2 51 4
3 51 4
0 52 4
1 52 4
2 52 4
3 52 4
0 53 4
1 53 4
2 53 4
3 53 4
0 54 4
1 54 4
2 54 4
3 54 4
0 55 4
1 55 4
2 55 4
3 55 4
0 56 4
1 56 4
2 56 4
3 56 4
0 57 4
1 57 4
2 57 4
3 57 4
0 58 4
1 58 4
2 58 4
3 58 4
0 59 4
1 59 4
2 59 4
3 59 4
0 60 4
1 60 4
2 60 4
3 60 4
0 61 4
1 61 4
2 61 4
3 61 4
0 62 4
1 62 4
2 62 4
3 62 4
0 63 4
1 63 4
2 63 4
3 63 4
0 64 4
1 64 4
2 64 4
3 64 4
0 65 4
1 65 4
2 65 4
3 65 4
0 66 4
1 66 4
2 66 4
3 66 4
0 32 5
1 32 5
2 32 5
3 32 5
0 33 5
1 33 5
2 33 5
3 33 5
0 34 5
1 34 5
2 34 5
3 34 5
0 35 5
1 35 5
2 35 5
3 35 5
0 36 5
1 36 5
2 36 5
3 36 5
0 37 5
1 37 5
2 37 5
3 37 5
0 38 5
1 38 5
2 38 5
3 38 5
0 39 5
1 39 5
2 39 5
3 39 5
0 40 5
1 40 5
2 40 5
3 40 5
0 41 5
1 41 5
2 41 5
3 41 5
0 42 5
1 42 5
2 42 5
3 42 5
0 43 5
1 43 5
2 43 5
3 43 5
0 44 5
1 44 5
2 44 5
3 44 5
0 45 5
1 45 5
2 45 5
3 45 5
0 46 5
1 46 5
2 46 5
3 46 5
0 47 5
1 47 5
2 47 5
3 47 5
0 48 5
1 48 5
2 48 5
3 48 5
0 49 5
1 49 5
2 49 5
3 49 5
0 50 5
1 50 5
2 50 5
3 50 5
0 51 5
1 51 5
2 51 5
3 51 5
0 52 5
1 52 5
2 52 5
3 52 5
0 53 5
1 53 5
2 53 5
3 53 5
0 54 5
1 54 5
2 54 5
3 54 5
0 55 5
1 55 5
2 55 5
3 55 5
0 56 5
1 56 5
2 56 5
3 56 5
0 57 5
1 57 5
2 57 5
3 57 5
0 58 5
1 58 5
2 58 5
3 58 5
0 59 5
1 59 5
2 59 5
3 59 5
0 60 5
1 60 5
2 60 5
3 60 5
0 61 5
1 61 5
2 61 5
3 61 5
0 62 5
1 62 5
2 62 5
3 62 5
0 63 5
1 63 5
2 63 5
3 63 5
0 64 5
1 64 5
2 64 5
3 64 5
0 65 5
1 65 5
2 65 5
3 65 5
0 66 5
1 66 5
2 66 5
3 66 5
0 32 6
1 32 6
2 32 6
3 32 6
0 33 6
1 33 6
2 33 6
3 33 6
0 34 6
1 34 6
2 34 6
3 34 6
0 35 6
1 35 6
2 35 6
3 35 6
0 36 6
1 36 6
2 36 6
3 36 6
0 37 6
1 37 6
2 37 6
3 37 6
0 38 6
1 38 6
2 38 6
3 38 6
0 39 6
1 39 6
2 39 6
3 39 6
0 40 6
1 40 6
2 40 6
3 40 6
0 41 6
1 41 6
2 41 6
3 41 6
0 42 6
1 42 6
2 42 6
3 42 6
0 43 6
1 43 6
2 43 6
3 43 6
0 44 6
1 44 6
2 44 6
3 44 6
0 45 6
1 45 6
2 45 6
3 45 6
0 46 6
1 46 6
2 46 6
3 46 6
0 47 6
1 47 6
2 47 6
3 47 6
0 48 6
1 48 6
2 48 6
3 48 6
0 49 6
1 49 6
2 49 6
3 49 6
0 50 6
1 50 6
2 50 6
3 50 6
0 51 6
1 51 6
2 51 6
3 51 6
0 52 6
1 52 6
2 52 6
3 52 6
0 53 6
1 53 6
2 53 6
3 53 6
0 54 6
1 54 6
2 54 6
3 54 6
0 55 6
1 55 6
2 55 6
3 55 6
0 56 6
1 56 6
2 56 6
3 56 6
0 57 6
1 57 6
2 57 6
3 57 6
0 58 6
1 58 6
2 58 6
3 58 6
0 59 6
1 59 6
2 59 6
3 59 6
0 60 6
1 60 6
2 60 6
3 60 6
0 61 6
1 61 6
2 61 6
3 61 6
0 62 6
1 62 6
2 62 6
3 62 6
0 63 6
1 63 6
2 63 6
3 63 6
0 64 6
1 64 6
2 64 6
3 64 6
0 65 6
1 65 6
2 65 6
3 65 6
0 66 6
1 66 6
2 66 6
3 66 6
0 32 7
1 32 7
2 32 7
3 32 7
0 33 7
1 33 7
2 33 7
3 33 7
0 34 7
1 34 7
2 34 7
3 34 7
0 35 7
1 35 7
2 35 7
3 35 7
0 36 7
1 36 7
2 36 7
3 36 7
0 37 7
1 37 7
2 37 7
3 37 7
0 38 7
1 38 7
2 38 7
3 38 7
0 39 7
1 39 7
2 39 7
3 39 7
0 40 7
1 40 7
2 40 7
3 40 7
0 41 7
1 41 7
2 41 7
3 41 7
0 42 7
1 42 7
2 42 7
3 42 7
0 43 7
1 43 7
2 43 7
3 43 7
0 44 7
1 44 7
2 44 7
3 44 7
0 45 7
1 45 7
2 45 7
3 45 7
0 46 7
1 46 7
2 46 7
3 46 7
0 47 7
1 47 7
2 47 7
3 47 7
0 48 7
1 48 7
2 48 7
3 48 7
0 49 7
1 49 7
2 49 7
3 49 7
0 50 7
1 50 7
2 50 7
3 50 7
0 51 7
1 51 7
2 51 7
3 51 7
0 52 7
1 52 7
2 52 7
3 52 7
0 53 7
1 53 7
2 53 7
3 53 7
0 54 7
1 54 7
2 54 7
3 54 7
0 55 7
1 55 7
2 55 7
3 55 7
0 56 7
1 56 7
2 56 7
3 56 7
0 57 7
1 57 7
2 57 7
3 57 7
0 58 7
1 58 7
2 58 7
3 58 7
0 59 7
1 59 7
2 59 7
3 59 7
0 60 7
1 60 7
2 60 7
3 60 7
0 61 7
1 61 7
2 61 7
3 61 7
0 62 7
1 62 7
2 62 7
3 62 7
0 63 7
1 63 7
2 63 7
3 63 7
0 64 7
1 64 7
2 64 7
3 64 7
0 65 7
1 65 7
2 65 7
3 65 7
0 66 7
1 66 7
2 66 7
3 66 7
0 32 8
1 32 8
2 32 8
3 32 8
0 33 8
1 33 8
2 33 8
3 33 8
0 34 8
1 34 8
2 34 8
3 34 8
0 35 8
1 35 8
2 35 8
3 35 8
0 36 8
1 36 8
2 36 8
3 36 8
0 37 8
1 37 8
2 37 8
3 37 8
0 38 8
1 38 8
2 38 8
3 38 8
0 39 8
1 39 8
2 39 8
3 39 8
0 40 8
1 40 8
2 40 8
3 40 8
0 41 8
1 41 8
2 41 8
3 41 8
0 42 8
1 42 8
2 42 8
3 42 8
0 43 8
1 43 8
2 43 8
3 43 8
0 44 8
1 44 8
2 44 8
3 44 8
0 45 8
1 45 8
2 45 8
3 45 8
0 46 8
1 46 8
2 46 8
3 46 8
0 47 8
1 47 8
2 47 8
3 47 8
0 48 8
1 48 8
2 48 8
3 48 8
0 49 8
1 49 8
2 49 8
3 49 8
0 50 8
1 50 8
2 50 8
3 50 8
0 51 8
1 51 8
2 51 8
3 51 8
0 52 8
1 52 8
2 52 8
3 52 8
0 53 8
1 53 8
2 53 8
3 53 8
0 54 8
1 54 8
2 54 8
3 54 8
0 55 8
1 55 8
2 55 8
3 55 8
0 56 8
1 56 8
2 56 8
3 56 8
0 57 8
1 57 8
2 57 8
3 57 8
0 58 8
1 58 8
2 58 8
3 58 8
0 59 8
1 59 8
2 59 8
3 59 8
0 60 8
1 60 8
2 60 8
3 60 8
0 61 8
1 61 8
2 61 8
3 61 8
0 62 8
1 62 8
2 62 8
3 62 8
0 63 8
1 63 8
2 63 8
3 63 8
0 64 8
1 64 8
2 64 8
3 64 8
0 65 8
1 65 8
2 65 8
3 65 8
0 66 8
1 66 8
2 66 8
3 66 8
0 32 9
1 32 9
2 32 9
3 32 9
0 33 9
1 33 9
2 33 9
3 33 9
0 34 9
1 34 9
2 34 9
3 34 9
0 35 9
1 35 9
2 35 9
3 35 9
0 36 9
1 36 9
2 36 9
3 36 9
0 37 9
1 37 9
2 37 9
3 37 9
0 38 9
1 38 9
2 38 9
3 38 9
0 39 9
1 39 9
2 39 9
3 39 9
0 40 9
1 40 9
2 40 9
3 40 9
0 41 9
1 41 9
2 41 9
3 41 9
0 42 9
1 42 9
2 42 9
3 42 9
0 43 9
1 43 9
2 43 9
3 43 9
0 44 9
1 44 9
2 44 9
3 44 9
0 45 9
1 45 9
2 45 9
3 45 9
0 46 9
1 46 9
2 46 9
3 46 9
0 47 9
1 47 9
2 47 9
3 47 9
0 48 9
1 48 9
2 48 9
3 48 9
0 49 9
1 49 9
2 49 9
3 49 9
0 50 9
1 50 9
2 50 9
3 50 9
0 51 9
1 51 9
2 51 9
3 51 9
0 52 9
1 52 9
2 52 9
3 52 9
0 53 9
1 53 9
2 53 9
3 53 9
0 54 9
1 54 9
2 54 9
3 54 9
0 55 9
1 55 9
2 55 9
3 55 9
0 56 9
1 56 9
2 56 9
3 56 9
0 57 9
1 57 9
2 57 9
3 57 9
0 58 9
1 58 9
2 58 9
3 58 9
0 59 9
1 59 9
2 59 9
3 59 9
0 60 9
1 60 9
2 60 9
3 60 9
0 61 9
1 61 9
2 61 9
3 61 9
0 62 9
1 62 9
2 62 9
3 62 9
0 63 9
1 63 9
2 63 9
3 63 9
0 64 9
1 64 9
2 64 9
3 64 9
0 65 9
1 65 9
2 65 9
3 65 9
0 66 9
1 66 9
2 66 9
3 66 9
0 32 10
1 32 10
2 32 10
3 32 10
0 33 10
1 33 10
2 33 10
3 33 10
0 34 10
1 34 10
2 34 10
3 34 10
0 35 10
1 35 10
2 35 10
3 35 10
0 36 10
1 36 10
2 36 10
3 36 10
0 37 10
1 37 10
2 37 10
3 37 10
0 38 10
1 38 10
2 38 10
3 38 10
0 39 10
1 39 10
2 39 10
3 39 10
0 40 10
1 40 10
2 40 10
3 40 10
0 41 10
1 41 10
2 41 10
3 41 10
0 42 10
1 42 10
2 42 10
3 42 10
0 43 10
1 43 10
2 43 10
3 43 10
0 44 10
1 44 10
2 44 10
3 44 10
0 45 10
1 45 10
2 45 10
3 45 10
0 46 10
1 46 10
2 46 10
3 46 10
0 47 10
1 47 10
2 47 10
3 47 10
0 48 10
1 48 10
2 48 10
3 48 10
0 49 10
1 49 10
2 49 10
3 49 10
0 50 10
1 50 10
2 50 10
3 50 10
0 51 10
1 51 10
2 51 10
3 51 10
0 52 10
1 52 10
2 52 10
3 52 10
0 53 10
1 53 10
2 53 10
3 53 10
0 54 10
1 54 10
2 54 10
3 54 10
0 55 10
1 55 10
2 55 10
3 55 10
0 56 10
1 56 10
2 56 10
3 56 10
0 57 10
1 57 10
2 57 10
3 57 10
0 58 10
1 58 10
2 58 10
3 58 10
0 59 10
1 59 10
2 59 10
3 59 10
0 60 10
1 60 10
2 60 10
3 60 10
0 61 10
1 61 10
2 61 10
3 61 10
0 62 10
1 62 10
2 62 10
3 62 10
0 63 10
1 63 10
2 63 10
3 63 10
0 64 10
1 64 10
2 64 10
3 64 10
0 65 10
1 65 10
2 65 10
3 65 10
0 66 10
1 66 10
2 66 10
3 66 10
0 32 11
1 32 11
2 32 11
3 32 11
0 33 11
1 33 11
2 33 11
3 33 11
0 34 11
1 34 11
2 34 11
3 34 11
0 35 11
1 35 11
2 35 11
3 35 11
0 36 11
1 36 11
2 36 11
3 36 11
0 37 11
1 37 11
2 37 11
3 37 11
0 38 11
1 38 11
2 38 11
3 38 11
0 39 11
1 39 11
2 39 11
3 39 11
0 40 11
1 40 11
2 40 11
3 40 11
0 41 11
1 41 11
2 41 11
3 41 11
0 42 11
1 42 11
2 42 11
3 42 11
0 43 11
1 43 11
2 43 11
3 43 11
0 44 11
1 44 11
2 44 11
3 44 11
0 45 11
1 45 11
2 45 11
3 45 11
0 46 11
1 46 11
2 46 11
3 46 11
0 47 11
1 47 11
2 47 11
3 47 11
0 48 11
1 48 11
2 48 11
3 48 11
0 49 11
1 49 11
2 49 11
3 49 11
0 50 11
1 50 11
2 50 11
3 50 11
0 51 11
1 51 11
2 51 11
3 51 11
0 52 11
1 52 11
2 52 11
3 52 11
0 53 11
1 53 11
2 53 11
3 53 11
0 54 11
1 54 11
2 54 11
3 54 11
0 55 11
1 55 11
2 55 11
3 55 11
0 56 11
1 56 11
2 56 11
3 56 11
0 57 11
1 57 11
2 57 11
3 57 11
0 58 11
1 58 11
2 58 11
3 58 11
0 59 11
1 59 11
2 59 11
3 59 11
0 60 11
1 60 11
2 60 11
3 60 11
0 61 11
1 61 11
2 61 11
3 61 11
0 62 11
1 62 11
2 62 11
3 62 11
0 63 11
1 63 11
2 63 11
3 63 11
0 64 11
1 64 11
2 64 11
3 64 11
0 65 11
1 65 11
2 65 11
3 65 11
0 66 11
1 66 11
2 66 11
3 66 11
0 32 12
1 32 12
2 32 12
3 32 12
0 33 12
1 33 12
2 33 12
3 33 12
0 34 12
1 34 12
2 34 12
3 34 12
0 35 12
1 35 12
2 35 12
3 35 12
0 36 12
1 36 12
2 36 12
3 36 12
0 37 12
1 37 12
2 37 12
3 37 12
0 38 12
1 38 12
2 38 12
3 38 12
0 39 12
1 39 12
2 39 12
3 39 12
0 40 12
1 40 12
2 40 12
3 40 12
0 41 12
1 41 12
2 41 12
3 41 12
0 42 12
1 42 12
2 42 12
3 42 12
0 43 12
1 43 12
2 43 12
3 43 12
0 44 12
1 44 12
2 44 12
3 44 12
0 45 12
1 45 12
2 45 12
3 45 12
0 46 12
1 46 12
2 46 12
3 46 12
0 47 12
1 47 12
2 47 12
3 47 12
0 48 12
1 48 12
2 48 12
3 48 12
0 49 12
1 49 12
2 49 12
3 49 12
0 50 12
1 50 12
2 50 12
3 50 12
0 51 12
1 51 12
2 51 12
3 51 12
0 52 12
1 52 12
2 52 12
3 52 12
0 53 12
1 53 12
2 53 12
3 53 12
0 54 12
1 54 12
2 54 12
3 54 12
0 55 12
1 55 12
2 55 12
3 55 12
0 56 12
1 56 12
2 56 12
3 56 12
0 57 12
1 57 12
2 57 12
3 57 12
0 58 12
1 58 12
2 58 12
3 58 12
0 59 12
1 59 12
2 59 12
3 59 12
0 60 12
1 60 12
2 60 12
3 60 12
0 61 12
1 61 12
2 61 12
3 61 12
0 62 12
1 62 12
2 62 12
3 62 12
0 63 12
1 63 12
2 63 12
3 63 12
0 64 12
1 64 12
2 64 12
3 64 12
0 65 12
1 65 12
2 65 12
3 65 12
0 66 12
1 66 12
2 66 12
3 66 12
0 32 13
1 32 13
2 32 13
3 32 13
0 33 13
1 33 13
2 33 13
3 33 13
0 34 13
1 34 13
2 34 13
3 34 13
0 35 13
1 35 13
2 35 13
3 35 13
0 36 13
1 36 13
2 36 13
3 36 13
0 37 13
1 37 13
2 37 13
3 37 13
0 38 13
1 38 13
2 38 13
3 38 13
0 39 13
1 39 13
2 39 13
3 39 13
0 40 13
1 40 13
2 40 13
3 40 13
0 41 13
1 41 13
2 41 13
3 41 13
0 42 13
1 42 13
2 42 13
3 42 13
0 43 13
1 43 13
2 43 13
3 43 13
0 44 13
1 44 13
2 44 13
3 44 13
0 45 13
1 45 13
2 45 13
3 45 13
0 46 13
1 46 13
2 46 13
3 46 13
0 47 13
1 47 13
2 47 13
3 47 13
0 48 13
1 48 13
2 48 13
3 48 13
0 49 13
1 49 13
2 49 13
3 49 13
0 50 13
1 50 13
2 50 13
3 50 13
0 51 13
1 51 13
2 51 13
3 51 13
0 52 13
1 52 13
2 52 13
3 52 13
0 53 13
1 53 13
2 53 13
3 53 13
0 54 13
1 54 13
2 54 13
3 54 13
0 55 13
1 55 13
2 55 13
3 55 13
0 56 13
1 56 13
2 56 13
3 56 13
0 57 13
1 57 13
2 57 13
3 57 13
0 58 13
1 58 13
2 58 13
3 58 13
0 59 13
1 59 13
2 59 13
3 59 13
0 60 13
1 60 13
2 60 13
3 60 13
0 61 13
1 61 13
2 61 13
3 61 13
0 62 13
1 62 13
2 62 13
3 62 13
0 63 13
1 63 13
2 63 13
3 63 13
0 64 13
1 64 13
2 64 13
3 64 13
0 65 13
1 65 13
2 65 13
3 65 13
0 66 13
1 66 13
2 66 13
3 66 13
0 32 14
1 32 14
2 32 14
3 32 14
0 33 14
1 33 14
2 33 14
3 33 14
0 34 14
1 34 14
2 34 14
3 34 14
0 35 14
1 35 14
2 35 14
3 35 14
0 36 14
1 36 14
2 36 14
3 36 14
0 37 14
1 37 14
2 37 14
3 37 14
0 38 14
1 38 14
2 38 14
3 38 14
0 39 14
1 39 14
2 39 14
3 39 14
0 40 14
1 40 14
2 40 14
3 40 14
0 41 14
1 41 14
2 41 14
3 41 14
0 42 14
1 42 14
2 42 14
3 42 14
0 43 14
1 43 14
2 43 14
3 43 14
0 44 14
1 44 14
2 44 14
3 44 14
0 45 14
1 45 14
2 45 14
3 45 14
0 46 14
1 46 14
2 46 14
3 46 14
0 47 14
1 47 14
2 47 14
3 47 14
0 48 14
1 48 14
2 48 14
3 48 14
0 49 14
1 49 14
2 49 14
3 49 14
0 50 14
1 50 14
2 50 14
3 50 14
0 51 14
1 51 14
2 51 14
3 51 14
0 52 14
1 52 14
2 52 14
3 52 14
0 53 14
1 53 14
2 53 14
3 53 14
0 54 14
1 54 14
2 54 14
3 54 14
0 55 14
1 55 14
2 55 14
3 55 14
0 56 14
1 56 14
2 56 14
3 56 14
0 57 14
1 57 14
2 57 14
3 57 14
0 58 14
1 58 14
2 58 14
3 58 14
0 59 14
1 59 14
2 59 14
3 59 14
0 60 14
1 60 14
2 60 14
3 60 14
0 61 14
1 61 14
2 61 14
3 61 14
0 62 14
1 62 14
2 62 14
3 62 14
0 63 14
1 63 14
2 63 14
3 63 14
0 64 14
1 64 14
2 64 14
3 64 14
0 65 14
1 65 14
2 65 14
3 65 14
0 66 14
1 66 14
2 66 14
3 66 14
0 32 15
1 32 15
2 32 15
3 32 15
0 33 15
1 33 15
2 33 15
3 33 15
0 34 15
1 34 15
2 34 15
3 34 15
0 35 15
1 35 15
2 35 15
3 35 15
0 36 15
1 36 15
2 36 15
3 36 15
0 37 15
1 37 15
2 37 15
3 37 15
0 38 15
1 38 15
2 38 15
3 38 15
0 39 15
1 39 15
2 39 15
3 39 15
0 40 15
1 40 15
2 40 15
3 40 15
0 41 15
1 41 15
2 41 15
3 41 15
0 42 15
1 42 15
2 42 15
3 42 15
0 43 15
1 43 15
2 43 15
3 43 15
0 44 15
1 44 15
2 44 15
3 44 15
0 45 15
1 45 15
2 45 15
3 45 15
0 46 15
1 46 15
2 46 15
3 46 15
0 47 15
1 47 15
2 47 15
3 47 15
0 48 15
1 48 15
2 48 15
3 48 15
0 49 15
1 49 15
2 49 15
3 49 15
0 50 15
1 50 15
2 50 15
3 50 15
0 51 15
1 51 15
2 51 15
3 51 15
0 52 15
1 52 15
2 52 15
3 52 15
0 53 15
1 53 15
2 53 15
3 53 15
0 54 15
1 54 15
2 54 15
3 54 15
0 55 15
1 55 15
2 55 15
3 55 15
0 56 15
1 56 15
2 56 15
3 56 15
0 57 15
1 57 15
2 57 15
3 57 15
0 58 15
1 58 15
2 58 15
3 58 15
0 59 15
1 59 15
2 59 15
3 59 15
0 60 15
1 60 15
2 60 15
3 60 15
0 61 15
1 61 15
2 61 15
3 61 15
0 62 15
1 62 15
2 62 15
3 62 15
0 63 15
1 63 15
2 63 15
3 63 15
0 64 15
1 64 15
2 64 15
3 64 15
0 65 15
1 65 15
2 65 15
3 65 15
0 66 15
1 66 15
2 66 15
3 66 15
0 32 16
1 32 16
2 32 16
3 32 16
0 33 16
1 33 16
2 33 16
3 33 16
0 34 16
1 34 16
2 34 16
3 34 16
0 35 16
1 35 16
2 35 16
3 35 16
0 36 16
1 36 16
2 36 16
3 36 16
0 37 16
1 37 16
2 37 16
3 37 16
0 38 16
1 38 16
2 38 16
3 38 16
0 39 16
1 39 16
2 39 16
3 39 16
0 40 16
1 40 16
2 40 16
3 40 16
0 41 16
1 41 16
2 41 16
3 41 16
0 42 16
1 42 16
2 42 16
3 42 16
0 43 16
1 43 16
2 43 16
3 43 16
0 44 16
1 44 16
2 44 16
3 44 16
0 45 16
1 45 16
2 45 16
3 45 16
0 46 16
1 46 16
2 46 16
3 46 16
0 47 16
1 47 16
2 47 16
3 47 16
0 48 16
1 48 16
2 48 16
3 48 16
0 49 16
1 49 16
2 49 16
3 49 16
0 50 16
1 50 16
2 50 16
3 50 16
0 51 16
1 51 16
2 51 16
3 51 16
0 52 16
1 52 16
2 52 16
3 52 16
0 53 16
1 53 16
2 53 16
3 53 16
0 54 16
1 54 16
2 54 16
3 54 16
0 55 16
1 55 16
2 55 16
3 55 16
0 56 16
1 56 16
2 56 16
3 56 16
0 57 16
1 57 16
2 57 16
3 57 16
0 58 16
1 58 16
2 58 16
3 58 16
0 59 16
1 59 16
2 59 16
3 59 16
0 60 16
1 60 16
2 60 16
3 60 16
0 61 16
1 61 16
2 61 16
3 61 16
0 62 16
1 62 16
2 62 16
3 62 16
0 63 16
1 63 16
2 63 16
3 63 16
0 64 16
1 64 16
2 64 16
3 64 16
0 65 16
1 65 16
2 65 16
3 65 16
0 66 16
1 66 16
2 66 16
3 66 16
0 32 17
1 32 17
2 32 17
3 32 17
0 33 17
1 33 17
2 33 17
3 33 17
0 34 17
1 34 17
2 34 17
3 34 17
0 35 17
1 35 17
2 35 17
3 35 17
0 36 17
1 36 17
2 36 17
3 36 17
0 37 17
1 37 17
2 37 17
3 37 17
0 38 17
1 38 17
2 38 17
3 38 17
0 39 17
1 39 17
2 39 17
3 39 17
0 40 17
1 40 17
2 40 17
3 40 17
0 41 17
1 41 17
2 41 17
3 41 17
0 42 17
1 42 17
2 42 17
3 42 17
0 43 17
1 43 17
2 43 17
3 43 17
0 44 17
1 44 17
2 44 17
3 44 17
0 45 17
1 45 17
2 45 17
3 45 17
0 46 17
1 46 17
2 46 17
3 46 17
0 47 17
1 47 17
2 47 17
3 47 17
0 48 17
1 48 17
2 48 17
3 48 17
0 49 17
1 49 17
2 49 17
3 49 17
0 50 17
1 50 17
2 50 17
3 50 17
0 51 17
1 51 17
2 51 17
3 51 17
0 52 17
1 52 17
2 52 17
3 52 17
0 53 17
1 53 17
2 53 17
3 53 17
0 54 17
1 54 17
2 54 17
3 54 17
0 55 17
1 55 17
2 55 17
3 55 17
0 56 17
1 56 17
2 56 17
3 56 17
0 57 17
1 57 17
2 57 17
3 57 17
0 58 17
1 58 17
2 58 17
3 58 17
0 59 17
1 59 17
2 59 17
3 59 17
0 60 17
1 60 17
2 60 17
3 60 17
0 61 17
1 61 17
2 61 17
3 61 17
0 62 17
1 62 17
2 62 17
3 62 17
0 63 17
1 63 17
2 63 17
3 63 17
0 64 17
1 64 17
2 64 17
3 64 17
0 65 17
1 65 17
2 65 17
3 65 17
0 66 17
1 66 17
2 66 17
3 66 17
0 32 18
1 32 18
2 32 18
3 32 18
0 33 18
1 33 18
2 33 18
3 33 18
0 34 18
1 34 18
2 34 18
3 34 18
0 35 18
1 35 18
2 35 18
3 35 18
0 36 18
1 36 18
2 36 18
3 36 18
0 37 18
1 37 18
2 37 18
3 37 18
0 38 18
1 38 18
2 38 18
3 38 18
0 39 18
1 39 18
2 39 18
3 39 18
0 40 18
1 40 18
2 40 18
3 40 18
0 41 18
1 41 18
2 41 18
3 41 18
0 42 18
1 42 18
2 42 18
3 42 18
0 43 18
1 43 18
2 43 18
3 43 18
0 44 18
1 44 18
2 44 18
3 44 18
0 45 18
1 45 18
2 45 18
3 45 18
0 46 18
1 46 18
2 46 18
3 46 18
0 47 18
1 47 18
2 47 18
3 47 18
0 48 18
1 48 18
2 48 18
3 48 18
0 49 18
1 49 18
2 49 18
3 49 18
0 50 18
1 50 18
2 50 18
3 50 18
0 51 18
1 51 18
2 51 18
3 51 18
0 52 18
1 52 18
2 52 18
3 52 18
0 53 18
1 53 18
2 53 18
3 53 18
0 54 18
1 54 18
2 54 18
3 54 18
0 55 18
1 55 18
2 55 18
3 55 18
0 56 18
1 56 18
2 56 18
3 56 18
0 57 18
1 57 18
2 57 18
3 57 18
0 58 18
1 58 18
2 58 18
3 58 18
0 59 18
1 59 18
2 59 18
3 59 18
0 60 18
1 60 18
2 60 18
3 60 18
0 61 18
1 61 18
2 61 18
3 61 18
0 62 18
1 62 18
2 62 18
3 62 18
0 63 18
1 63 18
2 63 18
3 63 18
0 64 18
1 64 18
2 64 18
3 64 18
0 65 18
1 65 18
2 65 18
3 65 18
0 66 18
1 66 18
2 66 18
3 66 18
0 32 19
1 32 19
2 32 19
3 32 19
0 33 19
1 33 19
2 33 19
3 33 19
0 34 19
1 34 19
2 34 19
3 34 19
0 35 19
1 35 19
2 35 19
3 35 19
0 36 19
1 36 19
2 36 19
3 36 19
0 37 19
1 37 19
2 37 19
3 37 19
0 38 19
1 38 19
2 38 19
3 38 19
0 39 19
1 39 19
2 39 19
3 39 19
0 40 19
1 40 19
2 40 19
3 40 19
0 41 19
1 41 19
2 41 19
3 41 19
0 42 19
1 42 19
2 42 19
3 42 19
0 43 19
1 43 19
2 43 19
3 43 19
0 44 19
1 44 19
2 44 19
3 44 19
0 45 19
1 45 19
2 45 19
3 45 19
0 46 19
1 46 19
2 46 19
3 46 19
0 47 19
1 47 19
2 47 19
3 47 19
0 48 19
1 48 19
2 48 19
3 48 19
0 49 19
1 49 19
2 49 19
3 49 19
0 50 19
1 50 19
2 50 19
3 50 19
0 51 19
1 51 19
2 51 19
3 51 19
0 52 19
1 52 19
2 52 19
3 52 19
0 53 19
1 53 19
2 53 19
3 53 19
0 54 19
1 54 19
2 54 19
3 54 19
0 55 19
1 55 19
2 55 19
3 55 19
0 56 19
1 56 19
2 56 19
3 56 19
0 57 19
1 57 19
2 57 19
3 57 19
0 58 19
1 58 19
2 58 19
3 58 19
0 59 19
1 59 19
2 59 19
3 59 19
0 60 19
1 60 19
2 60 19
3 60 19
0 61 19
1 61 19
2 61 19
3 61 19
0 62 19
1 62 19
2 62 19
3 62 19
0 63 19
1 63 19
2 63 19
3 63 19
0 64 19
1 64 19
2 64 19
3 64 19
0 65 19
1 65 19
2 65 19
3 65 19
0 66 19
1 66 19
2 66 19
3 66 19
0 32 20
1 32 20
2 32 20
3 32 20
0 33 20
1 33 20
2 33 20
3 33 20
0 34 20
1 34 20
2 34 20
3 34 20
0 35 20
1 35 20
2 35 20
3 35 20
0 36 20
1 36 20
2 36 20
3 36 20
0 37 20
1 37 20
2 37 20
3 37 20
0 38 20
1 38 20
2 38 20
3 38 20
0 39 20
1 39 20
2 39 20
3 39 20
0 40 20
1 40 20
2 40 20
3 40 20
0 41 20
1 41 20
2 41 20
3 41 20
0 42 20
1 42 20
2 42 20
3 42 20
0 43 20
1 43 20
2 43 20
3 43 20
0 44 20
1 44 20
2 44 20
3 44 20
0 45 20
1 45 20
2 45 20
3 45 20
0 46 20
1 46 20
2 46 20
3 46 20
0 47 20
1 47 20
2 47 20
3 47 20
0 48 20
1 48 20
2 48 20
3 48 20
0 49 20
1 49 20
2 49 20
3 49 20
0 50 20
1 50 20
2 50 20
3 50 20
0 51 20
1 51 20
2 51 20
3 51 20
0 52 20
1 52 20
2 52 20
3 52 20
0 53 20
1 53 20
2 53 20
3 53 20
0 54 20
1 54 20
2 54 20
3 54 20
0 55 20
1 55 20
2 55 20
3 55 20
0 56 20
1 56 20
2 56 20
3 56 20
0 57 20
1 57 20
2 57 20
3 57 20
0 58 20
1 58 20
2 58 20
3 58 20
0 59 20
1 59 20
2 59 20
3 59 20
0 60 20
1 60 20
2 60 20
3 60 20
0 61 20
1 61 20
2 61 20
3 61 20
0 62 20
1 62 20
2 62 20
3 62 20
0 63 20
1 63 20
2 63 20
3 63 20
0 64 20
1 64 20
2 64 20
3 64 20
0 65 20
1 65 20
2 65 20
3 65 20
0 66 20
1 66 20
2 66 20
3 66 20
0 32 21
1 32 21
2 32 21
3 32 21
0 33 21
1 33 21
2 33 21
3 33 21
0 34 21
1 34 21
2 34 21
3 34 21
0 35 21
1 35 21
2 35 21
3 35 21
0 36 21
1 36 21
2 36 21
3 36 21
0 37 21
1 37 21
2 37 21
3 37 21
0 38 21
1 38 21
2 38 21
3 38 21
0 39 21
1 39 21
2 39 21
3 39 21
0 40 21
1 40 21
2 40 21
3 40 21
0 41 21
1 41 21
2 41 21
3 41 21
0 42 21
1 42 21
2 42 21
3 42 21
0 43 21
1 43 21
2 43 21
3 43 21
0 44 21
1 44 21
2 44 21
3 44 21
0 45 21
1 45 21
2 45 21
3 45 21
0 46 21
1 46 21
2 46 21
3 46 21
0 47 21
1 47 21
2 47 21
3 47 21
0 48 21
1 48 21
2 48 21
3 48 21
0 49 21
1 49 21
2 49 21
3 49 21
0 50 21
1 50 21
2 50 21
3 50 21
0 51 21
1 51 21
2 51 21
3 51 21
0 52 21
1 52 21
2 52 21
3 52 21
0 53 21
1 53 21
2 53 21
3 53 21
0 54 21
1 54 21
2 54 21
3 54 21
0 55 21
1 55 21
2 55 21
3 55 21
0 56 21
1 56 21
2 56 21
3 56 21
0 57 21
1 57 21
2 57 21
3 57 21
0 58 21
1 58 21
2 58 21
3 58 21
0 59 21
1 59 21
2 59 21
3 59 21
0 60 21
1 60 21
2 60 21
3 60 21
0 61 21
1 61 21
2 61 21
3 61 21
0 62 21
1 62 21
2 62 21
3 62 21
0 63 21
1 63 21
2 63 21
3 63 21
0 64 21
1 64 21
2 64 21
3 64 21
0 65 21
1 65 21
2 65 21
3 65 21
0 66 21
1 66 21
2 66 21
3 66 21
0 32 22
1 32 22
2 32 22
3 32 22
0 33 22
1 33 22
2 33 22
3 33 22
0 34 22
1 34 22
2 34 22
3 34 22
0 35 22
1 35 22
2 35 22
3 35 22
0 36 22
1 36 22
2 36 22
3 36 22
0 37 22
1 37 22
2 37 22
3 37 22
0 38 22
1 38 22
2 38 22
3 38 22
0 39 22
1 39 22
2 39 22
3 39 22
0 40 22
1 40 22
2 40 22
3 40 22
0 41 22
1 41 22
2 41 22
3 41 22
0 42 22
1 42 22
2 42 22
3 42 22
0 43 22
1 43 22
2 43 22
3 43 22
0 44 22
1 44 22
2 44 22
3 44 22
0 45 22
1 45 22
2 45 22
3 45 22
0 46 22
1 46 22
2 46 22
3 46 22
0 47 22
1 47 22
2 47 22
3 47 22
0 48 22
1 48 22
2 48 22
3 48 22
0 49 22
1 49 22
2 49 22
3 49 22
0 50 22
1 50 22
2 50 22
3 50 22
0 51 22
1 51 22
2 51 22
3 51 22
0 52 22
1 52 22
2 52 22
3 52 22
0 53 22
1 53 22
2 53 22
3 53 22
0 54 22
1 54 22
2 54 22
3 54 22
0 55 22
1 55 22
2 55 22
3 55 22
0 56 22
1 56 22
2 56 22
3 56 22
0 57 22
1 57 22
2 57 22
3 57 22
0 58 22
1 58 22
2 58 22
3 58 22
0 59 22
1 59 22
2 59 22
3 59 22
0 60 22
1 60 22
2 60 22
3 60 22
0 61 22
1 61 22
2 61 22
3 61 22
0 62 22
1 62 22
2 62 22
3 62 22
0 63 22
1 63 22
2 63 22
3 63 22
0 64 22
1 64 22
2 64 22
3 64 22
0 65 22
1 65 22
2 65 22
3 65 22
0 66 22
1 66 22
2 66 22
3 66 22
0 32 23
1 32 23
2 32 23
3 32 23
0 33 23
1 33 23
2 33 23
3 33 23
0 34 23
1 34 23
2 34 23
3 34 23
0 35 23
1 35 23
2 35 23
3 35 23
0 36 23
1 36 23
2 36 23
3 36 23
0 37 23
1 37 23
2 37 23
3 37 23
0 38 23
1 38 23
2 38 23
3 38 23
0 39 23
1 39 23
2 39 23
3 39 23
0 40 23
1 40 23
2 40 23
3 40 23
0 41 23
1 41 23
2 41 23
3 41 23
0 42 23
1 42 23
2 42 23
3 42 23
0 43 23
1 43 23
2 43 23
3 43 23
0 44 23
1 44 23
2 44 23
3 44 23
0 45 23
1 45 23
2 45 23
3 45 23
0 46 23
1 46 23
2 46 23
3 46 23
0 47 23
1 47 23
2 47 23
3 47 23
0 48 23
1 48 23
2 48 23
3 48 23
0 49 23
1 49 23
2 49 23
3 49 23
0 50 23
1 50 23
2 50 23
3 50 23
0 51 23
1 51 23
2 51 23
3 51 23
0 52 23
1 52 23
2 52 23
3 52 23
0 53 23
1 53 23
2 53 23
3 53 23
0 54 23
1 54 23
2 54 23
3 54 23
0 55 23
1 55 23
2 55 23
3 55 23
0 56 23
1 56 23
2 56 23
3 56 23
0 57 23
1 57 23
2 57 23
3 57 23
0 58 23
1 58 23
2 58 23
3 58 23
0 59 23
1 59 23
2 59 23
3 59 23
0 60 23
1 60 23
2 60 23
3 60 23
0 61 23
1 61 23
2 61 23
3 61 23
0 62 23
1 62 23
2 62 23
3 62 23
0 63 23
1 63 23
2 63 23
3 63 23
0 64 23
1 64 23
2 64 23
3 64 23
0 65 23
1 65 23
2 65 23
3 65 23
0 66 23
1 66 23
2 66 23
3 66 23
0 32 24
1 32 24
2 32 24
3 32 24
0 33 24
1 33 24
2 33 24
3 33 24
0 34 24
1 34 24
2 34 24
3 34 24
0 35 24
1 35 24
2 35 24
3 35 24
0 36 24
1 36 24
2 36 24
3 36 24
0 37 24
1 37 24
2 37 24
3 37 24
0 38 24
1 38 24
2 38 24
3 38 24
0 39 24
1 39 24
2 39 24
3 39 24
0 40 24
1 40 24
2 40 24
3 40 24
0 41 24
1 41 24
2 41 24
3 41 24
0 42 24
1 42 24
2 42 24
3 42 24
0 43 24
1 43 24
2 43 24
3 43 24
0 44 24
1 44 24
2 44 24
3 44 24
0 45 24
1 45 24
2 45 24
3 45 24
0 46 24
1 46 24
2 46 24
3 46 24
0 47 24
1 47 24
2 47 24
3 47 24
0 48 24
1 48 24
2 48 24
3 48 24
0 49 24
1 49 24
2 49 24
3 49 24
0 50 24
1 50 24
2 50 24
3 50 24
0 51 24
1 51 24
2 51 24
3 51 24
0 52 24
1 52 24
2 52 24
3 52 24
0 53 24
1 53 24
2 53 24
3 53 24
0 54 24
1 54 24
2 54 24
3 54 24
0 55 24
1 55 24
2 55 24
3 55 24
0 56 24
1 56 24
2 56 24
3 56 24
0 57 24
1 57 24
2 57 24
3 57 24
0 58 24
1 58 24
2 58 24
3 58 24
0 59 24
1 59 24
2 59 24
3 59 24
0 60 24
1 60 24
2 60 24
3 60 24
0 61 24
1 61 24
2 61 24
3 61 24
0 62 24
1 62 24
2 62 24
3 62 24
0 63 24
1 63 24
2 63 24
3 63 24
0 64 24
1 64 24
2 64 24
3 64 24
0 65 24
1 65 24
2 65 24
3 65 24
0 66 24
1 66 24
2 66 24
3 66 24
0 32 25
1 32 25
2 32 25
3 32 25
0 33 25
1 33 25
2 33 25
3 33 25
0 34 25
1 34 25
2 34 25
3 34 25
0 35 25
1 35 25
2 35 25
3 35 25
0 36 25
1 36 25
2 36 25
3 36 25
0 37 25
1 37 25
2 37 25
3 37 25
0 38 25
1 38 25
2 38 25
3 38 25
0 39 25
1 39 25
2 39 25
3 39 25
0 40 25
1 40 25
2 40 25
3 40 25
0 41 25
1 41 25
2 41 25
3 41 25
0 42 25
1 42 25
2 42 25
3 42 25
0 43 25
1 43 25
2 43 25
3 43 25
0 44 25
1 44 25
2 44 25
3 44 25
0 45 25
1 45 25
2 45 25
3 45 25
0 46 25
1 46 25
2 46 25
3 46 25
0 47 25
1 47 25
2 47 25
3 47 25
0 48 25
1 48 25
2 48 25
3 48 25
0 49 25
1 49 25
2 49 25
3 49 25
0 50 25
1 50 25
2 50 25
3 50 25
0 51 25
1 51 25
2 51 25
3 51 25
0 52 25
1 52 25
2 52 25
3 52 25
0 53 25
1 53 25
2 53 25
3 53 25
0 54 25
1 54 25
2 54 25
3 54 25
0 55 25
1 55 25
2 55 25
3 55 25
0 56 25
1 56 25
2 56 25
3 56 25
0 57 25
1 57 25
2 57 25
3 57 25
0 58 25
1 58 25
2 58 25
3 58 25
0 59 25
1 59 25
2 59 25
3 59 25
0 60 25
1 60 25
2 60 25
3 60 25
0 61 25
1 61 25
2 61 25
3 61 25
0 62 25
1 62 25
2 62 25
3 62 25
0 63 25
1 63 25
2 63 25
3 63 25
0 64 25
1 64 25
2 64 25
3 64 25
0 65 25
1 65 25
2 65 25
3 65 25
0 66 25
1 66 25
2 66 25
3 66 25
0 32 26
1 32 26
2 32 26
3 32 26
0 33 26
1 33 26
2 33 26
3 33 26
0 34 26
1 34 26
2 34 26
3 34 26
0 35 26
1 35 26
2 35 26
3 35 26
0 36 26
1 36 26
2 36 26
3 36 26
0 37 26
1 37 26
2 37 26
3 37 26
0 38 26
1 38 26
2 38 26
3 38 26
0 39 26
1 39 26
2 39 26
3 39 26
0 40 26
1 40 26
2 40 26
3 40 26
0 41 26
1 41 26
2 41 26
3 41 26
0 42 26
1 42 26
2 42 26
3 42 26
0 43 26
1 43 26
2 43 26
3 43 26
0 44 26
1 44 26
2 44 26
3 44 26
0 45 26
1 45 26
2 45 26
3 45 26
0 46 26
1 46 26
2 46 26
3 46 26
0 47 26
1 47 26
2 47 26
3 47 26
0 48 26
1 48 26
2 48 26
3 48 26
0 49 26
1 49 26
2 49 26
3 49 26
0 50 26
1 50 26
2 50 26
3 50 26
0 51 26
1 51 26
2 51 26
3 51 26
0 52 26
1 52 26
2 52 26
3 52 26
0 53 26
1 53 26
2 53 26
3 53 26
0 54 26
1 54 26
2 54 26
3 54 26
0 55 26
1 55 26
2 55 26
3 55 26
0 56 26
1 56 26
2 56 26
3 56 26
0 57 26
1 57 26
2 57 26
3 57 26
0 58 26
1 58 26
2 58 26
3 58 26
0 59 26
1 59 26
2 59 26
3 59 26
0 60 26
1 60 26
2 60 26
3 60 26
0 61 26
1 61 26
2 61 26
3 61 26
0 62 26
1 62 26
2 62 26
3 62 26
0 63 26
1 63 26
2 63 26
3 63 26
0 64 26
1 64 26
2 64 26
3 64 26
0 65 26
1 65 26
2 65 26
3 65 26
0 66 26
1 66 26
2 66 26
3 66 26
0 32 27
1 32 27
2 32 27
3 32 27
0 33 27
1 33 27
2 33 27
3 33 27
0 34 27
1 34 27
2 34 27
3 34 27
0 35 27
1 35 27
2 35 27
3 35 27
0 36 27
1 36 27
2 36 27
3 36 27
0 37 27
1 37 27
2 37 27
3 37 27
0 38 27
1 38 27
2 38 27
3 38 27
0 39 27
1 39 27
2 39 27
3 39 27
0 40 27
1 40 27
2 40 27
3 40 27
0 41 27
1 41 27
2 41 27
3 41 27
0 42 27
1 42 27
2 42 27
3 42 27
0 43 27
1 43 27
2 43 27
3 43 27
0 44 27
1 44 27
2 44 27
3 44 27
0 45 27
1 45 27
2 45 27
3 45 27
0 46 27
1 46 27
2 46 27
3 46 27
0 47 27
1 47 27
2 47 27
3 47 27
0 48 27
1 48 27
2 48 27
3 48 27
0 49 27
1 49 27
2 49 27
3 49 27
0 50 27
1 50 27
2 50 27
3 50 27
0 51 27
1 51 27
2 51 27
3 51 27
0 52 27
1 52 27
2 52 27
3 52 27
0 53 27
1 53 27
2 53 27
3 53 27
0 54 27
1 54 27
2 54 27
3 54 27
0 55 27
1 55 27
2 55 27
3 55 27
0 56 27
1 56 27
2 56 27
3 56 27
0 57 27
1 57 27
2 57 27
3 57 27
0 58 27
1 58 27
2 58 27
3 58 27
0 59 27
1 59 27
2 59 27
3 59 27
0 60 27
1 60 27
2 60 27
3 60 27
0 61 27
1 61 27
2 61 27
3 61 27
0 62 27
1 62 27
2 62 27
3 62 27
0 63 27
1 63 27
2 63 27
3 63 27
0 64 27
1 64 27
2 64 27
3 64 27
0 65 27
1 65 27
2 65 27
3 65 27
0 66 27
1 66 27
2 66 27
3 66 27
0 32 28
1 32 28
2 32 28
3 32 28
0 33 28
1 33 28
2 33 28
3 33 28
0 34 28
1 34 28
2 34 28
3 34 28
0 35 28
1 35 28
2 35 28
3 35 28
0 36 28
1 36 28
2 36 28
3 36 28
0 37 28
1 37 28
2 37 28
3 37 28
0 38 28
1 38 28
2 38 28
3 38 28
0 39 28
1 39 28
2 39 28
3 39 28
0 40 28
1 40 28
2 40 28
3 40 28
0 41 28
1 41 28
2 41 28
3 41 28
0 42 28
1 42 28
2 42 28
3 42 28
0 43 28
1 43 28
2 43 28
3 43 28
0 44 28
1 44 28
2 44 28
3 44 28
0 45 28
1 45 28
2 45 28
3 45 28
0 46 28
1 46 28
2 46 28
3 46 28
0 47 28
1 47 28
2 47 28
3 47 28
0 48 28
1 48 28
2 48 28
3 48 28
0 49 28
1 49 28
2 49 28
3 49 28
0 50 28
1 50 28
2 50 28
3 50 28
0 51 28
1 51 28
2 51 28
3 51 28
0 52 28
1 52 28
2 52 28
3 52 28
0 53 28
1 53 28
2 53 28
3 53 28
0 54 28
1 54 28
2 54 28
3 54 28
0 55 28
1 55 28
2 55 28
3 55 28
0 56 28
1 56 28
2 56 28
3 56 28
0 57 28
1 57 28
2 57 28
3 57 28
0 58 28
1 58 28
2 58 28
3 58 28
0 59 28
1 59 28
2 59 28
3 59 28
0 60 28
1 60 28
2 60 28
3 60 28
0 61 28
1 61 28
2 61 28
3 61 28
0 62 28
1 62 28
2 62 28
3 62 28
0 63 28
1 63 28
2 63 28
3 63 28
0 64 28
1 64 28
2 64 28
3 64 28
0 65 28
1 65 28
2 65 28
3 65 28
0 66 28
1 66 28
2 66 28
3 66 28
0 32 29
1 32 29
2 32 29
3 32 29
0 33 29
1 33 29
2 33 29
3 33 29
0 34 29
1 34 29
2 34 29
3 34 29
0 35 29
1 35 29
2 35 29
3 35 29
0 36 29
1 36 29
2 36 29
3 36 29
0 37 29
1 37 29
2 37 29
3 37 29
0 38 29
1 38 29
2 38 29
3 38 29
0 39 29
1 39 29
2 39 29
3 39 29
0 40 29
1 40 29
2 40 29
3 40 29
0 41 29
1 41 29
2 41 29
3 41 29
0 42 29
1 42 29
2 42 29
3 42 29
0 43 29
1 43 29
2 43 29
3 43 29
0 44 29
1 44 29
2 44 29
3 44 29
0 45 29
1 45 29
2 45 29
3 45 29
0 46 29
1 46 29
2 46 29
3 46 29
0 47 29
1 47 29
2 47 29
3 47 29
0 48 29
1 48 29
2 48 29
3 48 29
0 49 29
1 49 29
2 49 29
3 49 29
0 50 29
1 50 29
2 50 29
3 50 29
0 51 29
1 51 29
2 51 29
3 51 29
0 52 29
1 52 29
2 52 29
3 52 29
0 53 29
1 53 29
2 53 29
3 53 29
0 54 29
1 54 29
2 54 29
3 54 29
0 55 29
1 55 29
2 55 29
3 55 29
0 56 29
1 56 29
2 56 29
3 56 29
0 57 29
1 57 29
2 57 29
3 57 29
0 58 29
1 58 29
2 58 29
3 58 29
0 59 29
1 59 29
2 59 29
3 59 29
0 60 29
1 60 29
2 60 29
3 60 29
0 61 29
1 61 29
2 61 29
3 61 29
0 62 29
1 62 29
2 62 29
3 62 29
0 63 29
1 63 29
2 63 29
3 63 29
0 64 29
1 64 29
2 64 29
3 64 29
0 65 29
1 65 29
2 65 29
3 65 29
0 66 29
1 66 29
2 66 29
3 66 29
0 32 30
1 32 30
2 32 30
3 32 30
0 33 30
1 33 30
2 33 30
3 33 30
0 34 30
1 34 30
2 34 30
3 34 30
0 35 30
1 35 30
2 35 30
3 35 30
0 36 30
1 36 30
2 36 30
3 36 30
0 37 30
1 37 30
2 37 30
3 37 30
0 38 30
1 38 30
2 38 30
3 38 30
0 39 30
1 39 30
2 39 30
3 39 30
0 40 30
1 40 30
2 40 30
3 40 30
0 41 30
1 41 30
2 41 30
3 41 30
0 42 30
1 42 30
2 42 30
3 42 30
0 43 30
1 43 30
2 43 30
3 43 30
0 44 30
1 44 30
2 44 30
3 44 30
0 45 30
1 45 30
2 45 30
3 45 30
0 46 30
1 46 30
2 46 30
3 46 30
0 47 30
1 47 30
2 47 30
3 47 30
0 48 30
1 48 30
2 48 30
3 48 30
0 49 30
1 49 30
2 49 30
3 49 30
0 50 30
1 50 30
2 50 30
3 50 30
0 51 30
1 51 30
2 51 30
3 51 30
0 52 30
1 52 30
2 52 30
3 52 30
0 53 30
1 53 30
2 53 30
3 53 30
0 54 30
1 54 30
2 54 30
3 54 30
0 55 30
1 55 30
2 55 30
3 55 30
0 56 30
1 56 30
2 56 30
3 56 30
0 57 30
1 57 30
2 57 30
3 57 30
0 58 30
1 58 30
2 58 30
3 58 30
0 59 30
1 59 30
2 59 30
3 59 30
0 60 30
1 60 30
2 60 30
3 60 30
0 61 30
1 61 30
2 61 30
3 61 30
0 62 30
1 62 30
2 62 30
3 62 30
0 63 30
1 63 30
2 63 30
3 63 30
0 64 30
1 64 30
2 64 30
3 64 30
0 65 30
1 65 30
2 65 30
3 65 30
0 66 30
1 66 30
2 66 30
3 66 30
0 32 31
1 32 31
2 32 31
3 32 31
0 33 31
1 33 31
2 33 31
3 33 31
0 34 31
1 34 31
2 34 31
3 34 31
0 35 31
1 35 31
2 35 31
3 35 31
0 36 31
1 36 31
2 36 31
3 36 31
0 37 31
1 37 31
2 37 31
3 37 31
0 38 31
1 38 31
2 38 31
3 38 31
0 39 31
1 39 31
2 39 31
3 39 31
0 40 31
1 40 31
2 40 31
3 40 31
0 41 31
1 41 31
2 41 31
3 41 31
0 42 31
1 42 31
2 42 31
3 42 31
0 43 31
1 43 31
2 43 31
3 43 31
0 44 31
1 44 31
2 44 31
3 44 31
0 45 31
1 45 31
2 45 31
3 45 31
0 46 31
1 46 31
2 46 31
3 46 31
0 47 31
1 47 31
2 47 31
3 47 31
0 48 31
1 48 31
2 48 31
3 48 31
0 49 31
1 49 31
2 49 31
3 49 31
0 50 31
1 50 31
2 50 31
3 50 31
0 51 31
1 51 31
2 51 31
3 51 31
0 52 31
1 52 31
2 52 31
3 52 31
0 53 31
1 53 31
2 53 31
3 53 31
0 54 31
1 54 31
2 54 31
3 54 31
0 55 31
1 55 31
2 55 31
3 55 31
0 56 31
1 56 31
2 56 31
3 56 31
0 57 31
1 57 31
2 57 31
3 57 31
0 58 31
1 58 31
2 58 31
3 58 31
0 59 31
1 59 31
2 59 31
3 59 31
0 60 31
1 60 31
2 60 31
3 60 31
0 61 31
1 61 31
2 61 31
3 61 31
0 62 31
1 62 31
2 62 31
3 62 31
0 63 31
1 63 31
2 63 31
3 63 31
0 64 31
1 64 31
2 64 31
3 64 31
0 65 31
1 65 31
2 65 31
3 65 31
0 66 31
1 66 31
2 66 31
3 66 31
0 32 32
1 32 32
2 32 32
3 32 32
0 33 32
1 33 32
2 33 32
3 33 32
0 34 32
1 34 32
2 34 32
3 34 32
0 35 32
1 35 32
2 35 32
3 35 32
0 36 32
1 36 32
2 36 32
3 36 32
0 37 32
1 37 32
2 37 32
3 37 32
0 38 32
1 38 32
2 38 32
3 38 32
0 39 32
1 39 32
2 39 32
3 39 32
0 40 32
1 40 32
2 40 32
3 40 32
0 41 32
1 41 32
2 41 32
3 41 32
0 42 32
1 42 32
2 42 32
3 42 32
0 43 32
1 43 32
2 43 32
3 43 32
0 44 32
1 44 32
2 44 32
3 44 32
0 45 32
1 45 32
2 45 32
3 45 32
0 46 32
1 46 32
2 46 32
3 46 32
0 47 32
1 47 32
2 47 32
3 47 32
0 48 32
1 48 32
2 48 32
3 48 32
0 49 32
1 49 32
2 49 32
3 49 32
0 50 32
1 50 32
2 50 32
3 50 32
0 51 32
1 51 32
2 51 32
3 51 32
0 52 32
1 52 32
2 52 32
3 52 32
0 53 32
1 53 32
2 53 32
3 53 32
0 54 32
1 54 32
2 54 32
3 54 32
0 55 32
1 55 32
2 55 32
3 55 32
0 56 32
1 56 32
2 56 32
3 56 32
0 57 32
1 57 32
2 57 32
3 57 32
0 58 32
1 58 32
2 58 32
3 58 32
0 59 32
1 59 32
2 59 32
3 59 32
0 60 32
1 60 32
2 60 32
3 60 32
0 61 32
1 61 32
2 61 32
3 61 32
0 62 32
1 62 32
2 62 32
3 62 32
0 63 32
1 63 32
2 63 32
3 63 32
0 64 32
1 64 32
2 64 32
3 64 32
0 65 32
1 65 32
2 65 32
3 65 32
0 66 32
1 66 32
2 66 32
3 66 32
0 32 33
1 32 33
2 32 33
3 32 33
0 33 33
1 33 33
2 33 33
3 33 33
0 34 33
1 34 33
2 34 33
3 34 33
0 35 33
1 35 33
2 35 33
3 35 33
0 36 33
1 36 33
2 36 33
3 36 33
0 37 33
1 37 33
2 37 33
3 37 33
0 38 33
1 38 33
2 38 33
3 38 33
0 39 33
1 39 33
2 39 33
3 39 33
0 40 33
1 40 33
2 40 33
3 40 33
0 41 33
1 41 33
2 41 33
3 41 33
0 42 33
1 42 33
2 42 33
3 42 33
0 43 33
1 43 33
2 43 33
3 43 33
0 44 33
1 44 33
2 44 33
3 44 33
0 45 33
1 45 33
2 45 33
3 45 33
0 46 33
1 46 33
2 46 33
3 46 33
0 47 33
1 47 33
2 47 33
3 47 33
0 48 33
1 48 33
2 48 33
3 48 33
0 49 33
1 49 33
2 49 33
3 49 33
0 50 33
1 50 33
2 50 33
3 50 33
0 51 33
1 51 33
2 51 33
3 51 33
0 52 33
1 52 33
2 52 33
3 52 33
0 53 33
1 53 33
2 53 33
3 53 33
0 54 33
1 54 33
2 54 33
3 54 33
0 55 33
1 55 33
2 55 33
3 55 33
0 56 33
1 56 33
2 56 33
3 56 33
0 57 33
1 57 33
2 57 33
3 57 33
0 58 33
1 58 33
2 58 33
3 58 33
0 59 33
1 59 33
2 59 33
3 59 33
0 60 33
1 60 33
2 60 33
3 60 33
0 61 33
1 61 33
2 61 33
3 61 33
0 62 33
1 62 33
2 62 33
3 62 33
0 63 33
1 63 33
2 63 33
3 63 33
0 64 33
1 64 33
2 64 33
3 64 33
0 65 33
1 65 33
2 65 33
3 65 33
0 66 33
1 66 33
2 66 33
3 66 33
        </DataArray>
      </Points>
      <PointData Scalars="scalar">
        <DataArray Name="scalar" type="Float32" format="ascii">
3
3
3
3
3
3
3
3
3
3
3
3
3
3
3
3
3
3
3
3
3
3
3
3
3
3
3
3
3
3
3
3
3
3
3
3
3
3
3
3
3
3
3
3
3
3
3
3
3
3
3
3
3
3
3
3
3
3
3
3
3
3
3
3
3
3
3
3
3
3
3
3
3
3
3
3
3
3
3
3
3
3
3
3
3
3
3
3
3
3
3
3
3
3
3
3
3
3
3
3
3
3
3
3
3
3
3
3
3
3
3
3
3
3
3
3
3
3
3
3
3
3
3
3
3
3
3
3
3
3
3
3
3
3
3
3
3
3
3
3
6
6
6
6
3
3
3
3
3
3
3
3
3
3
3
3
3
3
3
3
3
3
3
3
3
3
3
3
3
3
3
3
3
3
3
3
3
3
3
3
3
3
3
3
3
3
3
3
3
3
3
3
3
3
3
3
3
3
3
3
3
3
3
3
3
3
3
3
3
3
3
3
3
3
3
3
3
3
3
3
3
3
3
3
3
3
3
3
3
3
3
3
3
3
3
3
3
3
3
3
3
3
3
3
3
3
3
3
3
3
3
3
3
3
3
3
3
3
3
3
3
3
3
3
3
3
3
3
3
3
3
3
3
3
3
3
0
0
0
0
6
6
6
6
3
3
3
3
3
3
3
3
3
3
3
3
3
3
3
3
3
3
3
3
3
3
3
3
3
3
3
3
3
3
3
3
3
3
3
3
3
3
3
3
3
3
3
3
3
3
3
3
3
3
3
3
3
3
3
3
3
3
3
3
3
3
3
3
3
3
3
3
3
3
3
3
3
3
3
3
3
3
3
3
3
3
3
3
3
3
3
3
3
3
3
3
3
3
3
3
3
3
3
3
3
3
3
3
3
3
3
3
3
3
3
3
3
3
3
3
3
3
3
3
3
3
3
3
3
3
3
3
3
3
3
3
0
0
0
0
6
6
6
6
3
3
3
3
3
3
3
3
3
3
3
3
3
3
3
3
3
3
3
3
3
3
3
3
3
3
3
3
3
3
3
3
3
3
3
3
3
3
3
3
3
3
3
3
3
3
3
3
3
3
3
3
3
3
3
3
3
3
3
3
3
3
3
3
3
3
3
3
3
3
3
3
3
3
3
3
3
3
3
3
3
3
3
3
3
3
3
3
3
3
3
3
3
3
3
3
3
3
3
3
3
3
3
3
3
3
3
3
3
3
3
3
3
3
3
3
3
3
3
3
3
3
3
3
3
3
3
3
3
3
3
3
0
0
0
0
6
6
6
6
3
3
3
3
3
3
3
3
3
3
3
3
3
3
3
3
3
3
3
3
3
3
3
3
3
3
3
3
3
3
3
3
3
3
3
3
3
3
3
3
3
3
3
3
3
3
3
3
3
3
3
3
3
3
3
3
3
3
3
3
3
3
3
3
3
3
3
3
3
3
3
3
3
3
3
3
3
3
3
3
3
3
3
3
3
3
3
3
3
3
3
3
3
3
3
3
3
3
3
3
3
3
3
3
3
3
3
3
3
3
3
3
3
3
3
3
3
3
3
3
3
3
3
3
3
3
3
3
3
3
3
3
0
0
0
0
6
6
6
6
3
3
3
3
3
3
3
3
3
3
3
3
3
3
3
3
3
3
3
3
3
3
3
3
3
3
3
3
3
3
3
3
3
3
3
3
3
3
3
3
3
3
3
3
3
3
3
3
3
3
3
3
3
3
3
3
3
3
3
3
3
3
3
3
3
3
3
3
3
3
3
3
3
3
3
3
3
3
3
3
3
3
3
3
3
3
3
3
3
3
3
3
3
3
3
3
3
3
3
3
3
3
3
3
3
3
3
3
3
3
3
3
3
3
3
3
3
3
3
3
3
3
3
3
3
3
3
3
3
3
3
3
0
0
0
0
6
6
6
6
3
3
3
3
3
3
3
3
3
3
3
3
3
3
3
3
3
3
3
3
3
3
3
3
3
3
3
3
3
3
3
3
3
3
3
3
3
3
3
3
3
3
3
3
3
3
3
3
3
3
3
3
3
3
3
3
3
3
3
3
3
3
3
3
3
3
3
3
3
3
3
3
3
3
3
3
3
3
3
3
3
3
3
3
3
3
3
3
3
3
3
3
3
3
3
3
3
3
3
3
3
3
3
3
3
3
3
3
3
3
3
3
3
3
3
3
3
3
3
3
3
3
3
3
3
3
3
3
3
3
3
3
0
0
0
0
6
6
6
6
3
3
3
3
3
3
3
3
3
3
3
3
3
3
3
3
3
3
3
3
3
3
3
3
3
3
3
3
3
3
3
3
3
3
3
3
3
3
3
3
3
3
3
3
3
3
3
3
3
3
3
3
3
3
3
3
3
3
3
3
3
3
3
3
3
3
3
3
3
3
3
3
3
3
3
3
3
3
3
3
3
3
3
3
3
3
3
3
3
3
3
3
3
3
3
3
3
3
3
3
3
3
3
3
3
3
3
3
3
3
3
3
3
3
3
3
3
3
3
3
3
3
3
3
3
3
3
3
3
3
3
3
0
0
0
0
6
6
6
6
3
3
3
3
3
3
3
3
3
3
3
3
3
3
3
3
3
3
3
3
3
3
3
3
3
3
3
3
3
3
3
3
3
3
3
3
3
3
3
3
3
3
3
3
3
3
3
3
3
3
3
3
3
3
3
3
3
3
3
3
3
3
3
3
3
3
3
3
3
3
3
3
3
3
3
3
3
3
3
3
3
3
3
3
3
3
3
3
3
3
3
3
3
3
3
3
3
3
3
3
3
3
3
3
3
3
3
3
3
3
3
3
3
3
3
3
3
3
3
3
3
3
3
3
3
3
3
3
3
3
3
3
0
0
0
0
6
6
6
6
3
3
3
3
3
3
3
3
3
3
3
3
3
3
3
3
3
3
3
3
3
3
3
3
3
3
3
3
3
3
3
3
3
3
3
3
3
3
3
3
3
3
3
3
3
3
3
3
3
3
3
3
3
3
3
3
3
3
3
3
3
3
3
3
3
3
3
3
3
3
3
3
3
3
3
3
3
3
3
3
3
3
3
3
3
3
3
3
3
3
3
3
3
3
3
3
3
3
3
3
3
3
3
3
3
3
3
3
3
3
3
3
3
3
3
3
3
3
3
3
3
3
3
3
3
3
3
3
3
3
3
3
0
0
0
0
6
6
6
6
3
3
3
3
3
3
3
3
3
3
3
3
3
3
3
3
3
3
3
3
3
3
3
3
3
3
3
3
3
3
3
3
3
3
3
3
3
3
3
3
3
3
3
3
3
3
3
3
3
3
3
3
3
3
3
3
3
3
3
3
3
3
3
3
3
3
3
3
3
3
3
3
3
3
3
3
3
3
3
3
3
3
3
3
3
3
3
3
3
3
3
3
3
3
3
3
3
3
3
3
3
3
3
3
3
3
3
3
3
3
3
3
3
3
3
3
3
3
3
3
3
3
3
3
3
3
3
3
3
3
3
3
0
0
0
0
6
6
6
6
3
3
3
3
3
3
3
3
3
3
3
3
3
3
3
3
3
3
3
3
3
3
3
3
3
3
3
3
3
3
3
3
3
3
3
3
3
3
3
3
3
3
3
3
3
3
3
3
3
3
3
3
3
3
3
3
3
3
3
3
3
3
3
3
3
3
3
3
3
3
3
3
3
3
3
3
3
3
3
3
3
3
3
3
3
3
3
3
3
3
3
3
3
3
3
3
3
3
3
3
3
3
3
3
3
3
3
3
3
3
3
3
3
3
3
3
3
3
3
3
3
3
3
3
3
3
3
3
3
3
3
3
0
0
0
0
6
6
6
6
3
3
3
3
3
3
3
3
3
3
3
3
3
3
3
3
3
3
3
3
3
3
3
3
3
3
3
3
3
3
3
3
3
3
3
3
3
3
3
3
3
3
3
3
3
3
3
3
3
3
3
3
3
3
3
3
3
3
3
3
3
3
3
3
3
3
3
3
3
3
3
3
3
3
3
3
3
3
3
3
3
3
3
3
3
3
3
3
3
3
3
3
3
3
3
3
3
3
3
3
3
3
3
3
3
3
3
3
3
3
3
3
3
3
3
3
3
3
3
3
3
3
3
3
3
3
3
3
3
3
3
3
0
0
0
0
6
6
6
6
3
3
3
3
3
3
3
3
3
3
3
3
3
3
3
3
3
3
3
3
3
3
3
3
3
3
3
3
3
3
3
3
3
3
3
3
3
3
3
3
3
3
3
3
3
3
3
3
3
3
3
3
3
3
3
3
3
3
3
3
3
3
3
3
3
3
3
3
3
3
3
3
3
3
3
3
3
3
3
3
3
3
3
3
3
3
3
3
3
3
3
3
3
3
3
3
3
3
3
3
3
3
3
3
3
3
3
3
3
3
3
3
3
3
3
3
3
3
3
3
3
3
3
3
3
3
3
3
3
3
3
3
0
0
0
0
6
6
6
6
3
3
3
3
3
3
3
3
3
3
3
3
3
3
3
3
3
3
3
3
3
3
3
3
3
3
3
3
3
3
3
3
3
3
3
3
3
3
3
3
3
3
3
3
3
3
3
3
3
3
3
3
3
3
3
3
3
3
3
3
3
3
3
3
3
3
3
3
3
3
3
3
3
3
3
3
3
3
3
3
3
3
3
3
3
3
3
3
3
3
3
3
3
3
3
3
3
3
3
3
3
3
3
3
3
3
3
3
3
3
3
3
3
3
3
3
3
3
3
3
3
3
3
3
3
3
3
3
3
3
3
3
0
0
0
0
6
6
6
6
3
3
3
3
3
3
3
3
3
3
3
3
3
3
3
3
3
3
3
3
3
3
3
3
3
3
3
3
3
3
3
3
3
3
3
3
3
3
3
3
3
3
3
3
3
3
3
3
3
3
3
3
3
3
3
3
3
3
3
3
3
3
3
3
3
3
3
3
3
3
3
3
3
3
3
3
3
3
3
3
3
3
3
3
3
3
3
3
3
3
3
3
3
3
3
3
3
3
3
3
3
3
3
3
3
3
3
3
3
3
3
3
3
3
3
3
3
3
3
3
3
3
3
3
3
3
3
3
3
3
3
3
0
0
0
0
6
6
6
6
3
3
3
3
3
3
3
3
3
3
3
3
3
3
3
3
3
3
3
3
3
3
3
3
3
3
3
3
3
3
3
3
3
3
3
3
3
3
3
3
3
3
3
3
3
3
3
3
3
3
3
3
3
3
3
3
3
3
3
3
3
3
3
3
3
3
3
3
3
3
3
3
3
3
3
3
3
3
3
3
3
3
3
3
3
3
3
3
3
3
3
3
3
3
3
3
3
3
3
3
3
3
3
3
3
3
3
3
3
3
3
3
3
3
3
3
3
3
3
3
3
3
3
3
3
3
3
3
3
3
3
3
0
0
0
0
6
6
6
6
3
3
3
3
3
3
3
3
3
3
3
3
3
3
3
3
3
3
3
3
3
3
3
3
3
3
3
3
3
3
3
3
3
3
3
3
3
3
3
3
3
3
3
3
3
3
3
3
3
3
3
3
3
3
3
3
3
3
3
3
3
3
3
3
3
3
3
3
3
3
3
3
3
3
3
3
3
3
3
3
3
3
3
3
3
3
3
3
3
3
3
3
3
3
3
3
3
3
3
3
3
3
3
3
3
3
3
3
3
3
3
3
3
3
3
3
3
3
3
3
3
3
3
3
3
3
3
3
3
3
3
3
0
0
0
0
6
6
6
6
3
3
3
3
3
3
3
3
3
3
3
3
3
3
3
3
3
3
3
3
3
3
3
3
3
3
3
3
3
3
3
3
3
3
3
3
3
3
3
3
3
3
3
3
3
3
3
3
3
3
3
3
3
3
3
3
3
3
3
3
3
3
3
3
3
3
3
3
3
3
3
3
3
3
3
3
3
3
3
3
3
3
3
3
3
3
3
3
3
3
3
3
3
3
3
3
3
3
3
3
3
3
3
3
3
3
3
3
3
3
3
3
3
3
3
3
3
3
3
3
3
3
3
3
3
3
3
3
3
3
3
3
0
0
0
0
6
6
6
6
3
3
3
3
3
3
3
3
3
3
3
3
3
3
3
3
3
3
3
3
3
3
3
3
3
3
3
3
3
3
3
3
3
3
3
3
3
3
3
3
3
3
3
3
3
3
3
3
3
3
3
3
3
3
3
3
3
3
3
3
3
3
3
3
3
3
3
3
3
3
3
3
3
3
3
3
3
3
3
3
3
3
3
3
3
3
3
3
3
3
3
3
3
3
3
3
3
3
3
3
3
3
3
3
3
3
3
3
3
3
3
3
3
3
3
3
3
3
3
3
3
3
3
3
3
3
3
3
3
3
3
3
0
0
0
0
6
6
6
6
3
3
3
3
3
3
3
3
3
3
3
3
3
3
3
3
3
3
3
3
3
3
3
3
3
3
3
3
3
3
3
3
3
3
3
3
3
3
3
3
3
3
3
3
3
3
3
3
3
3
3
3
3
3
3
3
3
3
3
3
3
3
3
3
3
3
3
3
3
3
3
3
3
3
3
3
3
3
3
3
3
3
3
3
3
3
3
3
3
3
3
3
3
3
3
3
3
3
3
3
3
3
3
3
3
3
3
3
3
3
3
3
3
3
3
3
3
3
3
3
3
3
3
3
3
3
3
3
3
3
3
3
0
0
0
0
6
6
6
6
3
3
3
3
3
3
3
3
3
3
3
3
3
3
3
3
3
3
3
3
3
3
3
3
3
3
3
3
3
3
3
3
3
3
3
3
3
3
3
3
3
3
3
3
3
3
3
3
3
3
3
3
3
3
3
3
3
3
3
3
3
3
3
3
3
3
3
3
3
3
3
3
3
3
3
3
3
3
3
3
3
3
3
3
3
3
3
3
3
3
3
3
3
3
3
3
3
3
3
3
3
3
3
3
3
3
3
3
3
3
3
3
3
3
3
3
3
3
3
3
3
3
3
3
3
3
3
3
3
3
3
3
0
0
0
0
6
6
6
6
3
3
3
3
3
3
3
3
3
3
3
3
3
3
3
3
3
3
3
3
3
3
3
3
3
3
3
3
3
3
3
3
3
3
3
3
3
3
3
3
3
3
3
3
3
3
3
3
3
3
3
3
3
3
3
3
3
3
3
3
3
3
3
3
3
3
3
3
3
3
3
3
3
3
3
3
3
3
3
3
3
3
3
3
3
3
3
3
3
3
3
3
3
3
3
3
3
3
3
3
3
3
3
3
3
3
3
3
3
3
3
3
3
3
3
3
3
3
3
3
3
3
3
3
3
3
3
3
3
3
3
3
0
0
0
0
6
6
6
6
3
3
3
3
3
3
3
3
3
3
3
3
3
3
3
3
3
3
3
3
3
3
3
3
3
3
3
3
3
3
3
3
3
3
3
3
3
3
3
3
3
3
3
3
3
3
3
3
3
3
3
3
3
3
3
3
3
3
3
3
3
3
3
3
3
3
3
3
3
3
3
3
3
3
3
3
3
3
3
3
3
3
3
3
3
3
3
3
3
3
3
3
3
3
3
3
3
3
3
3
3
3
3
3
3
3
3
3
3
3
3
3
3
3
3
3
3
3
3
3
3
3
3
3
3
3
3
3
3
3
3
3
0
0
0
0
6
6
6
6
3
3
3
3
3
3
3
3
3
3
3
3
3
3
3
3
3
3
3
3
3
3
3
3
3
3
3
3
3
3
3
3
3
3
3
3
3
3
3
3
3
3
3
3
3
3
3
3
3
3
3
3
3
3
3
3
3
3
3
3
3
3
3
3
3
3
3
3
3
3
3
3
3
3
3
3
3
3
3
3
3
3
3
3
3
3
3
3
3
3
3
3
3
3
3
3
3
3
3
3
3
3
3
3
3
3
3
3
3
3
3
3
3
3
3
3
3
3
3
3
3
3
3
3
3
3
3
3
3
3
3
3
0
0
0
0
6
6
6
6
3
3
3
3
3
3
3
3
3
3
3
3
3
3
3
3
3
3
3
3
3
3
3
3
3
3
3
3
3
3
3
3
3
3
3
3
3
3
3
3
3
3
3
3
3
3
3
3
3
3
3
3
3
3
3
3
3
3
3
3
3
3
3
3
3
3
3
3
3
3
3
3
3
3
3
3
3
3
3
3
3
3
3
3
3
3
3
3
3
3
3
3
3
3
3
3
3
3
3
3
3
3
3
3
3
3
3
3
3
3
3
3
3
3
3
3
3
3
3
3
3
3
3
3
3
3
3
3
3
3
3
3
0
0
0
0
6
6
6
6
3
3
3
3
3
3
3
3
3
3
3
3
3
3
3
3
3
3
3
3
3
3
3
3
3
3
3
3
3
3
3
3
3
3
3
3
3
3
3
3
3
3
3
3
3
3
3
3
3
3
3
3
3
3
3
3
3
3
3
3
3
3
3
3
3
3
3
3
3
3
3
3
3
3
3
3
3
3
3
3
3
3
3
3
3
3
3
3
3
3
3
3
3
3
3
3
3
3
3
3
3
3
3
3
3
3
3
3
3
3
3
3
3
3
3
3
3
3
3
3
3
3
3
3
3
3
3
3
3
3
3
3
0
0
0
0
6
6
6
6
3
3
3
3
3
3
3
3
3
3
3
3
3
3
3
3
3
3
3
3
3
3
3
3
3
3
3
3
3
3
3
3
3
3
3
3
3
3
3
3
3
3
3
3
3
3
3
3
3
3
3
3
3
3
3
3
3
3
3
3
3
3
3
3
3
3
3
3
3
3
3
3
3
3
3
3
3
3
3
3
3
3
3
3
3
3
3
3
3
3
3
3
3
3
3
3
3
3
3
3
3
3
3
3
3
3
3
3
3
3
3
3
3
3
3
3
3
3
3
3
3
3
3
3
3
3
3
3
3
3
3
3
0
0
0
0
6
6
6
6
3
3
3
3
3
3
3
3
3
3
3
3
3
3
3
3
3
3
3
3
3
3
3
3
3
3
3
3
3
3
3
3
3
3
3
3
3
3
3
3
3
3
3
3
3
3
3
3
3
3
3
3
3
3
3
3
3
3
3
3
3
3
3
3
3
3
3
3
3
3
3
3
3
3
3
3
3
3
3
3
3
3
3
3
3
3
3
3
3
3
3
3
3
3
3
3
3
3
3
3
3
3
3
3
3
3
3
3
3
3
3
3
3
3
3
3
3
3
3
3
3
3
3
3
3
3
3
3
3
3
3
3
0
0
0
0
6
6
6
6
3
3
3
3
3
3
3
3
3
3
3
3
3
3
3
3
3
3
3
3
3
3
3
3
3
3
3
3
3
3
3
3
3
3
3
3
3
3
3
3
3
3
3
3
3
3
3
3
3
3
3
3
3
3
3
3
3
3
3
3
3
3
3
3
3
3
3
3
3
3
3
3
3
3
3
3
3
3
3
3
3
3
3
3
3
3
3
3
3
3
3
3
3
3
3
3
3
3
3
3
3
3
3
3
3
3
3
3
3
3
3
3
3
3
3
3
3
3
3
3
3
3
3
3
3
3
3
3
3
3
3
3
0
0
0
0
6
6
6
6
3
3
3
3
3
3
3
3
3
3
3
3
3
3
3
3
3
3
3
3
3
3
3
3
3
3
3
3
3
3
3
3
3
3
3
3
3
3
3
3
3
3
3
3
3
3
3
3
3
3
3
3
3
3
3
3
3
3
3
3
3
3
3
3
3
3
3
3
3
3
3
3
3
3
3
3
3
3
3
3
3
3
3
3
3
3
3
3
3
3
3
3
3
3
3
3
3
3
3
3
3
3
3
3
3
3
3
3
3
3
3
3
3
3
3
3
3
3
3
3
3
3
3
3
3
3
3
3
3
3
3
3
0
0
0
0
6
6
6
6
3
3
3
3
3
3
3
3
3
3
3
3
3
3
3
3
3
3
3
3
3
3
3
3
3
3
3
3
3
3
3
3
3
3
3
3
3
3
3
3
3
3
3
3
3
3
3
3
3
3
3
3
3
3
3
3
3
3
3
3
3
3
3
3
3
3
3
3
3
3
3
3
3
3
3
3
3
3
3
3
3
3
3
3
3
3
3
3
3
3
3
3
3
3
3
3
3
3
3
3
3
3
3
3
3
3
3
3
3
3
3
3
3
3
3
3
3
3
3
3
3
3
3
3
3
3
3
3
3
3
3
3
0
0
0
0
6
6
6
6
3
3
3
3
3
3
3
3
3
3
3
3
3
3
3
3
3
3
3
3
3
3
3
3
3
3
3
3
3
3
3
3
3
3
3
3
3
3
3
3
3
3
3
3
3
3
3
3
3
3
3
3
3
3
3
3
3
3
3
3
3
3
3
3
3
3
3
3
3
3
3
3
3
3
3
3
3
3
3
3
3
3
3
3
3
3
3
3
3
3
3
3
3
3
3
3
3
3
3
3
3
3
3
3
3
3
3
3
3
3
3
3
3
3
3
3
3
3
3
3
3
3
3
3
3
3
3
3
3
3
3
3
0
0
0
0
3
3
3
3
4
4
4
4
4
4
4
4
4
4
4
4
4
4
4
4
4
4
4
4
4
4
4
4
4
4
4
4
4
4
4
4
4
4
4
4
4
4
4
4
4
4
4
4
4
4
4
4
4
4
4
4
4
4
4
4
4
4
4
4
4
4
4
4
4
4
4
4
4
4
4
4
4
4
4
4
4
4
4
4
4
4
4
4
4
4
4
4
4
4
4
4
4
4
4
4
4
4
4
4
4
4
4
4
4
4
4
4
4
4
4
4
4
4
4
4
4
4
4
4
4
4
4
4
4
4
4
4
4
4
4
4
3
3
3
3
        </DataArray>
      </PointData>
    </Piece>
  </StructuredGrid>
</VTKFile>
