<?xml version="1.0"?>
<VTKFile type="StructuredGrid" version="0.1" byte_order="LittleEndian">
  <StructuredGrid WholeExtent="0 3 0 199 0 199">
    <Piece Extent="0 3 132 199 0 100">
      <Points>
        <DataArray type="Float32" NumberOfComponents="3" format="ascii">
0 132 0
1 132 0
2 132 0
3 132 0
0 133 0
1 133 0
2 133 0
3 133 0
0 134 0
1 134 0
2 134 0
3 134 0
0 135 0
1 135 0
2 135 0
3 135 0
0 136 0
1 136 0
2 136 0
3 136 0
0 137 0
1 137 0
2 137 0
3 137 0
0 138 0
1 138 0
2 138 0
3 138 0
0 139 0
1 139 0
2 139 0
3 139 0
0 140 0
1 140 0
2 140 0
3 140 0
0 141 0
1 141 0
2 141 0
3 141 0
0 142 0
1 142 0
2 142 0
3 142 0
0 143 0
1 143 0
2 143 0
3 143 0
0 144 0
1 144 0
2 144 0
3 144 0
0 145 0
1 145 0
2 145 0
3 145 0
0 146 0
1 146 0
2 146 0
3 146 0
0 147 0
1 147 0
2 147 0
3 147 0
0 148 0
1 148 0
2 148 0
3 148 0
0 149 0
1 149 0
2 149 0
3 149 0
0 150 0
1 150 0
2 150 0
3 150 0
0 151 0
1 151 0
2 151 0
3 151 0
0 152 0
1 152 0
2 152 0
3 152 0
0 153 0
1 153 0
2 153 0
3 153 0
0 154 0
1 154 0
2 154 0
3 154 0
0 155 0
1 155 0
2 155 0
3 155 0
0 156 0
1 156 0
2 156 0
3 156 0
0 157 0
1 157 0
2 157 0
3 157 0
0 158 0
1 158 0
2 158 0
3 158 0
0 159 0
1 159 0
2 159 0
3 159 0
0 160 0
1 160 0
2 160 0
3 160 0
0 161 0
1 161 0
2 161 0
3 161 0
0 162 0
1 162 0
2 162 0
3 162 0
0 163 0
1 163 0
2 163 0
3 163 0
0 164 0
1 164 0
2 164 0
3 164 0
0 165 0
1 165 0
2 165 0
3 165 0
0 166 0
1 166 0
2 166 0
3 166 0
0 167 0
1 167 0
2 167 0
3 167 0
0 168 0
1 168 0
2 168 0
3 168 0
0 169 0
1 169 0
2 169 0
3 169 0
0 170 0
1 170 0
2 170 0
3 170 0
0 171 0
1 171 0
2 171 0
3 171 0
0 172 0
1 172 0
2 172 0
3 172 0
0 173 0
1 173 0
2 173 0
3 173 0
0 174 0
1 174 0
2 174 0
3 174 0
0 175 0
1 175 0
2 175 0
3 175 0
0 176 0
1 176 0
2 176 0
3 176 0
0 177 0
1 177 0
2 177 0
3 177 0
0 178 0
1 178 0
2 178 0
3 178 0
0 179 0
1 179 0
2 179 0
3 179 0
0 180 0
1 180 0
2 180 0
3 180 0
0 181 0
1 181 0
2 181 0
3 181 0
0 182 0
1 182 0
2 182 0
3 182 0
0 183 0
1 183 0
2 183 0
3 183 0
0 184 0
1 184 0
2 184 0
3 184 0
0 185 0
1 185 0
2 185 0
3 185 0
0 186 0
1 186 0
2 186 0
3 186 0
0 187 0
1 187 0
2 187 0
3 187 0
0 188 0
1 188 0
2 188 0
3 188 0
0 189 0
1 189 0
2 189 0
3 189 0
0 190 0
1 190 0
2 190 0
3 190 0
0 191 0
1 191 0
2 191 0
3 191 0
0 192 0
1 192 0
2 192 0
3 192 0
0 193 0
1 193 0
2 193 0
3 193 0
0 194 0
1 194 0
2 194 0
3 194 0
0 195 0
1 195 0
2 195 0
3 195 0
0 196 0
1 196 0
2 196 0
3 196 0
0 197 0
1 197 0
2 197 0
3 197 0
0 198 0
1 198 0
2 198 0
3 198 0
0 199 0
1 199 0
2 199 0
3 199 0
0 132 1
1 132 1
2 132 1
3 132 1
0 133 1
1 133 1
2 133 1
3 133 1
0 134 1
1 134 1
2 134 1
3 134 1
0 135 1
1 135 1
2 135 1
3 135 1
0 136 1
1 136 1
2 136 1
3 136 1
0 137 1
1 137 1
2 137 1
3 137 1
0 138 1
1 138 1
2 138 1
3 138 1
0 139 1
1 139 1
2 139 1
3 139 1
0 140 1
1 140 1
2 140 1
3 140 1
0 141 1
1 141 1
2 141 1
3 141 1
0 142 1
1 142 1
2 142 1
3 142 1
0 143 1
1 143 1
2 143 1
3 143 1
0 144 1
1 144 1
2 144 1
3 144 1
0 145 1
1 145 1
2 145 1
3 145 1
0 146 1
1 146 1
2 146 1
3 146 1
0 147 1
1 147 1
2 147 1
3 147 1
0 148 1
1 148 1
2 148 1
3 148 1
0 149 1
1 149 1
2 149 1
3 149 1
0 150 1
1 150 1
2 150 1
3 150 1
0 151 1
1 151 1
2 151 1
3 151 1
0 152 1
1 152 1
2 152 1
3 152 1
0 153 1
1 153 1
2 153 1
3 153 1
0 154 1
1 154 1
2 154 1
3 154 1
0 155 1
1 155 1
2 155 1
3 155 1
0 156 1
1 156 1
2 156 1
3 156 1
0 157 1
1 157 1
2 157 1
3 157 1
0 158 1
1 158 1
2 158 1
3 158 1
0 159 1
1 159 1
2 159 1
3 159 1
0 160 1
1 160 1
2 160 1
3 160 1
0 161 1
1 161 1
2 161 1
3 161 1
0 162 1
1 162 1
2 162 1
3 162 1
0 163 1
1 163 1
2 163 1
3 163 1
0 164 1
1 164 1
2 164 1
3 164 1
0 165 1
1 165 1
2 165 1
3 165 1
0 166 1
1 166 1
2 166 1
3 166 1
0 167 1
1 167 1
2 167 1
3 167 1
0 168 1
1 168 1
2 168 1
3 168 1
0 169 1
1 169 1
2 169 1
3 169 1
0 170 1
1 170 1
2 170 1
3 170 1
0 171 1
1 171 1
2 171 1
3 171 1
0 172 1
1 172 1
2 172 1
3 172 1
0 173 1
1 173 1
2 173 1
3 173 1
0 174 1
1 174 1
2 174 1
3 174 1
0 175 1
1 175 1
2 175 1
3 175 1
0 176 1
1 176 1
2 176 1
3 176 1
0 177 1
1 177 1
2 177 1
3 177 1
0 178 1
1 178 1
2 178 1
3 178 1
0 179 1
1 179 1
2 179 1
3 179 1
0 180 1
1 180 1
2 180 1
3 180 1
0 181 1
1 181 1
2 181 1
3 181 1
0 182 1
1 182 1
2 182 1
3 182 1
0 183 1
1 183 1
2 183 1
3 183 1
0 184 1
1 184 1
2 184 1
3 184 1
0 185 1
1 185 1
2 185 1
3 185 1
0 186 1
1 186 1
2 186 1
3 186 1
0 187 1
1 187 1
2 187 1
3 187 1
0 188 1
1 188 1
2 188 1
3 188 1
0 189 1
1 189 1
2 189 1
3 189 1
0 190 1
1 190 1
2 190 1
3 190 1
0 191 1
1 191 1
2 191 1
3 191 1
0 192 1
1 192 1
2 192 1
3 192 1
0 193 1
1 193 1
2 193 1
3 193 1
0 194 1
1 194 1
2 194 1
3 194 1
0 195 1
1 195 1
2 195 1
3 195 1
0 196 1
1 196 1
2 196 1
3 196 1
0 197 1
1 197 1
2 197 1
3 197 1
0 198 1
1 198 1
2 198 1
3 198 1
0 199 1
1 199 1
2 199 1
3 199 1
0 132 2
1 132 2
2 132 2
3 132 2
0 133 2
1 133 2
2 133 2
3 133 2
0 134 2
1 134 2
2 134 2
3 134 2
0 135 2
1 135 2
2 135 2
3 135 2
0 136 2
1 136 2
2 136 2
3 136 2
0 137 2
1 137 2
2 137 2
3 137 2
0 138 2
1 138 2
2 138 2
3 138 2
0 139 2
1 139 2
2 139 2
3 139 2
0 140 2
1 140 2
2 140 2
3 140 2
0 141 2
1 141 2
2 141 2
3 141 2
0 142 2
1 142 2
2 142 2
3 142 2
0 143 2
1 143 2
2 143 2
3 143 2
0 144 2
1 144 2
2 144 2
3 144 2
0 145 2
1 145 2
2 145 2
3 145 2
0 146 2
1 146 2
2 146 2
3 146 2
0 147 2
1 147 2
2 147 2
3 147 2
0 148 2
1 148 2
2 148 2
3 148 2
0 149 2
1 149 2
2 149 2
3 149 2
0 150 2
1 150 2
2 150 2
3 150 2
0 151 2
1 151 2
2 151 2
3 151 2
0 152 2
1 152 2
2 152 2
3 152 2
0 153 2
1 153 2
2 153 2
3 153 2
0 154 2
1 154 2
2 154 2
3 154 2
0 155 2
1 155 2
2 155 2
3 155 2
0 156 2
1 156 2
2 156 2
3 156 2
0 157 2
1 157 2
2 157 2
3 157 2
0 158 2
1 158 2
2 158 2
3 158 2
0 159 2
1 159 2
2 159 2
3 159 2
0 160 2
1 160 2
2 160 2
3 160 2
0 161 2
1 161 2
2 161 2
3 161 2
0 162 2
1 162 2
2 162 2
3 162 2
0 163 2
1 163 2
2 163 2
3 163 2
0 164 2
1 164 2
2 164 2
3 164 2
0 165 2
1 165 2
2 165 2
3 165 2
0 166 2
1 166 2
2 166 2
3 166 2
0 167 2
1 167 2
2 167 2
3 167 2
0 168 2
1 168 2
2 168 2
3 168 2
0 169 2
1 169 2
2 169 2
3 169 2
0 170 2
1 170 2
2 170 2
3 170 2
0 171 2
1 171 2
2 171 2
3 171 2
0 172 2
1 172 2
2 172 2
3 172 2
0 173 2
1 173 2
2 173 2
3 173 2
0 174 2
1 174 2
2 174 2
3 174 2
0 175 2
1 175 2
2 175 2
3 175 2
0 176 2
1 176 2
2 176 2
3 176 2
0 177 2
1 177 2
2 177 2
3 177 2
0 178 2
1 178 2
2 178 2
3 178 2
0 179 2
1 179 2
2 179 2
3 179 2
0 180 2
1 180 2
2 180 2
3 180 2
0 181 2
1 181 2
2 181 2
3 181 2
0 182 2
1 182 2
2 182 2
3 182 2
0 183 2
1 183 2
2 183 2
3 183 2
0 184 2
1 184 2
2 184 2
3 184 2
0 185 2
1 185 2
2 185 2
3 185 2
0 186 2
1 186 2
2 186 2
3 186 2
0 187 2
1 187 2
2 187 2
3 187 2
0 188 2
1 188 2
2 188 2
3 188 2
0 189 2
1 189 2
2 189 2
3 189 2
0 190 2
1 190 2
2 190 2
3 190 2
0 191 2
1 191 2
2 191 2
3 191 2
0 192 2
1 192 2
2 192 2
3 192 2
0 193 2
1 193 2
2 193 2
3 193 2
0 194 2
1 194 2
2 194 2
3 194 2
0 195 2
1 195 2
2 195 2
3 195 2
0 196 2
1 196 2
2 196 2
3 196 2
0 197 2
1 197 2
2 197 2
3 197 2
0 198 2
1 198 2
2 198 2
3 198 2
0 199 2
1 199 2
2 199 2
3 199 2
0 132 3
1 132 3
2 132 3
3 132 3
0 133 3
1 133 3
2 133 3
3 133 3
0 134 3
1 134 3
2 134 3
3 134 3
0 135 3
1 135 3
2 135 3
3 135 3
0 136 3
1 136 3
2 136 3
3 136 3
0 137 3
1 137 3
2 137 3
3 137 3
0 138 3
1 138 3
2 138 3
3 138 3
0 139 3
1 139 3
2 139 3
3 139 3
0 140 3
1 140 3
2 140 3
3 140 3
0 141 3
1 141 3
2 141 3
3 141 3
0 142 3
1 142 3
2 142 3
3 142 3
0 143 3
1 143 3
2 143 3
3 143 3
0 144 3
1 144 3
2 144 3
3 144 3
0 145 3
1 145 3
2 145 3
3 145 3
0 146 3
1 146 3
2 146 3
3 146 3
0 147 3
1 147 3
2 147 3
3 147 3
0 148 3
1 148 3
2 148 3
3 148 3
0 149 3
1 149 3
2 149 3
3 149 3
0 150 3
1 150 3
2 150 3
3 150 3
0 151 3
1 151 3
2 151 3
3 151 3
0 152 3
1 152 3
2 152 3
3 152 3
0 153 3
1 153 3
2 153 3
3 153 3
0 154 3
1 154 3
2 154 3
3 154 3
0 155 3
1 155 3
2 155 3
3 155 3
0 156 3
1 156 3
2 156 3
3 156 3
0 157 3
1 157 3
2 157 3
3 157 3
0 158 3
1 158 3
2 158 3
3 158 3
0 159 3
1 159 3
2 159 3
3 159 3
0 160 3
1 160 3
2 160 3
3 160 3
0 161 3
1 161 3
2 161 3
3 161 3
0 162 3
1 162 3
2 162 3
3 162 3
0 163 3
1 163 3
2 163 3
3 163 3
0 164 3
1 164 3
2 164 3
3 164 3
0 165 3
1 165 3
2 165 3
3 165 3
0 166 3
1 166 3
2 166 3
3 166 3
0 167 3
1 167 3
2 167 3
3 167 3
0 168 3
1 168 3
2 168 3
3 168 3
0 169 3
1 169 3
2 169 3
3 169 3
0 170 3
1 170 3
2 170 3
3 170 3
0 171 3
1 171 3
2 171 3
3 171 3
0 172 3
1 172 3
2 172 3
3 172 3
0 173 3
1 173 3
2 173 3
3 173 3
0 174 3
1 174 3
2 174 3
3 174 3
0 175 3
1 175 3
2 175 3
3 175 3
0 176 3
1 176 3
2 176 3
3 176 3
0 177 3
1 177 3
2 177 3
3 177 3
0 178 3
1 178 3
2 178 3
3 178 3
0 179 3
1 179 3
2 179 3
3 179 3
0 180 3
1 180 3
2 180 3
3 180 3
0 181 3
1 181 3
2 181 3
3 181 3
0 182 3
1 182 3
2 182 3
3 182 3
0 183 3
1 183 3
2 183 3
3 183 3
0 184 3
1 184 3
2 184 3
3 184 3
0 185 3
1 185 3
2 185 3
3 185 3
0 186 3
1 186 3
2 186 3
3 186 3
0 187 3
1 187 3
2 187 3
3 187 3
0 188 3
1 188 3
2 188 3
3 188 3
0 189 3
1 189 3
2 189 3
3 189 3
0 190 3
1 190 3
2 190 3
3 190 3
0 191 3
1 191 3
2 191 3
3 191 3
0 192 3
1 192 3
2 192 3
3 192 3
0 193 3
1 193 3
2 193 3
3 193 3
0 194 3
1 194 3
2 194 3
3 194 3
0 195 3
1 195 3
2 195 3
3 195 3
0 196 3
1 196 3
2 196 3
3 196 3
0 197 3
1 197 3
2 197 3
3 197 3
0 198 3
1 198 3
2 198 3
3 198 3
0 199 3
1 199 3
2 199 3
3 199 3
0 132 4
1 132 4
2 132 4
3 132 4
0 133 4
1 133 4
2 133 4
3 133 4
0 134 4
1 134 4
2 134 4
3 134 4
0 135 4
1 135 4
2 135 4
3 135 4
0 136 4
1 136 4
2 136 4
3 136 4
0 137 4
1 137 4
2 137 4
3 137 4
0 138 4
1 138 4
2 138 4
3 138 4
0 139 4
1 139 4
2 139 4
3 139 4
0 140 4
1 140 4
2 140 4
3 140 4
0 141 4
1 141 4
2 141 4
3 141 4
0 142 4
1 142 4
2 142 4
3 142 4
0 143 4
1 143 4
2 143 4
3 143 4
0 144 4
1 144 4
2 144 4
3 144 4
0 145 4
1 145 4
2 145 4
3 145 4
0 146 4
1 146 4
2 146 4
3 146 4
0 147 4
1 147 4
2 147 4
3 147 4
0 148 4
1 148 4
2 148 4
3 148 4
0 149 4
1 149 4
2 149 4
3 149 4
0 150 4
1 150 4
2 150 4
3 150 4
0 151 4
1 151 4
2 151 4
3 151 4
0 152 4
1 152 4
2 152 4
3 152 4
0 153 4
1 153 4
2 153 4
3 153 4
0 154 4
1 154 4
2 154 4
3 154 4
0 155 4
1 155 4
2 155 4
3 155 4
0 156 4
1 156 4
2 156 4
3 156 4
0 157 4
1 157 4
2 157 4
3 157 4
0 158 4
1 158 4
2 158 4
3 158 4
0 159 4
1 159 4
2 159 4
3 159 4
0 160 4
1 160 4
2 160 4
3 160 4
0 161 4
1 161 4
2 161 4
3 161 4
0 162 4
1 162 4
2 162 4
3 162 4
0 163 4
1 163 4
2 163 4
3 163 4
0 164 4
1 164 4
2 164 4
3 164 4
0 165 4
1 165 4
2 165 4
3 165 4
0 166 4
1 166 4
2 166 4
3 166 4
0 167 4
1 167 4
2 167 4
3 167 4
0 168 4
1 168 4
2 168 4
3 168 4
0 169 4
1 169 4
2 169 4
3 169 4
0 170 4
1 170 4
2 170 4
3 170 4
0 171 4
1 171 4
2 171 4
3 171 4
0 172 4
1 172 4
2 172 4
3 172 4
0 173 4
1 173 4
2 173 4
3 173 4
0 174 4
1 174 4
2 174 4
3 174 4
0 175 4
1 175 4
2 175 4
3 175 4
0 176 4
1 176 4
2 176 4
3 176 4
0 177 4
1 177 4
2 177 4
3 177 4
0 178 4
1 178 4
2 178 4
3 178 4
0 179 4
1 179 4
2 179 4
3 179 4
0 180 4
1 180 4
2 180 4
3 180 4
0 181 4
1 181 4
2 181 4
3 181 4
0 182 4
1 182 4
2 182 4
3 182 4
0 183 4
1 183 4
2 183 4
3 183 4
0 184 4
1 184 4
2 184 4
3 184 4
0 185 4
1 185 4
2 185 4
3 185 4
0 186 4
1 186 4
2 186 4
3 186 4
0 187 4
1 187 4
2 187 4
3 187 4
0 188 4
1 188 4
2 188 4
3 188 4
0 189 4
1 189 4
2 189 4
3 189 4
0 190 4
1 190 4
2 190 4
3 190 4
0 191 4
1 191 4
2 191 4
3 191 4
0 192 4
1 192 4
2 192 4
3 192 4
0 193 4
1 193 4
2 193 4
3 193 4
0 194 4
1 194 4
2 194 4
3 194 4
0 195 4
1 195 4
2 195 4
3 195 4
0 196 4
1 196 4
2 196 4
3 196 4
0 197 4
1 197 4
2 197 4
3 197 4
0 198 4
1 198 4
2 198 4
3 198 4
0 199 4
1 199 4
2 199 4
3 199 4
0 132 5
1 132 5
2 132 5
3 132 5
0 133 5
1 133 5
2 133 5
3 133 5
0 134 5
1 134 5
2 134 5
3 134 5
0 135 5
1 135 5
2 135 5
3 135 5
0 136 5
1 136 5
2 136 5
3 136 5
0 137 5
1 137 5
2 137 5
3 137 5
0 138 5
1 138 5
2 138 5
3 138 5
0 139 5
1 139 5
2 139 5
3 139 5
0 140 5
1 140 5
2 140 5
3 140 5
0 141 5
1 141 5
2 141 5
3 141 5
0 142 5
1 142 5
2 142 5
3 142 5
0 143 5
1 143 5
2 143 5
3 143 5
0 144 5
1 144 5
2 144 5
3 144 5
0 145 5
1 145 5
2 145 5
3 145 5
0 146 5
1 146 5
2 146 5
3 146 5
0 147 5
1 147 5
2 147 5
3 147 5
0 148 5
1 148 5
2 148 5
3 148 5
0 149 5
1 149 5
2 149 5
3 149 5
0 150 5
1 150 5
2 150 5
3 150 5
0 151 5
1 151 5
2 151 5
3 151 5
0 152 5
1 152 5
2 152 5
3 152 5
0 153 5
1 153 5
2 153 5
3 153 5
0 154 5
1 154 5
2 154 5
3 154 5
0 155 5
1 155 5
2 155 5
3 155 5
0 156 5
1 156 5
2 156 5
3 156 5
0 157 5
1 157 5
2 157 5
3 157 5
0 158 5
1 158 5
2 158 5
3 158 5
0 159 5
1 159 5
2 159 5
3 159 5
0 160 5
1 160 5
2 160 5
3 160 5
0 161 5
1 161 5
2 161 5
3 161 5
0 162 5
1 162 5
2 162 5
3 162 5
0 163 5
1 163 5
2 163 5
3 163 5
0 164 5
1 164 5
2 164 5
3 164 5
0 165 5
1 165 5
2 165 5
3 165 5
0 166 5
1 166 5
2 166 5
3 166 5
0 167 5
1 167 5
2 167 5
3 167 5
0 168 5
1 168 5
2 168 5
3 168 5
0 169 5
1 169 5
2 169 5
3 169 5
0 170 5
1 170 5
2 170 5
3 170 5
0 171 5
1 171 5
2 171 5
3 171 5
0 172 5
1 172 5
2 172 5
3 172 5
0 173 5
1 173 5
2 173 5
3 173 5
0 174 5
1 174 5
2 174 5
3 174 5
0 175 5
1 175 5
2 175 5
3 175 5
0 176 5
1 176 5
2 176 5
3 176 5
0 177 5
1 177 5
2 177 5
3 177 5
0 178 5
1 178 5
2 178 5
3 178 5
0 179 5
1 179 5
2 179 5
3 179 5
0 180 5
1 180 5
2 180 5
3 180 5
0 181 5
1 181 5
2 181 5
3 181 5
0 182 5
1 182 5
2 182 5
3 182 5
0 183 5
1 183 5
2 183 5
3 183 5
0 184 5
1 184 5
2 184 5
3 184 5
0 185 5
1 185 5
2 185 5
3 185 5
0 186 5
1 186 5
2 186 5
3 186 5
0 187 5
1 187 5
2 187 5
3 187 5
0 188 5
1 188 5
2 188 5
3 188 5
0 189 5
1 189 5
2 189 5
3 189 5
0 190 5
1 190 5
2 190 5
3 190 5
0 191 5
1 191 5
2 191 5
3 191 5
0 192 5
1 192 5
2 192 5
3 192 5
0 193 5
1 193 5
2 193 5
3 193 5
0 194 5
1 194 5
2 194 5
3 194 5
0 195 5
1 195 5
2 195 5
3 195 5
0 196 5
1 196 5
2 196 5
3 196 5
0 197 5
1 197 5
2 197 5
3 197 5
0 198 5
1 198 5
2 198 5
3 198 5
0 199 5
1 199 5
2 199 5
3 199 5
0 132 6
1 132 6
2 132 6
3 132 6
0 133 6
1 133 6
2 133 6
3 133 6
0 134 6
1 134 6
2 134 6
3 134 6
0 135 6
1 135 6
2 135 6
3 135 6
0 136 6
1 136 6
2 136 6
3 136 6
0 137 6
1 137 6
2 137 6
3 137 6
0 138 6
1 138 6
2 138 6
3 138 6
0 139 6
1 139 6
2 139 6
3 139 6
0 140 6
1 140 6
2 140 6
3 140 6
0 141 6
1 141 6
2 141 6
3 141 6
0 142 6
1 142 6
2 142 6
3 142 6
0 143 6
1 143 6
2 143 6
3 143 6
0 144 6
1 144 6
2 144 6
3 144 6
0 145 6
1 145 6
2 145 6
3 145 6
0 146 6
1 146 6
2 146 6
3 146 6
0 147 6
1 147 6
2 147 6
3 147 6
0 148 6
1 148 6
2 148 6
3 148 6
0 149 6
1 149 6
2 149 6
3 149 6
0 150 6
1 150 6
2 150 6
3 150 6
0 151 6
1 151 6
2 151 6
3 151 6
0 152 6
1 152 6
2 152 6
3 152 6
0 153 6
1 153 6
2 153 6
3 153 6
0 154 6
1 154 6
2 154 6
3 154 6
0 155 6
1 155 6
2 155 6
3 155 6
0 156 6
1 156 6
2 156 6
3 156 6
0 157 6
1 157 6
2 157 6
3 157 6
0 158 6
1 158 6
2 158 6
3 158 6
0 159 6
1 159 6
2 159 6
3 159 6
0 160 6
1 160 6
2 160 6
3 160 6
0 161 6
1 161 6
2 161 6
3 161 6
0 162 6
1 162 6
2 162 6
3 162 6
0 163 6
1 163 6
2 163 6
3 163 6
0 164 6
1 164 6
2 164 6
3 164 6
0 165 6
1 165 6
2 165 6
3 165 6
0 166 6
1 166 6
2 166 6
3 166 6
0 167 6
1 167 6
2 167 6
3 167 6
0 168 6
1 168 6
2 168 6
3 168 6
0 169 6
1 169 6
2 169 6
3 169 6
0 170 6
1 170 6
2 170 6
3 170 6
0 171 6
1 171 6
2 171 6
3 171 6
0 172 6
1 172 6
2 172 6
3 172 6
0 173 6
1 173 6
2 173 6
3 173 6
0 174 6
1 174 6
2 174 6
3 174 6
0 175 6
1 175 6
2 175 6
3 175 6
0 176 6
1 176 6
2 176 6
3 176 6
0 177 6
1 177 6
2 177 6
3 177 6
0 178 6
1 178 6
2 178 6
3 178 6
0 179 6
1 179 6
2 179 6
3 179 6
0 180 6
1 180 6
2 180 6
3 180 6
0 181 6
1 181 6
2 181 6
3 181 6
0 182 6
1 182 6
2 182 6
3 182 6
0 183 6
1 183 6
2 183 6
3 183 6
0 184 6
1 184 6
2 184 6
3 184 6
0 185 6
1 185 6
2 185 6
3 185 6
0 186 6
1 186 6
2 186 6
3 186 6
0 187 6
1 187 6
2 187 6
3 187 6
0 188 6
1 188 6
2 188 6
3 188 6
0 189 6
1 189 6
2 189 6
3 189 6
0 190 6
1 190 6
2 190 6
3 190 6
0 191 6
1 191 6
2 191 6
3 191 6
0 192 6
1 192 6
2 192 6
3 192 6
0 193 6
1 193 6
2 193 6
3 193 6
0 194 6
1 194 6
2 194 6
3 194 6
0 195 6
1 195 6
2 195 6
3 195 6
0 196 6
1 196 6
2 196 6
3 196 6
0 197 6
1 197 6
2 197 6
3 197 6
0 198 6
1 198 6
2 198 6
3 198 6
0 199 6
1 199 6
2 199 6
3 199 6
0 132 7
1 132 7
2 132 7
3 132 7
0 133 7
1 133 7
2 133 7
3 133 7
0 134 7
1 134 7
2 134 7
3 134 7
0 135 7
1 135 7
2 135 7
3 135 7
0 136 7
1 136 7
2 136 7
3 136 7
0 137 7
1 137 7
2 137 7
3 137 7
0 138 7
1 138 7
2 138 7
3 138 7
0 139 7
1 139 7
2 139 7
3 139 7
0 140 7
1 140 7
2 140 7
3 140 7
0 141 7
1 141 7
2 141 7
3 141 7
0 142 7
1 142 7
2 142 7
3 142 7
0 143 7
1 143 7
2 143 7
3 143 7
0 144 7
1 144 7
2 144 7
3 144 7
0 145 7
1 145 7
2 145 7
3 145 7
0 146 7
1 146 7
2 146 7
3 146 7
0 147 7
1 147 7
2 147 7
3 147 7
0 148 7
1 148 7
2 148 7
3 148 7
0 149 7
1 149 7
2 149 7
3 149 7
0 150 7
1 150 7
2 150 7
3 150 7
0 151 7
1 151 7
2 151 7
3 151 7
0 152 7
1 152 7
2 152 7
3 152 7
0 153 7
1 153 7
2 153 7
3 153 7
0 154 7
1 154 7
2 154 7
3 154 7
0 155 7
1 155 7
2 155 7
3 155 7
0 156 7
1 156 7
2 156 7
3 156 7
0 157 7
1 157 7
2 157 7
3 157 7
0 158 7
1 158 7
2 158 7
3 158 7
0 159 7
1 159 7
2 159 7
3 159 7
0 160 7
1 160 7
2 160 7
3 160 7
0 161 7
1 161 7
2 161 7
3 161 7
0 162 7
1 162 7
2 162 7
3 162 7
0 163 7
1 163 7
2 163 7
3 163 7
0 164 7
1 164 7
2 164 7
3 164 7
0 165 7
1 165 7
2 165 7
3 165 7
0 166 7
1 166 7
2 166 7
3 166 7
0 167 7
1 167 7
2 167 7
3 167 7
0 168 7
1 168 7
2 168 7
3 168 7
0 169 7
1 169 7
2 169 7
3 169 7
0 170 7
1 170 7
2 170 7
3 170 7
0 171 7
1 171 7
2 171 7
3 171 7
0 172 7
1 172 7
2 172 7
3 172 7
0 173 7
1 173 7
2 173 7
3 173 7
0 174 7
1 174 7
2 174 7
3 174 7
0 175 7
1 175 7
2 175 7
3 175 7
0 176 7
1 176 7
2 176 7
3 176 7
0 177 7
1 177 7
2 177 7
3 177 7
0 178 7
1 178 7
2 178 7
3 178 7
0 179 7
1 179 7
2 179 7
3 179 7
0 180 7
1 180 7
2 180 7
3 180 7
0 181 7
1 181 7
2 181 7
3 181 7
0 182 7
1 182 7
2 182 7
3 182 7
0 183 7
1 183 7
2 183 7
3 183 7
0 184 7
1 184 7
2 184 7
3 184 7
0 185 7
1 185 7
2 185 7
3 185 7
0 186 7
1 186 7
2 186 7
3 186 7
0 187 7
1 187 7
2 187 7
3 187 7
0 188 7
1 188 7
2 188 7
3 188 7
0 189 7
1 189 7
2 189 7
3 189 7
0 190 7
1 190 7
2 190 7
3 190 7
0 191 7
1 191 7
2 191 7
3 191 7
0 192 7
1 192 7
2 192 7
3 192 7
0 193 7
1 193 7
2 193 7
3 193 7
0 194 7
1 194 7
2 194 7
3 194 7
0 195 7
1 195 7
2 195 7
3 195 7
0 196 7
1 196 7
2 196 7
3 196 7
0 197 7
1 197 7
2 197 7
3 197 7
0 198 7
1 198 7
2 198 7
3 198 7
0 199 7
1 199 7
2 199 7
3 199 7
0 132 8
1 132 8
2 132 8
3 132 8
0 133 8
1 133 8
2 133 8
3 133 8
0 134 8
1 134 8
2 134 8
3 134 8
0 135 8
1 135 8
2 135 8
3 135 8
0 136 8
1 136 8
2 136 8
3 136 8
0 137 8
1 137 8
2 137 8
3 137 8
0 138 8
1 138 8
2 138 8
3 138 8
0 139 8
1 139 8
2 139 8
3 139 8
0 140 8
1 140 8
2 140 8
3 140 8
0 141 8
1 141 8
2 141 8
3 141 8
0 142 8
1 142 8
2 142 8
3 142 8
0 143 8
1 143 8
2 143 8
3 143 8
0 144 8
1 144 8
2 144 8
3 144 8
0 145 8
1 145 8
2 145 8
3 145 8
0 146 8
1 146 8
2 146 8
3 146 8
0 147 8
1 147 8
2 147 8
3 147 8
0 148 8
1 148 8
2 148 8
3 148 8
0 149 8
1 149 8
2 149 8
3 149 8
0 150 8
1 150 8
2 150 8
3 150 8
0 151 8
1 151 8
2 151 8
3 151 8
0 152 8
1 152 8
2 152 8
3 152 8
0 153 8
1 153 8
2 153 8
3 153 8
0 154 8
1 154 8
2 154 8
3 154 8
0 155 8
1 155 8
2 155 8
3 155 8
0 156 8
1 156 8
2 156 8
3 156 8
0 157 8
1 157 8
2 157 8
3 157 8
0 158 8
1 158 8
2 158 8
3 158 8
0 159 8
1 159 8
2 159 8
3 159 8
0 160 8
1 160 8
2 160 8
3 160 8
0 161 8
1 161 8
2 161 8
3 161 8
0 162 8
1 162 8
2 162 8
3 162 8
0 163 8
1 163 8
2 163 8
3 163 8
0 164 8
1 164 8
2 164 8
3 164 8
0 165 8
1 165 8
2 165 8
3 165 8
0 166 8
1 166 8
2 166 8
3 166 8
0 167 8
1 167 8
2 167 8
3 167 8
0 168 8
1 168 8
2 168 8
3 168 8
0 169 8
1 169 8
2 169 8
3 169 8
0 170 8
1 170 8
2 170 8
3 170 8
0 171 8
1 171 8
2 171 8
3 171 8
0 172 8
1 172 8
2 172 8
3 172 8
0 173 8
1 173 8
2 173 8
3 173 8
0 174 8
1 174 8
2 174 8
3 174 8
0 175 8
1 175 8
2 175 8
3 175 8
0 176 8
1 176 8
2 176 8
3 176 8
0 177 8
1 177 8
2 177 8
3 177 8
0 178 8
1 178 8
2 178 8
3 178 8
0 179 8
1 179 8
2 179 8
3 179 8
0 180 8
1 180 8
2 180 8
3 180 8
0 181 8
1 181 8
2 181 8
3 181 8
0 182 8
1 182 8
2 182 8
3 182 8
0 183 8
1 183 8
2 183 8
3 183 8
0 184 8
1 184 8
2 184 8
3 184 8
0 185 8
1 185 8
2 185 8
3 185 8
0 186 8
1 186 8
2 186 8
3 186 8
0 187 8
1 187 8
2 187 8
3 187 8
0 188 8
1 188 8
2 188 8
3 188 8
0 189 8
1 189 8
2 189 8
3 189 8
0 190 8
1 190 8
2 190 8
3 190 8
0 191 8
1 191 8
2 191 8
3 191 8
0 192 8
1 192 8
2 192 8
3 192 8
0 193 8
1 193 8
2 193 8
3 193 8
0 194 8
1 194 8
2 194 8
3 194 8
0 195 8
1 195 8
2 195 8
3 195 8
0 196 8
1 196 8
2 196 8
3 196 8
0 197 8
1 197 8
2 197 8
3 197 8
0 198 8
1 198 8
2 198 8
3 198 8
0 199 8
1 199 8
2 199 8
3 199 8
0 132 9
1 132 9
2 132 9
3 132 9
0 133 9
1 133 9
2 133 9
3 133 9
0 134 9
1 134 9
2 134 9
3 134 9
0 135 9
1 135 9
2 135 9
3 135 9
0 136 9
1 136 9
2 136 9
3 136 9
0 137 9
1 137 9
2 137 9
3 137 9
0 138 9
1 138 9
2 138 9
3 138 9
0 139 9
1 139 9
2 139 9
3 139 9
0 140 9
1 140 9
2 140 9
3 140 9
0 141 9
1 141 9
2 141 9
3 141 9
0 142 9
1 142 9
2 142 9
3 142 9
0 143 9
1 143 9
2 143 9
3 143 9
0 144 9
1 144 9
2 144 9
3 144 9
0 145 9
1 145 9
2 145 9
3 145 9
0 146 9
1 146 9
2 146 9
3 146 9
0 147 9
1 147 9
2 147 9
3 147 9
0 148 9
1 148 9
2 148 9
3 148 9
0 149 9
1 149 9
2 149 9
3 149 9
0 150 9
1 150 9
2 150 9
3 150 9
0 151 9
1 151 9
2 151 9
3 151 9
0 152 9
1 152 9
2 152 9
3 152 9
0 153 9
1 153 9
2 153 9
3 153 9
0 154 9
1 154 9
2 154 9
3 154 9
0 155 9
1 155 9
2 155 9
3 155 9
0 156 9
1 156 9
2 156 9
3 156 9
0 157 9
1 157 9
2 157 9
3 157 9
0 158 9
1 158 9
2 158 9
3 158 9
0 159 9
1 159 9
2 159 9
3 159 9
0 160 9
1 160 9
2 160 9
3 160 9
0 161 9
1 161 9
2 161 9
3 161 9
0 162 9
1 162 9
2 162 9
3 162 9
0 163 9
1 163 9
2 163 9
3 163 9
0 164 9
1 164 9
2 164 9
3 164 9
0 165 9
1 165 9
2 165 9
3 165 9
0 166 9
1 166 9
2 166 9
3 166 9
0 167 9
1 167 9
2 167 9
3 167 9
0 168 9
1 168 9
2 168 9
3 168 9
0 169 9
1 169 9
2 169 9
3 169 9
0 170 9
1 170 9
2 170 9
3 170 9
0 171 9
1 171 9
2 171 9
3 171 9
0 172 9
1 172 9
2 172 9
3 172 9
0 173 9
1 173 9
2 173 9
3 173 9
0 174 9
1 174 9
2 174 9
3 174 9
0 175 9
1 175 9
2 175 9
3 175 9
0 176 9
1 176 9
2 176 9
3 176 9
0 177 9
1 177 9
2 177 9
3 177 9
0 178 9
1 178 9
2 178 9
3 178 9
0 179 9
1 179 9
2 179 9
3 179 9
0 180 9
1 180 9
2 180 9
3 180 9
0 181 9
1 181 9
2 181 9
3 181 9
0 182 9
1 182 9
2 182 9
3 182 9
0 183 9
1 183 9
2 183 9
3 183 9
0 184 9
1 184 9
2 184 9
3 184 9
0 185 9
1 185 9
2 185 9
3 185 9
0 186 9
1 186 9
2 186 9
3 186 9
0 187 9
1 187 9
2 187 9
3 187 9
0 188 9
1 188 9
2 188 9
3 188 9
0 189 9
1 189 9
2 189 9
3 189 9
0 190 9
1 190 9
2 190 9
3 190 9
0 191 9
1 191 9
2 191 9
3 191 9
0 192 9
1 192 9
2 192 9
3 192 9
0 193 9
1 193 9
2 193 9
3 193 9
0 194 9
1 194 9
2 194 9
3 194 9
0 195 9
1 195 9
2 195 9
3 195 9
0 196 9
1 196 9
2 196 9
3 196 9
0 197 9
1 197 9
2 197 9
3 197 9
0 198 9
1 198 9
2 198 9
3 198 9
0 199 9
1 199 9
2 199 9
3 199 9
0 132 10
1 132 10
2 132 10
3 132 10
0 133 10
1 133 10
2 133 10
3 133 10
0 134 10
1 134 10
2 134 10
3 134 10
0 135 10
1 135 10
2 135 10
3 135 10
0 136 10
1 136 10
2 136 10
3 136 10
0 137 10
1 137 10
2 137 10
3 137 10
0 138 10
1 138 10
2 138 10
3 138 10
0 139 10
1 139 10
2 139 10
3 139 10
0 140 10
1 140 10
2 140 10
3 140 10
0 141 10
1 141 10
2 141 10
3 141 10
0 142 10
1 142 10
2 142 10
3 142 10
0 143 10
1 143 10
2 143 10
3 143 10
0 144 10
1 144 10
2 144 10
3 144 10
0 145 10
1 145 10
2 145 10
3 145 10
0 146 10
1 146 10
2 146 10
3 146 10
0 147 10
1 147 10
2 147 10
3 147 10
0 148 10
1 148 10
2 148 10
3 148 10
0 149 10
1 149 10
2 149 10
3 149 10
0 150 10
1 150 10
2 150 10
3 150 10
0 151 10
1 151 10
2 151 10
3 151 10
0 152 10
1 152 10
2 152 10
3 152 10
0 153 10
1 153 10
2 153 10
3 153 10
0 154 10
1 154 10
2 154 10
3 154 10
0 155 10
1 155 10
2 155 10
3 155 10
0 156 10
1 156 10
2 156 10
3 156 10
0 157 10
1 157 10
2 157 10
3 157 10
0 158 10
1 158 10
2 158 10
3 158 10
0 159 10
1 159 10
2 159 10
3 159 10
0 160 10
1 160 10
2 160 10
3 160 10
0 161 10
1 161 10
2 161 10
3 161 10
0 162 10
1 162 10
2 162 10
3 162 10
0 163 10
1 163 10
2 163 10
3 163 10
0 164 10
1 164 10
2 164 10
3 164 10
0 165 10
1 165 10
2 165 10
3 165 10
0 166 10
1 166 10
2 166 10
3 166 10
0 167 10
1 167 10
2 167 10
3 167 10
0 168 10
1 168 10
2 168 10
3 168 10
0 169 10
1 169 10
2 169 10
3 169 10
0 170 10
1 170 10
2 170 10
3 170 10
0 171 10
1 171 10
2 171 10
3 171 10
0 172 10
1 172 10
2 172 10
3 172 10
0 173 10
1 173 10
2 173 10
3 173 10
0 174 10
1 174 10
2 174 10
3 174 10
0 175 10
1 175 10
2 175 10
3 175 10
0 176 10
1 176 10
2 176 10
3 176 10
0 177 10
1 177 10
2 177 10
3 177 10
0 178 10
1 178 10
2 178 10
3 178 10
0 179 10
1 179 10
2 179 10
3 179 10
0 180 10
1 180 10
2 180 10
3 180 10
0 181 10
1 181 10
2 181 10
3 181 10
0 182 10
1 182 10
2 182 10
3 182 10
0 183 10
1 183 10
2 183 10
3 183 10
0 184 10
1 184 10
2 184 10
3 184 10
0 185 10
1 185 10
2 185 10
3 185 10
0 186 10
1 186 10
2 186 10
3 186 10
0 187 10
1 187 10
2 187 10
3 187 10
0 188 10
1 188 10
2 188 10
3 188 10
0 189 10
1 189 10
2 189 10
3 189 10
0 190 10
1 190 10
2 190 10
3 190 10
0 191 10
1 191 10
2 191 10
3 191 10
0 192 10
1 192 10
2 192 10
3 192 10
0 193 10
1 193 10
2 193 10
3 193 10
0 194 10
1 194 10
2 194 10
3 194 10
0 195 10
1 195 10
2 195 10
3 195 10
0 196 10
1 196 10
2 196 10
3 196 10
0 197 10
1 197 10
2 197 10
3 197 10
0 198 10
1 198 10
2 198 10
3 198 10
0 199 10
1 199 10
2 199 10
3 199 10
0 132 11
1 132 11
2 132 11
3 132 11
0 133 11
1 133 11
2 133 11
3 133 11
0 134 11
1 134 11
2 134 11
3 134 11
0 135 11
1 135 11
2 135 11
3 135 11
0 136 11
1 136 11
2 136 11
3 136 11
0 137 11
1 137 11
2 137 11
3 137 11
0 138 11
1 138 11
2 138 11
3 138 11
0 139 11
1 139 11
2 139 11
3 139 11
0 140 11
1 140 11
2 140 11
3 140 11
0 141 11
1 141 11
2 141 11
3 141 11
0 142 11
1 142 11
2 142 11
3 142 11
0 143 11
1 143 11
2 143 11
3 143 11
0 144 11
1 144 11
2 144 11
3 144 11
0 145 11
1 145 11
2 145 11
3 145 11
0 146 11
1 146 11
2 146 11
3 146 11
0 147 11
1 147 11
2 147 11
3 147 11
0 148 11
1 148 11
2 148 11
3 148 11
0 149 11
1 149 11
2 149 11
3 149 11
0 150 11
1 150 11
2 150 11
3 150 11
0 151 11
1 151 11
2 151 11
3 151 11
0 152 11
1 152 11
2 152 11
3 152 11
0 153 11
1 153 11
2 153 11
3 153 11
0 154 11
1 154 11
2 154 11
3 154 11
0 155 11
1 155 11
2 155 11
3 155 11
0 156 11
1 156 11
2 156 11
3 156 11
0 157 11
1 157 11
2 157 11
3 157 11
0 158 11
1 158 11
2 158 11
3 158 11
0 159 11
1 159 11
2 159 11
3 159 11
0 160 11
1 160 11
2 160 11
3 160 11
0 161 11
1 161 11
2 161 11
3 161 11
0 162 11
1 162 11
2 162 11
3 162 11
0 163 11
1 163 11
2 163 11
3 163 11
0 164 11
1 164 11
2 164 11
3 164 11
0 165 11
1 165 11
2 165 11
3 165 11
0 166 11
1 166 11
2 166 11
3 166 11
0 167 11
1 167 11
2 167 11
3 167 11
0 168 11
1 168 11
2 168 11
3 168 11
0 169 11
1 169 11
2 169 11
3 169 11
0 170 11
1 170 11
2 170 11
3 170 11
0 171 11
1 171 11
2 171 11
3 171 11
0 172 11
1 172 11
2 172 11
3 172 11
0 173 11
1 173 11
2 173 11
3 173 11
0 174 11
1 174 11
2 174 11
3 174 11
0 175 11
1 175 11
2 175 11
3 175 11
0 176 11
1 176 11
2 176 11
3 176 11
0 177 11
1 177 11
2 177 11
3 177 11
0 178 11
1 178 11
2 178 11
3 178 11
0 179 11
1 179 11
2 179 11
3 179 11
0 180 11
1 180 11
2 180 11
3 180 11
0 181 11
1 181 11
2 181 11
3 181 11
0 182 11
1 182 11
2 182 11
3 182 11
0 183 11
1 183 11
2 183 11
3 183 11
0 184 11
1 184 11
2 184 11
3 184 11
0 185 11
1 185 11
2 185 11
3 185 11
0 186 11
1 186 11
2 186 11
3 186 11
0 187 11
1 187 11
2 187 11
3 187 11
0 188 11
1 188 11
2 188 11
3 188 11
0 189 11
1 189 11
2 189 11
3 189 11
0 190 11
1 190 11
2 190 11
3 190 11
0 191 11
1 191 11
2 191 11
3 191 11
0 192 11
1 192 11
2 192 11
3 192 11
0 193 11
1 193 11
2 193 11
3 193 11
0 194 11
1 194 11
2 194 11
3 194 11
0 195 11
1 195 11
2 195 11
3 195 11
0 196 11
1 196 11
2 196 11
3 196 11
0 197 11
1 197 11
2 197 11
3 197 11
0 198 11
1 198 11
2 198 11
3 198 11
0 199 11
1 199 11
2 199 11
3 199 11
0 132 12
1 132 12
2 132 12
3 132 12
0 133 12
1 133 12
2 133 12
3 133 12
0 134 12
1 134 12
2 134 12
3 134 12
0 135 12
1 135 12
2 135 12
3 135 12
0 136 12
1 136 12
2 136 12
3 136 12
0 137 12
1 137 12
2 137 12
3 137 12
0 138 12
1 138 12
2 138 12
3 138 12
0 139 12
1 139 12
2 139 12
3 139 12
0 140 12
1 140 12
2 140 12
3 140 12
0 141 12
1 141 12
2 141 12
3 141 12
0 142 12
1 142 12
2 142 12
3 142 12
0 143 12
1 143 12
2 143 12
3 143 12
0 144 12
1 144 12
2 144 12
3 144 12
0 145 12
1 145 12
2 145 12
3 145 12
0 146 12
1 146 12
2 146 12
3 146 12
0 147 12
1 147 12
2 147 12
3 147 12
0 148 12
1 148 12
2 148 12
3 148 12
0 149 12
1 149 12
2 149 12
3 149 12
0 150 12
1 150 12
2 150 12
3 150 12
0 151 12
1 151 12
2 151 12
3 151 12
0 152 12
1 152 12
2 152 12
3 152 12
0 153 12
1 153 12
2 153 12
3 153 12
0 154 12
1 154 12
2 154 12
3 154 12
0 155 12
1 155 12
2 155 12
3 155 12
0 156 12
1 156 12
2 156 12
3 156 12
0 157 12
1 157 12
2 157 12
3 157 12
0 158 12
1 158 12
2 158 12
3 158 12
0 159 12
1 159 12
2 159 12
3 159 12
0 160 12
1 160 12
2 160 12
3 160 12
0 161 12
1 161 12
2 161 12
3 161 12
0 162 12
1 162 12
2 162 12
3 162 12
0 163 12
1 163 12
2 163 12
3 163 12
0 164 12
1 164 12
2 164 12
3 164 12
0 165 12
1 165 12
2 165 12
3 165 12
0 166 12
1 166 12
2 166 12
3 166 12
0 167 12
1 167 12
2 167 12
3 167 12
0 168 12
1 168 12
2 168 12
3 168 12
0 169 12
1 169 12
2 169 12
3 169 12
0 170 12
1 170 12
2 170 12
3 170 12
0 171 12
1 171 12
2 171 12
3 171 12
0 172 12
1 172 12
2 172 12
3 172 12
0 173 12
1 173 12
2 173 12
3 173 12
0 174 12
1 174 12
2 174 12
3 174 12
0 175 12
1 175 12
2 175 12
3 175 12
0 176 12
1 176 12
2 176 12
3 176 12
0 177 12
1 177 12
2 177 12
3 177 12
0 178 12
1 178 12
2 178 12
3 178 12
0 179 12
1 179 12
2 179 12
3 179 12
0 180 12
1 180 12
2 180 12
3 180 12
0 181 12
1 181 12
2 181 12
3 181 12
0 182 12
1 182 12
2 182 12
3 182 12
0 183 12
1 183 12
2 183 12
3 183 12
0 184 12
1 184 12
2 184 12
3 184 12
0 185 12
1 185 12
2 185 12
3 185 12
0 186 12
1 186 12
2 186 12
3 186 12
0 187 12
1 187 12
2 187 12
3 187 12
0 188 12
1 188 12
2 188 12
3 188 12
0 189 12
1 189 12
2 189 12
3 189 12
0 190 12
1 190 12
2 190 12
3 190 12
0 191 12
1 191 12
2 191 12
3 191 12
0 192 12
1 192 12
2 192 12
3 192 12
0 193 12
1 193 12
2 193 12
3 193 12
0 194 12
1 194 12
2 194 12
3 194 12
0 195 12
1 195 12
2 195 12
3 195 12
0 196 12
1 196 12
2 196 12
3 196 12
0 197 12
1 197 12
2 197 12
3 197 12
0 198 12
1 198 12
2 198 12
3 198 12
0 199 12
1 199 12
2 199 12
3 199 12
0 132 13
1 132 13
2 132 13
3 132 13
0 133 13
1 133 13
2 133 13
3 133 13
0 134 13
1 134 13
2 134 13
3 134 13
0 135 13
1 135 13
2 135 13
3 135 13
0 136 13
1 136 13
2 136 13
3 136 13
0 137 13
1 137 13
2 137 13
3 137 13
0 138 13
1 138 13
2 138 13
3 138 13
0 139 13
1 139 13
2 139 13
3 139 13
0 140 13
1 140 13
2 140 13
3 140 13
0 141 13
1 141 13
2 141 13
3 141 13
0 142 13
1 142 13
2 142 13
3 142 13
0 143 13
1 143 13
2 143 13
3 143 13
0 144 13
1 144 13
2 144 13
3 144 13
0 145 13
1 145 13
2 145 13
3 145 13
0 146 13
1 146 13
2 146 13
3 146 13
0 147 13
1 147 13
2 147 13
3 147 13
0 148 13
1 148 13
2 148 13
3 148 13
0 149 13
1 149 13
2 149 13
3 149 13
0 150 13
1 150 13
2 150 13
3 150 13
0 151 13
1 151 13
2 151 13
3 151 13
0 152 13
1 152 13
2 152 13
3 152 13
0 153 13
1 153 13
2 153 13
3 153 13
0 154 13
1 154 13
2 154 13
3 154 13
0 155 13
1 155 13
2 155 13
3 155 13
0 156 13
1 156 13
2 156 13
3 156 13
0 157 13
1 157 13
2 157 13
3 157 13
0 158 13
1 158 13
2 158 13
3 158 13
0 159 13
1 159 13
2 159 13
3 159 13
0 160 13
1 160 13
2 160 13
3 160 13
0 161 13
1 161 13
2 161 13
3 161 13
0 162 13
1 162 13
2 162 13
3 162 13
0 163 13
1 163 13
2 163 13
3 163 13
0 164 13
1 164 13
2 164 13
3 164 13
0 165 13
1 165 13
2 165 13
3 165 13
0 166 13
1 166 13
2 166 13
3 166 13
0 167 13
1 167 13
2 167 13
3 167 13
0 168 13
1 168 13
2 168 13
3 168 13
0 169 13
1 169 13
2 169 13
3 169 13
0 170 13
1 170 13
2 170 13
3 170 13
0 171 13
1 171 13
2 171 13
3 171 13
0 172 13
1 172 13
2 172 13
3 172 13
0 173 13
1 173 13
2 173 13
3 173 13
0 174 13
1 174 13
2 174 13
3 174 13
0 175 13
1 175 13
2 175 13
3 175 13
0 176 13
1 176 13
2 176 13
3 176 13
0 177 13
1 177 13
2 177 13
3 177 13
0 178 13
1 178 13
2 178 13
3 178 13
0 179 13
1 179 13
2 179 13
3 179 13
0 180 13
1 180 13
2 180 13
3 180 13
0 181 13
1 181 13
2 181 13
3 181 13
0 182 13
1 182 13
2 182 13
3 182 13
0 183 13
1 183 13
2 183 13
3 183 13
0 184 13
1 184 13
2 184 13
3 184 13
0 185 13
1 185 13
2 185 13
3 185 13
0 186 13
1 186 13
2 186 13
3 186 13
0 187 13
1 187 13
2 187 13
3 187 13
0 188 13
1 188 13
2 188 13
3 188 13
0 189 13
1 189 13
2 189 13
3 189 13
0 190 13
1 190 13
2 190 13
3 190 13
0 191 13
1 191 13
2 191 13
3 191 13
0 192 13
1 192 13
2 192 13
3 192 13
0 193 13
1 193 13
2 193 13
3 193 13
0 194 13
1 194 13
2 194 13
3 194 13
0 195 13
1 195 13
2 195 13
3 195 13
0 196 13
1 196 13
2 196 13
3 196 13
0 197 13
1 197 13
2 197 13
3 197 13
0 198 13
1 198 13
2 198 13
3 198 13
0 199 13
1 199 13
2 199 13
3 199 13
0 132 14
1 132 14
2 132 14
3 132 14
0 133 14
1 133 14
2 133 14
3 133 14
0 134 14
1 134 14
2 134 14
3 134 14
0 135 14
1 135 14
2 135 14
3 135 14
0 136 14
1 136 14
2 136 14
3 136 14
0 137 14
1 137 14
2 137 14
3 137 14
0 138 14
1 138 14
2 138 14
3 138 14
0 139 14
1 139 14
2 139 14
3 139 14
0 140 14
1 140 14
2 140 14
3 140 14
0 141 14
1 141 14
2 141 14
3 141 14
0 142 14
1 142 14
2 142 14
3 142 14
0 143 14
1 143 14
2 143 14
3 143 14
0 144 14
1 144 14
2 144 14
3 144 14
0 145 14
1 145 14
2 145 14
3 145 14
0 146 14
1 146 14
2 146 14
3 146 14
0 147 14
1 147 14
2 147 14
3 147 14
0 148 14
1 148 14
2 148 14
3 148 14
0 149 14
1 149 14
2 149 14
3 149 14
0 150 14
1 150 14
2 150 14
3 150 14
0 151 14
1 151 14
2 151 14
3 151 14
0 152 14
1 152 14
2 152 14
3 152 14
0 153 14
1 153 14
2 153 14
3 153 14
0 154 14
1 154 14
2 154 14
3 154 14
0 155 14
1 155 14
2 155 14
3 155 14
0 156 14
1 156 14
2 156 14
3 156 14
0 157 14
1 157 14
2 157 14
3 157 14
0 158 14
1 158 14
2 158 14
3 158 14
0 159 14
1 159 14
2 159 14
3 159 14
0 160 14
1 160 14
2 160 14
3 160 14
0 161 14
1 161 14
2 161 14
3 161 14
0 162 14
1 162 14
2 162 14
3 162 14
0 163 14
1 163 14
2 163 14
3 163 14
0 164 14
1 164 14
2 164 14
3 164 14
0 165 14
1 165 14
2 165 14
3 165 14
0 166 14
1 166 14
2 166 14
3 166 14
0 167 14
1 167 14
2 167 14
3 167 14
0 168 14
1 168 14
2 168 14
3 168 14
0 169 14
1 169 14
2 169 14
3 169 14
0 170 14
1 170 14
2 170 14
3 170 14
0 171 14
1 171 14
2 171 14
3 171 14
0 172 14
1 172 14
2 172 14
3 172 14
0 173 14
1 173 14
2 173 14
3 173 14
0 174 14
1 174 14
2 174 14
3 174 14
0 175 14
1 175 14
2 175 14
3 175 14
0 176 14
1 176 14
2 176 14
3 176 14
0 177 14
1 177 14
2 177 14
3 177 14
0 178 14
1 178 14
2 178 14
3 178 14
0 179 14
1 179 14
2 179 14
3 179 14
0 180 14
1 180 14
2 180 14
3 180 14
0 181 14
1 181 14
2 181 14
3 181 14
0 182 14
1 182 14
2 182 14
3 182 14
0 183 14
1 183 14
2 183 14
3 183 14
0 184 14
1 184 14
2 184 14
3 184 14
0 185 14
1 185 14
2 185 14
3 185 14
0 186 14
1 186 14
2 186 14
3 186 14
0 187 14
1 187 14
2 187 14
3 187 14
0 188 14
1 188 14
2 188 14
3 188 14
0 189 14
1 189 14
2 189 14
3 189 14
0 190 14
1 190 14
2 190 14
3 190 14
0 191 14
1 191 14
2 191 14
3 191 14
0 192 14
1 192 14
2 192 14
3 192 14
0 193 14
1 193 14
2 193 14
3 193 14
0 194 14
1 194 14
2 194 14
3 194 14
0 195 14
1 195 14
2 195 14
3 195 14
0 196 14
1 196 14
2 196 14
3 196 14
0 197 14
1 197 14
2 197 14
3 197 14
0 198 14
1 198 14
2 198 14
3 198 14
0 199 14
1 199 14
2 199 14
3 199 14
0 132 15
1 132 15
2 132 15
3 132 15
0 133 15
1 133 15
2 133 15
3 133 15
0 134 15
1 134 15
2 134 15
3 134 15
0 135 15
1 135 15
2 135 15
3 135 15
0 136 15
1 136 15
2 136 15
3 136 15
0 137 15
1 137 15
2 137 15
3 137 15
0 138 15
1 138 15
2 138 15
3 138 15
0 139 15
1 139 15
2 139 15
3 139 15
0 140 15
1 140 15
2 140 15
3 140 15
0 141 15
1 141 15
2 141 15
3 141 15
0 142 15
1 142 15
2 142 15
3 142 15
0 143 15
1 143 15
2 143 15
3 143 15
0 144 15
1 144 15
2 144 15
3 144 15
0 145 15
1 145 15
2 145 15
3 145 15
0 146 15
1 146 15
2 146 15
3 146 15
0 147 15
1 147 15
2 147 15
3 147 15
0 148 15
1 148 15
2 148 15
3 148 15
0 149 15
1 149 15
2 149 15
3 149 15
0 150 15
1 150 15
2 150 15
3 150 15
0 151 15
1 151 15
2 151 15
3 151 15
0 152 15
1 152 15
2 152 15
3 152 15
0 153 15
1 153 15
2 153 15
3 153 15
0 154 15
1 154 15
2 154 15
3 154 15
0 155 15
1 155 15
2 155 15
3 155 15
0 156 15
1 156 15
2 156 15
3 156 15
0 157 15
1 157 15
2 157 15
3 157 15
0 158 15
1 158 15
2 158 15
3 158 15
0 159 15
1 159 15
2 159 15
3 159 15
0 160 15
1 160 15
2 160 15
3 160 15
0 161 15
1 161 15
2 161 15
3 161 15
0 162 15
1 162 15
2 162 15
3 162 15
0 163 15
1 163 15
2 163 15
3 163 15
0 164 15
1 164 15
2 164 15
3 164 15
0 165 15
1 165 15
2 165 15
3 165 15
0 166 15
1 166 15
2 166 15
3 166 15
0 167 15
1 167 15
2 167 15
3 167 15
0 168 15
1 168 15
2 168 15
3 168 15
0 169 15
1 169 15
2 169 15
3 169 15
0 170 15
1 170 15
2 170 15
3 170 15
0 171 15
1 171 15
2 171 15
3 171 15
0 172 15
1 172 15
2 172 15
3 172 15
0 173 15
1 173 15
2 173 15
3 173 15
0 174 15
1 174 15
2 174 15
3 174 15
0 175 15
1 175 15
2 175 15
3 175 15
0 176 15
1 176 15
2 176 15
3 176 15
0 177 15
1 177 15
2 177 15
3 177 15
0 178 15
1 178 15
2 178 15
3 178 15
0 179 15
1 179 15
2 179 15
3 179 15
0 180 15
1 180 15
2 180 15
3 180 15
0 181 15
1 181 15
2 181 15
3 181 15
0 182 15
1 182 15
2 182 15
3 182 15
0 183 15
1 183 15
2 183 15
3 183 15
0 184 15
1 184 15
2 184 15
3 184 15
0 185 15
1 185 15
2 185 15
3 185 15
0 186 15
1 186 15
2 186 15
3 186 15
0 187 15
1 187 15
2 187 15
3 187 15
0 188 15
1 188 15
2 188 15
3 188 15
0 189 15
1 189 15
2 189 15
3 189 15
0 190 15
1 190 15
2 190 15
3 190 15
0 191 15
1 191 15
2 191 15
3 191 15
0 192 15
1 192 15
2 192 15
3 192 15
0 193 15
1 193 15
2 193 15
3 193 15
0 194 15
1 194 15
2 194 15
3 194 15
0 195 15
1 195 15
2 195 15
3 195 15
0 196 15
1 196 15
2 196 15
3 196 15
0 197 15
1 197 15
2 197 15
3 197 15
0 198 15
1 198 15
2 198 15
3 198 15
0 199 15
1 199 15
2 199 15
3 199 15
0 132 16
1 132 16
2 132 16
3 132 16
0 133 16
1 133 16
2 133 16
3 133 16
0 134 16
1 134 16
2 134 16
3 134 16
0 135 16
1 135 16
2 135 16
3 135 16
0 136 16
1 136 16
2 136 16
3 136 16
0 137 16
1 137 16
2 137 16
3 137 16
0 138 16
1 138 16
2 138 16
3 138 16
0 139 16
1 139 16
2 139 16
3 139 16
0 140 16
1 140 16
2 140 16
3 140 16
0 141 16
1 141 16
2 141 16
3 141 16
0 142 16
1 142 16
2 142 16
3 142 16
0 143 16
1 143 16
2 143 16
3 143 16
0 144 16
1 144 16
2 144 16
3 144 16
0 145 16
1 145 16
2 145 16
3 145 16
0 146 16
1 146 16
2 146 16
3 146 16
0 147 16
1 147 16
2 147 16
3 147 16
0 148 16
1 148 16
2 148 16
3 148 16
0 149 16
1 149 16
2 149 16
3 149 16
0 150 16
1 150 16
2 150 16
3 150 16
0 151 16
1 151 16
2 151 16
3 151 16
0 152 16
1 152 16
2 152 16
3 152 16
0 153 16
1 153 16
2 153 16
3 153 16
0 154 16
1 154 16
2 154 16
3 154 16
0 155 16
1 155 16
2 155 16
3 155 16
0 156 16
1 156 16
2 156 16
3 156 16
0 157 16
1 157 16
2 157 16
3 157 16
0 158 16
1 158 16
2 158 16
3 158 16
0 159 16
1 159 16
2 159 16
3 159 16
0 160 16
1 160 16
2 160 16
3 160 16
0 161 16
1 161 16
2 161 16
3 161 16
0 162 16
1 162 16
2 162 16
3 162 16
0 163 16
1 163 16
2 163 16
3 163 16
0 164 16
1 164 16
2 164 16
3 164 16
0 165 16
1 165 16
2 165 16
3 165 16
0 166 16
1 166 16
2 166 16
3 166 16
0 167 16
1 167 16
2 167 16
3 167 16
0 168 16
1 168 16
2 168 16
3 168 16
0 169 16
1 169 16
2 169 16
3 169 16
0 170 16
1 170 16
2 170 16
3 170 16
0 171 16
1 171 16
2 171 16
3 171 16
0 172 16
1 172 16
2 172 16
3 172 16
0 173 16
1 173 16
2 173 16
3 173 16
0 174 16
1 174 16
2 174 16
3 174 16
0 175 16
1 175 16
2 175 16
3 175 16
0 176 16
1 176 16
2 176 16
3 176 16
0 177 16
1 177 16
2 177 16
3 177 16
0 178 16
1 178 16
2 178 16
3 178 16
0 179 16
1 179 16
2 179 16
3 179 16
0 180 16
1 180 16
2 180 16
3 180 16
0 181 16
1 181 16
2 181 16
3 181 16
0 182 16
1 182 16
2 182 16
3 182 16
0 183 16
1 183 16
2 183 16
3 183 16
0 184 16
1 184 16
2 184 16
3 184 16
0 185 16
1 185 16
2 185 16
3 185 16
0 186 16
1 186 16
2 186 16
3 186 16
0 187 16
1 187 16
2 187 16
3 187 16
0 188 16
1 188 16
2 188 16
3 188 16
0 189 16
1 189 16
2 189 16
3 189 16
0 190 16
1 190 16
2 190 16
3 190 16
0 191 16
1 191 16
2 191 16
3 191 16
0 192 16
1 192 16
2 192 16
3 192 16
0 193 16
1 193 16
2 193 16
3 193 16
0 194 16
1 194 16
2 194 16
3 194 16
0 195 16
1 195 16
2 195 16
3 195 16
0 196 16
1 196 16
2 196 16
3 196 16
0 197 16
1 197 16
2 197 16
3 197 16
0 198 16
1 198 16
2 198 16
3 198 16
0 199 16
1 199 16
2 199 16
3 199 16
0 132 17
1 132 17
2 132 17
3 132 17
0 133 17
1 133 17
2 133 17
3 133 17
0 134 17
1 134 17
2 134 17
3 134 17
0 135 17
1 135 17
2 135 17
3 135 17
0 136 17
1 136 17
2 136 17
3 136 17
0 137 17
1 137 17
2 137 17
3 137 17
0 138 17
1 138 17
2 138 17
3 138 17
0 139 17
1 139 17
2 139 17
3 139 17
0 140 17
1 140 17
2 140 17
3 140 17
0 141 17
1 141 17
2 141 17
3 141 17
0 142 17
1 142 17
2 142 17
3 142 17
0 143 17
1 143 17
2 143 17
3 143 17
0 144 17
1 144 17
2 144 17
3 144 17
0 145 17
1 145 17
2 145 17
3 145 17
0 146 17
1 146 17
2 146 17
3 146 17
0 147 17
1 147 17
2 147 17
3 147 17
0 148 17
1 148 17
2 148 17
3 148 17
0 149 17
1 149 17
2 149 17
3 149 17
0 150 17
1 150 17
2 150 17
3 150 17
0 151 17
1 151 17
2 151 17
3 151 17
0 152 17
1 152 17
2 152 17
3 152 17
0 153 17
1 153 17
2 153 17
3 153 17
0 154 17
1 154 17
2 154 17
3 154 17
0 155 17
1 155 17
2 155 17
3 155 17
0 156 17
1 156 17
2 156 17
3 156 17
0 157 17
1 157 17
2 157 17
3 157 17
0 158 17
1 158 17
2 158 17
3 158 17
0 159 17
1 159 17
2 159 17
3 159 17
0 160 17
1 160 17
2 160 17
3 160 17
0 161 17
1 161 17
2 161 17
3 161 17
0 162 17
1 162 17
2 162 17
3 162 17
0 163 17
1 163 17
2 163 17
3 163 17
0 164 17
1 164 17
2 164 17
3 164 17
0 165 17
1 165 17
2 165 17
3 165 17
0 166 17
1 166 17
2 166 17
3 166 17
0 167 17
1 167 17
2 167 17
3 167 17
0 168 17
1 168 17
2 168 17
3 168 17
0 169 17
1 169 17
2 169 17
3 169 17
0 170 17
1 170 17
2 170 17
3 170 17
0 171 17
1 171 17
2 171 17
3 171 17
0 172 17
1 172 17
2 172 17
3 172 17
0 173 17
1 173 17
2 173 17
3 173 17
0 174 17
1 174 17
2 174 17
3 174 17
0 175 17
1 175 17
2 175 17
3 175 17
0 176 17
1 176 17
2 176 17
3 176 17
0 177 17
1 177 17
2 177 17
3 177 17
0 178 17
1 178 17
2 178 17
3 178 17
0 179 17
1 179 17
2 179 17
3 179 17
0 180 17
1 180 17
2 180 17
3 180 17
0 181 17
1 181 17
2 181 17
3 181 17
0 182 17
1 182 17
2 182 17
3 182 17
0 183 17
1 183 17
2 183 17
3 183 17
0 184 17
1 184 17
2 184 17
3 184 17
0 185 17
1 185 17
2 185 17
3 185 17
0 186 17
1 186 17
2 186 17
3 186 17
0 187 17
1 187 17
2 187 17
3 187 17
0 188 17
1 188 17
2 188 17
3 188 17
0 189 17
1 189 17
2 189 17
3 189 17
0 190 17
1 190 17
2 190 17
3 190 17
0 191 17
1 191 17
2 191 17
3 191 17
0 192 17
1 192 17
2 192 17
3 192 17
0 193 17
1 193 17
2 193 17
3 193 17
0 194 17
1 194 17
2 194 17
3 194 17
0 195 17
1 195 17
2 195 17
3 195 17
0 196 17
1 196 17
2 196 17
3 196 17
0 197 17
1 197 17
2 197 17
3 197 17
0 198 17
1 198 17
2 198 17
3 198 17
0 199 17
1 199 17
2 199 17
3 199 17
0 132 18
1 132 18
2 132 18
3 132 18
0 133 18
1 133 18
2 133 18
3 133 18
0 134 18
1 134 18
2 134 18
3 134 18
0 135 18
1 135 18
2 135 18
3 135 18
0 136 18
1 136 18
2 136 18
3 136 18
0 137 18
1 137 18
2 137 18
3 137 18
0 138 18
1 138 18
2 138 18
3 138 18
0 139 18
1 139 18
2 139 18
3 139 18
0 140 18
1 140 18
2 140 18
3 140 18
0 141 18
1 141 18
2 141 18
3 141 18
0 142 18
1 142 18
2 142 18
3 142 18
0 143 18
1 143 18
2 143 18
3 143 18
0 144 18
1 144 18
2 144 18
3 144 18
0 145 18
1 145 18
2 145 18
3 145 18
0 146 18
1 146 18
2 146 18
3 146 18
0 147 18
1 147 18
2 147 18
3 147 18
0 148 18
1 148 18
2 148 18
3 148 18
0 149 18
1 149 18
2 149 18
3 149 18
0 150 18
1 150 18
2 150 18
3 150 18
0 151 18
1 151 18
2 151 18
3 151 18
0 152 18
1 152 18
2 152 18
3 152 18
0 153 18
1 153 18
2 153 18
3 153 18
0 154 18
1 154 18
2 154 18
3 154 18
0 155 18
1 155 18
2 155 18
3 155 18
0 156 18
1 156 18
2 156 18
3 156 18
0 157 18
1 157 18
2 157 18
3 157 18
0 158 18
1 158 18
2 158 18
3 158 18
0 159 18
1 159 18
2 159 18
3 159 18
0 160 18
1 160 18
2 160 18
3 160 18
0 161 18
1 161 18
2 161 18
3 161 18
0 162 18
1 162 18
2 162 18
3 162 18
0 163 18
1 163 18
2 163 18
3 163 18
0 164 18
1 164 18
2 164 18
3 164 18
0 165 18
1 165 18
2 165 18
3 165 18
0 166 18
1 166 18
2 166 18
3 166 18
0 167 18
1 167 18
2 167 18
3 167 18
0 168 18
1 168 18
2 168 18
3 168 18
0 169 18
1 169 18
2 169 18
3 169 18
0 170 18
1 170 18
2 170 18
3 170 18
0 171 18
1 171 18
2 171 18
3 171 18
0 172 18
1 172 18
2 172 18
3 172 18
0 173 18
1 173 18
2 173 18
3 173 18
0 174 18
1 174 18
2 174 18
3 174 18
0 175 18
1 175 18
2 175 18
3 175 18
0 176 18
1 176 18
2 176 18
3 176 18
0 177 18
1 177 18
2 177 18
3 177 18
0 178 18
1 178 18
2 178 18
3 178 18
0 179 18
1 179 18
2 179 18
3 179 18
0 180 18
1 180 18
2 180 18
3 180 18
0 181 18
1 181 18
2 181 18
3 181 18
0 182 18
1 182 18
2 182 18
3 182 18
0 183 18
1 183 18
2 183 18
3 183 18
0 184 18
1 184 18
2 184 18
3 184 18
0 185 18
1 185 18
2 185 18
3 185 18
0 186 18
1 186 18
2 186 18
3 186 18
0 187 18
1 187 18
2 187 18
3 187 18
0 188 18
1 188 18
2 188 18
3 188 18
0 189 18
1 189 18
2 189 18
3 189 18
0 190 18
1 190 18
2 190 18
3 190 18
0 191 18
1 191 18
2 191 18
3 191 18
0 192 18
1 192 18
2 192 18
3 192 18
0 193 18
1 193 18
2 193 18
3 193 18
0 194 18
1 194 18
2 194 18
3 194 18
0 195 18
1 195 18
2 195 18
3 195 18
0 196 18
1 196 18
2 196 18
3 196 18
0 197 18
1 197 18
2 197 18
3 197 18
0 198 18
1 198 18
2 198 18
3 198 18
0 199 18
1 199 18
2 199 18
3 199 18
0 132 19
1 132 19
2 132 19
3 132 19
0 133 19
1 133 19
2 133 19
3 133 19
0 134 19
1 134 19
2 134 19
3 134 19
0 135 19
1 135 19
2 135 19
3 135 19
0 136 19
1 136 19
2 136 19
3 136 19
0 137 19
1 137 19
2 137 19
3 137 19
0 138 19
1 138 19
2 138 19
3 138 19
0 139 19
1 139 19
2 139 19
3 139 19
0 140 19
1 140 19
2 140 19
3 140 19
0 141 19
1 141 19
2 141 19
3 141 19
0 142 19
1 142 19
2 142 19
3 142 19
0 143 19
1 143 19
2 143 19
3 143 19
0 144 19
1 144 19
2 144 19
3 144 19
0 145 19
1 145 19
2 145 19
3 145 19
0 146 19
1 146 19
2 146 19
3 146 19
0 147 19
1 147 19
2 147 19
3 147 19
0 148 19
1 148 19
2 148 19
3 148 19
0 149 19
1 149 19
2 149 19
3 149 19
0 150 19
1 150 19
2 150 19
3 150 19
0 151 19
1 151 19
2 151 19
3 151 19
0 152 19
1 152 19
2 152 19
3 152 19
0 153 19
1 153 19
2 153 19
3 153 19
0 154 19
1 154 19
2 154 19
3 154 19
0 155 19
1 155 19
2 155 19
3 155 19
0 156 19
1 156 19
2 156 19
3 156 19
0 157 19
1 157 19
2 157 19
3 157 19
0 158 19
1 158 19
2 158 19
3 158 19
0 159 19
1 159 19
2 159 19
3 159 19
0 160 19
1 160 19
2 160 19
3 160 19
0 161 19
1 161 19
2 161 19
3 161 19
0 162 19
1 162 19
2 162 19
3 162 19
0 163 19
1 163 19
2 163 19
3 163 19
0 164 19
1 164 19
2 164 19
3 164 19
0 165 19
1 165 19
2 165 19
3 165 19
0 166 19
1 166 19
2 166 19
3 166 19
0 167 19
1 167 19
2 167 19
3 167 19
0 168 19
1 168 19
2 168 19
3 168 19
0 169 19
1 169 19
2 169 19
3 169 19
0 170 19
1 170 19
2 170 19
3 170 19
0 171 19
1 171 19
2 171 19
3 171 19
0 172 19
1 172 19
2 172 19
3 172 19
0 173 19
1 173 19
2 173 19
3 173 19
0 174 19
1 174 19
2 174 19
3 174 19
0 175 19
1 175 19
2 175 19
3 175 19
0 176 19
1 176 19
2 176 19
3 176 19
0 177 19
1 177 19
2 177 19
3 177 19
0 178 19
1 178 19
2 178 19
3 178 19
0 179 19
1 179 19
2 179 19
3 179 19
0 180 19
1 180 19
2 180 19
3 180 19
0 181 19
1 181 19
2 181 19
3 181 19
0 182 19
1 182 19
2 182 19
3 182 19
0 183 19
1 183 19
2 183 19
3 183 19
0 184 19
1 184 19
2 184 19
3 184 19
0 185 19
1 185 19
2 185 19
3 185 19
0 186 19
1 186 19
2 186 19
3 186 19
0 187 19
1 187 19
2 187 19
3 187 19
0 188 19
1 188 19
2 188 19
3 188 19
0 189 19
1 189 19
2 189 19
3 189 19
0 190 19
1 190 19
2 190 19
3 190 19
0 191 19
1 191 19
2 191 19
3 191 19
0 192 19
1 192 19
2 192 19
3 192 19
0 193 19
1 193 19
2 193 19
3 193 19
0 194 19
1 194 19
2 194 19
3 194 19
0 195 19
1 195 19
2 195 19
3 195 19
0 196 19
1 196 19
2 196 19
3 196 19
0 197 19
1 197 19
2 197 19
3 197 19
0 198 19
1 198 19
2 198 19
3 198 19
0 199 19
1 199 19
2 199 19
3 199 19
0 132 20
1 132 20
2 132 20
3 132 20
0 133 20
1 133 20
2 133 20
3 133 20
0 134 20
1 134 20
2 134 20
3 134 20
0 135 20
1 135 20
2 135 20
3 135 20
0 136 20
1 136 20
2 136 20
3 136 20
0 137 20
1 137 20
2 137 20
3 137 20
0 138 20
1 138 20
2 138 20
3 138 20
0 139 20
1 139 20
2 139 20
3 139 20
0 140 20
1 140 20
2 140 20
3 140 20
0 141 20
1 141 20
2 141 20
3 141 20
0 142 20
1 142 20
2 142 20
3 142 20
0 143 20
1 143 20
2 143 20
3 143 20
0 144 20
1 144 20
2 144 20
3 144 20
0 145 20
1 145 20
2 145 20
3 145 20
0 146 20
1 146 20
2 146 20
3 146 20
0 147 20
1 147 20
2 147 20
3 147 20
0 148 20
1 148 20
2 148 20
3 148 20
0 149 20
1 149 20
2 149 20
3 149 20
0 150 20
1 150 20
2 150 20
3 150 20
0 151 20
1 151 20
2 151 20
3 151 20
0 152 20
1 152 20
2 152 20
3 152 20
0 153 20
1 153 20
2 153 20
3 153 20
0 154 20
1 154 20
2 154 20
3 154 20
0 155 20
1 155 20
2 155 20
3 155 20
0 156 20
1 156 20
2 156 20
3 156 20
0 157 20
1 157 20
2 157 20
3 157 20
0 158 20
1 158 20
2 158 20
3 158 20
0 159 20
1 159 20
2 159 20
3 159 20
0 160 20
1 160 20
2 160 20
3 160 20
0 161 20
1 161 20
2 161 20
3 161 20
0 162 20
1 162 20
2 162 20
3 162 20
0 163 20
1 163 20
2 163 20
3 163 20
0 164 20
1 164 20
2 164 20
3 164 20
0 165 20
1 165 20
2 165 20
3 165 20
0 166 20
1 166 20
2 166 20
3 166 20
0 167 20
1 167 20
2 167 20
3 167 20
0 168 20
1 168 20
2 168 20
3 168 20
0 169 20
1 169 20
2 169 20
3 169 20
0 170 20
1 170 20
2 170 20
3 170 20
0 171 20
1 171 20
2 171 20
3 171 20
0 172 20
1 172 20
2 172 20
3 172 20
0 173 20
1 173 20
2 173 20
3 173 20
0 174 20
1 174 20
2 174 20
3 174 20
0 175 20
1 175 20
2 175 20
3 175 20
0 176 20
1 176 20
2 176 20
3 176 20
0 177 20
1 177 20
2 177 20
3 177 20
0 178 20
1 178 20
2 178 20
3 178 20
0 179 20
1 179 20
2 179 20
3 179 20
0 180 20
1 180 20
2 180 20
3 180 20
0 181 20
1 181 20
2 181 20
3 181 20
0 182 20
1 182 20
2 182 20
3 182 20
0 183 20
1 183 20
2 183 20
3 183 20
0 184 20
1 184 20
2 184 20
3 184 20
0 185 20
1 185 20
2 185 20
3 185 20
0 186 20
1 186 20
2 186 20
3 186 20
0 187 20
1 187 20
2 187 20
3 187 20
0 188 20
1 188 20
2 188 20
3 188 20
0 189 20
1 189 20
2 189 20
3 189 20
0 190 20
1 190 20
2 190 20
3 190 20
0 191 20
1 191 20
2 191 20
3 191 20
0 192 20
1 192 20
2 192 20
3 192 20
0 193 20
1 193 20
2 193 20
3 193 20
0 194 20
1 194 20
2 194 20
3 194 20
0 195 20
1 195 20
2 195 20
3 195 20
0 196 20
1 196 20
2 196 20
3 196 20
0 197 20
1 197 20
2 197 20
3 197 20
0 198 20
1 198 20
2 198 20
3 198 20
0 199 20
1 199 20
2 199 20
3 199 20
0 132 21
1 132 21
2 132 21
3 132 21
0 133 21
1 133 21
2 133 21
3 133 21
0 134 21
1 134 21
2 134 21
3 134 21
0 135 21
1 135 21
2 135 21
3 135 21
0 136 21
1 136 21
2 136 21
3 136 21
0 137 21
1 137 21
2 137 21
3 137 21
0 138 21
1 138 21
2 138 21
3 138 21
0 139 21
1 139 21
2 139 21
3 139 21
0 140 21
1 140 21
2 140 21
3 140 21
0 141 21
1 141 21
2 141 21
3 141 21
0 142 21
1 142 21
2 142 21
3 142 21
0 143 21
1 143 21
2 143 21
3 143 21
0 144 21
1 144 21
2 144 21
3 144 21
0 145 21
1 145 21
2 145 21
3 145 21
0 146 21
1 146 21
2 146 21
3 146 21
0 147 21
1 147 21
2 147 21
3 147 21
0 148 21
1 148 21
2 148 21
3 148 21
0 149 21
1 149 21
2 149 21
3 149 21
0 150 21
1 150 21
2 150 21
3 150 21
0 151 21
1 151 21
2 151 21
3 151 21
0 152 21
1 152 21
2 152 21
3 152 21
0 153 21
1 153 21
2 153 21
3 153 21
0 154 21
1 154 21
2 154 21
3 154 21
0 155 21
1 155 21
2 155 21
3 155 21
0 156 21
1 156 21
2 156 21
3 156 21
0 157 21
1 157 21
2 157 21
3 157 21
0 158 21
1 158 21
2 158 21
3 158 21
0 159 21
1 159 21
2 159 21
3 159 21
0 160 21
1 160 21
2 160 21
3 160 21
0 161 21
1 161 21
2 161 21
3 161 21
0 162 21
1 162 21
2 162 21
3 162 21
0 163 21
1 163 21
2 163 21
3 163 21
0 164 21
1 164 21
2 164 21
3 164 21
0 165 21
1 165 21
2 165 21
3 165 21
0 166 21
1 166 21
2 166 21
3 166 21
0 167 21
1 167 21
2 167 21
3 167 21
0 168 21
1 168 21
2 168 21
3 168 21
0 169 21
1 169 21
2 169 21
3 169 21
0 170 21
1 170 21
2 170 21
3 170 21
0 171 21
1 171 21
2 171 21
3 171 21
0 172 21
1 172 21
2 172 21
3 172 21
0 173 21
1 173 21
2 173 21
3 173 21
0 174 21
1 174 21
2 174 21
3 174 21
0 175 21
1 175 21
2 175 21
3 175 21
0 176 21
1 176 21
2 176 21
3 176 21
0 177 21
1 177 21
2 177 21
3 177 21
0 178 21
1 178 21
2 178 21
3 178 21
0 179 21
1 179 21
2 179 21
3 179 21
0 180 21
1 180 21
2 180 21
3 180 21
0 181 21
1 181 21
2 181 21
3 181 21
0 182 21
1 182 21
2 182 21
3 182 21
0 183 21
1 183 21
2 183 21
3 183 21
0 184 21
1 184 21
2 184 21
3 184 21
0 185 21
1 185 21
2 185 21
3 185 21
0 186 21
1 186 21
2 186 21
3 186 21
0 187 21
1 187 21
2 187 21
3 187 21
0 188 21
1 188 21
2 188 21
3 188 21
0 189 21
1 189 21
2 189 21
3 189 21
0 190 21
1 190 21
2 190 21
3 190 21
0 191 21
1 191 21
2 191 21
3 191 21
0 192 21
1 192 21
2 192 21
3 192 21
0 193 21
1 193 21
2 193 21
3 193 21
0 194 21
1 194 21
2 194 21
3 194 21
0 195 21
1 195 21
2 195 21
3 195 21
0 196 21
1 196 21
2 196 21
3 196 21
0 197 21
1 197 21
2 197 21
3 197 21
0 198 21
1 198 21
2 198 21
3 198 21
0 199 21
1 199 21
2 199 21
3 199 21
0 132 22
1 132 22
2 132 22
3 132 22
0 133 22
1 133 22
2 133 22
3 133 22
0 134 22
1 134 22
2 134 22
3 134 22
0 135 22
1 135 22
2 135 22
3 135 22
0 136 22
1 136 22
2 136 22
3 136 22
0 137 22
1 137 22
2 137 22
3 137 22
0 138 22
1 138 22
2 138 22
3 138 22
0 139 22
1 139 22
2 139 22
3 139 22
0 140 22
1 140 22
2 140 22
3 140 22
0 141 22
1 141 22
2 141 22
3 141 22
0 142 22
1 142 22
2 142 22
3 142 22
0 143 22
1 143 22
2 143 22
3 143 22
0 144 22
1 144 22
2 144 22
3 144 22
0 145 22
1 145 22
2 145 22
3 145 22
0 146 22
1 146 22
2 146 22
3 146 22
0 147 22
1 147 22
2 147 22
3 147 22
0 148 22
1 148 22
2 148 22
3 148 22
0 149 22
1 149 22
2 149 22
3 149 22
0 150 22
1 150 22
2 150 22
3 150 22
0 151 22
1 151 22
2 151 22
3 151 22
0 152 22
1 152 22
2 152 22
3 152 22
0 153 22
1 153 22
2 153 22
3 153 22
0 154 22
1 154 22
2 154 22
3 154 22
0 155 22
1 155 22
2 155 22
3 155 22
0 156 22
1 156 22
2 156 22
3 156 22
0 157 22
1 157 22
2 157 22
3 157 22
0 158 22
1 158 22
2 158 22
3 158 22
0 159 22
1 159 22
2 159 22
3 159 22
0 160 22
1 160 22
2 160 22
3 160 22
0 161 22
1 161 22
2 161 22
3 161 22
0 162 22
1 162 22
2 162 22
3 162 22
0 163 22
1 163 22
2 163 22
3 163 22
0 164 22
1 164 22
2 164 22
3 164 22
0 165 22
1 165 22
2 165 22
3 165 22
0 166 22
1 166 22
2 166 22
3 166 22
0 167 22
1 167 22
2 167 22
3 167 22
0 168 22
1 168 22
2 168 22
3 168 22
0 169 22
1 169 22
2 169 22
3 169 22
0 170 22
1 170 22
2 170 22
3 170 22
0 171 22
1 171 22
2 171 22
3 171 22
0 172 22
1 172 22
2 172 22
3 172 22
0 173 22
1 173 22
2 173 22
3 173 22
0 174 22
1 174 22
2 174 22
3 174 22
0 175 22
1 175 22
2 175 22
3 175 22
0 176 22
1 176 22
2 176 22
3 176 22
0 177 22
1 177 22
2 177 22
3 177 22
0 178 22
1 178 22
2 178 22
3 178 22
0 179 22
1 179 22
2 179 22
3 179 22
0 180 22
1 180 22
2 180 22
3 180 22
0 181 22
1 181 22
2 181 22
3 181 22
0 182 22
1 182 22
2 182 22
3 182 22
0 183 22
1 183 22
2 183 22
3 183 22
0 184 22
1 184 22
2 184 22
3 184 22
0 185 22
1 185 22
2 185 22
3 185 22
0 186 22
1 186 22
2 186 22
3 186 22
0 187 22
1 187 22
2 187 22
3 187 22
0 188 22
1 188 22
2 188 22
3 188 22
0 189 22
1 189 22
2 189 22
3 189 22
0 190 22
1 190 22
2 190 22
3 190 22
0 191 22
1 191 22
2 191 22
3 191 22
0 192 22
1 192 22
2 192 22
3 192 22
0 193 22
1 193 22
2 193 22
3 193 22
0 194 22
1 194 22
2 194 22
3 194 22
0 195 22
1 195 22
2 195 22
3 195 22
0 196 22
1 196 22
2 196 22
3 196 22
0 197 22
1 197 22
2 197 22
3 197 22
0 198 22
1 198 22
2 198 22
3 198 22
0 199 22
1 199 22
2 199 22
3 199 22
0 132 23
1 132 23
2 132 23
3 132 23
0 133 23
1 133 23
2 133 23
3 133 23
0 134 23
1 134 23
2 134 23
3 134 23
0 135 23
1 135 23
2 135 23
3 135 23
0 136 23
1 136 23
2 136 23
3 136 23
0 137 23
1 137 23
2 137 23
3 137 23
0 138 23
1 138 23
2 138 23
3 138 23
0 139 23
1 139 23
2 139 23
3 139 23
0 140 23
1 140 23
2 140 23
3 140 23
0 141 23
1 141 23
2 141 23
3 141 23
0 142 23
1 142 23
2 142 23
3 142 23
0 143 23
1 143 23
2 143 23
3 143 23
0 144 23
1 144 23
2 144 23
3 144 23
0 145 23
1 145 23
2 145 23
3 145 23
0 146 23
1 146 23
2 146 23
3 146 23
0 147 23
1 147 23
2 147 23
3 147 23
0 148 23
1 148 23
2 148 23
3 148 23
0 149 23
1 149 23
2 149 23
3 149 23
0 150 23
1 150 23
2 150 23
3 150 23
0 151 23
1 151 23
2 151 23
3 151 23
0 152 23
1 152 23
2 152 23
3 152 23
0 153 23
1 153 23
2 153 23
3 153 23
0 154 23
1 154 23
2 154 23
3 154 23
0 155 23
1 155 23
2 155 23
3 155 23
0 156 23
1 156 23
2 156 23
3 156 23
0 157 23
1 157 23
2 157 23
3 157 23
0 158 23
1 158 23
2 158 23
3 158 23
0 159 23
1 159 23
2 159 23
3 159 23
0 160 23
1 160 23
2 160 23
3 160 23
0 161 23
1 161 23
2 161 23
3 161 23
0 162 23
1 162 23
2 162 23
3 162 23
0 163 23
1 163 23
2 163 23
3 163 23
0 164 23
1 164 23
2 164 23
3 164 23
0 165 23
1 165 23
2 165 23
3 165 23
0 166 23
1 166 23
2 166 23
3 166 23
0 167 23
1 167 23
2 167 23
3 167 23
0 168 23
1 168 23
2 168 23
3 168 23
0 169 23
1 169 23
2 169 23
3 169 23
0 170 23
1 170 23
2 170 23
3 170 23
0 171 23
1 171 23
2 171 23
3 171 23
0 172 23
1 172 23
2 172 23
3 172 23
0 173 23
1 173 23
2 173 23
3 173 23
0 174 23
1 174 23
2 174 23
3 174 23
0 175 23
1 175 23
2 175 23
3 175 23
0 176 23
1 176 23
2 176 23
3 176 23
0 177 23
1 177 23
2 177 23
3 177 23
0 178 23
1 178 23
2 178 23
3 178 23
0 179 23
1 179 23
2 179 23
3 179 23
0 180 23
1 180 23
2 180 23
3 180 23
0 181 23
1 181 23
2 181 23
3 181 23
0 182 23
1 182 23
2 182 23
3 182 23
0 183 23
1 183 23
2 183 23
3 183 23
0 184 23
1 184 23
2 184 23
3 184 23
0 185 23
1 185 23
2 185 23
3 185 23
0 186 23
1 186 23
2 186 23
3 186 23
0 187 23
1 187 23
2 187 23
3 187 23
0 188 23
1 188 23
2 188 23
3 188 23
0 189 23
1 189 23
2 189 23
3 189 23
0 190 23
1 190 23
2 190 23
3 190 23
0 191 23
1 191 23
2 191 23
3 191 23
0 192 23
1 192 23
2 192 23
3 192 23
0 193 23
1 193 23
2 193 23
3 193 23
0 194 23
1 194 23
2 194 23
3 194 23
0 195 23
1 195 23
2 195 23
3 195 23
0 196 23
1 196 23
2 196 23
3 196 23
0 197 23
1 197 23
2 197 23
3 197 23
0 198 23
1 198 23
2 198 23
3 198 23
0 199 23
1 199 23
2 199 23
3 199 23
0 132 24
1 132 24
2 132 24
3 132 24
0 133 24
1 133 24
2 133 24
3 133 24
0 134 24
1 134 24
2 134 24
3 134 24
0 135 24
1 135 24
2 135 24
3 135 24
0 136 24
1 136 24
2 136 24
3 136 24
0 137 24
1 137 24
2 137 24
3 137 24
0 138 24
1 138 24
2 138 24
3 138 24
0 139 24
1 139 24
2 139 24
3 139 24
0 140 24
1 140 24
2 140 24
3 140 24
0 141 24
1 141 24
2 141 24
3 141 24
0 142 24
1 142 24
2 142 24
3 142 24
0 143 24
1 143 24
2 143 24
3 143 24
0 144 24
1 144 24
2 144 24
3 144 24
0 145 24
1 145 24
2 145 24
3 145 24
0 146 24
1 146 24
2 146 24
3 146 24
0 147 24
1 147 24
2 147 24
3 147 24
0 148 24
1 148 24
2 148 24
3 148 24
0 149 24
1 149 24
2 149 24
3 149 24
0 150 24
1 150 24
2 150 24
3 150 24
0 151 24
1 151 24
2 151 24
3 151 24
0 152 24
1 152 24
2 152 24
3 152 24
0 153 24
1 153 24
2 153 24
3 153 24
0 154 24
1 154 24
2 154 24
3 154 24
0 155 24
1 155 24
2 155 24
3 155 24
0 156 24
1 156 24
2 156 24
3 156 24
0 157 24
1 157 24
2 157 24
3 157 24
0 158 24
1 158 24
2 158 24
3 158 24
0 159 24
1 159 24
2 159 24
3 159 24
0 160 24
1 160 24
2 160 24
3 160 24
0 161 24
1 161 24
2 161 24
3 161 24
0 162 24
1 162 24
2 162 24
3 162 24
0 163 24
1 163 24
2 163 24
3 163 24
0 164 24
1 164 24
2 164 24
3 164 24
0 165 24
1 165 24
2 165 24
3 165 24
0 166 24
1 166 24
2 166 24
3 166 24
0 167 24
1 167 24
2 167 24
3 167 24
0 168 24
1 168 24
2 168 24
3 168 24
0 169 24
1 169 24
2 169 24
3 169 24
0 170 24
1 170 24
2 170 24
3 170 24
0 171 24
1 171 24
2 171 24
3 171 24
0 172 24
1 172 24
2 172 24
3 172 24
0 173 24
1 173 24
2 173 24
3 173 24
0 174 24
1 174 24
2 174 24
3 174 24
0 175 24
1 175 24
2 175 24
3 175 24
0 176 24
1 176 24
2 176 24
3 176 24
0 177 24
1 177 24
2 177 24
3 177 24
0 178 24
1 178 24
2 178 24
3 178 24
0 179 24
1 179 24
2 179 24
3 179 24
0 180 24
1 180 24
2 180 24
3 180 24
0 181 24
1 181 24
2 181 24
3 181 24
0 182 24
1 182 24
2 182 24
3 182 24
0 183 24
1 183 24
2 183 24
3 183 24
0 184 24
1 184 24
2 184 24
3 184 24
0 185 24
1 185 24
2 185 24
3 185 24
0 186 24
1 186 24
2 186 24
3 186 24
0 187 24
1 187 24
2 187 24
3 187 24
0 188 24
1 188 24
2 188 24
3 188 24
0 189 24
1 189 24
2 189 24
3 189 24
0 190 24
1 190 24
2 190 24
3 190 24
0 191 24
1 191 24
2 191 24
3 191 24
0 192 24
1 192 24
2 192 24
3 192 24
0 193 24
1 193 24
2 193 24
3 193 24
0 194 24
1 194 24
2 194 24
3 194 24
0 195 24
1 195 24
2 195 24
3 195 24
0 196 24
1 196 24
2 196 24
3 196 24
0 197 24
1 197 24
2 197 24
3 197 24
0 198 24
1 198 24
2 198 24
3 198 24
0 199 24
1 199 24
2 199 24
3 199 24
0 132 25
1 132 25
2 132 25
3 132 25
0 133 25
1 133 25
2 133 25
3 133 25
0 134 25
1 134 25
2 134 25
3 134 25
0 135 25
1 135 25
2 135 25
3 135 25
0 136 25
1 136 25
2 136 25
3 136 25
0 137 25
1 137 25
2 137 25
3 137 25
0 138 25
1 138 25
2 138 25
3 138 25
0 139 25
1 139 25
2 139 25
3 139 25
0 140 25
1 140 25
2 140 25
3 140 25
0 141 25
1 141 25
2 141 25
3 141 25
0 142 25
1 142 25
2 142 25
3 142 25
0 143 25
1 143 25
2 143 25
3 143 25
0 144 25
1 144 25
2 144 25
3 144 25
0 145 25
1 145 25
2 145 25
3 145 25
0 146 25
1 146 25
2 146 25
3 146 25
0 147 25
1 147 25
2 147 25
3 147 25
0 148 25
1 148 25
2 148 25
3 148 25
0 149 25
1 149 25
2 149 25
3 149 25
0 150 25
1 150 25
2 150 25
3 150 25
0 151 25
1 151 25
2 151 25
3 151 25
0 152 25
1 152 25
2 152 25
3 152 25
0 153 25
1 153 25
2 153 25
3 153 25
0 154 25
1 154 25
2 154 25
3 154 25
0 155 25
1 155 25
2 155 25
3 155 25
0 156 25
1 156 25
2 156 25
3 156 25
0 157 25
1 157 25
2 157 25
3 157 25
0 158 25
1 158 25
2 158 25
3 158 25
0 159 25
1 159 25
2 159 25
3 159 25
0 160 25
1 160 25
2 160 25
3 160 25
0 161 25
1 161 25
2 161 25
3 161 25
0 162 25
1 162 25
2 162 25
3 162 25
0 163 25
1 163 25
2 163 25
3 163 25
0 164 25
1 164 25
2 164 25
3 164 25
0 165 25
1 165 25
2 165 25
3 165 25
0 166 25
1 166 25
2 166 25
3 166 25
0 167 25
1 167 25
2 167 25
3 167 25
0 168 25
1 168 25
2 168 25
3 168 25
0 169 25
1 169 25
2 169 25
3 169 25
0 170 25
1 170 25
2 170 25
3 170 25
0 171 25
1 171 25
2 171 25
3 171 25
0 172 25
1 172 25
2 172 25
3 172 25
0 173 25
1 173 25
2 173 25
3 173 25
0 174 25
1 174 25
2 174 25
3 174 25
0 175 25
1 175 25
2 175 25
3 175 25
0 176 25
1 176 25
2 176 25
3 176 25
0 177 25
1 177 25
2 177 25
3 177 25
0 178 25
1 178 25
2 178 25
3 178 25
0 179 25
1 179 25
2 179 25
3 179 25
0 180 25
1 180 25
2 180 25
3 180 25
0 181 25
1 181 25
2 181 25
3 181 25
0 182 25
1 182 25
2 182 25
3 182 25
0 183 25
1 183 25
2 183 25
3 183 25
0 184 25
1 184 25
2 184 25
3 184 25
0 185 25
1 185 25
2 185 25
3 185 25
0 186 25
1 186 25
2 186 25
3 186 25
0 187 25
1 187 25
2 187 25
3 187 25
0 188 25
1 188 25
2 188 25
3 188 25
0 189 25
1 189 25
2 189 25
3 189 25
0 190 25
1 190 25
2 190 25
3 190 25
0 191 25
1 191 25
2 191 25
3 191 25
0 192 25
1 192 25
2 192 25
3 192 25
0 193 25
1 193 25
2 193 25
3 193 25
0 194 25
1 194 25
2 194 25
3 194 25
0 195 25
1 195 25
2 195 25
3 195 25
0 196 25
1 196 25
2 196 25
3 196 25
0 197 25
1 197 25
2 197 25
3 197 25
0 198 25
1 198 25
2 198 25
3 198 25
0 199 25
1 199 25
2 199 25
3 199 25
0 132 26
1 132 26
2 132 26
3 132 26
0 133 26
1 133 26
2 133 26
3 133 26
0 134 26
1 134 26
2 134 26
3 134 26
0 135 26
1 135 26
2 135 26
3 135 26
0 136 26
1 136 26
2 136 26
3 136 26
0 137 26
1 137 26
2 137 26
3 137 26
0 138 26
1 138 26
2 138 26
3 138 26
0 139 26
1 139 26
2 139 26
3 139 26
0 140 26
1 140 26
2 140 26
3 140 26
0 141 26
1 141 26
2 141 26
3 141 26
0 142 26
1 142 26
2 142 26
3 142 26
0 143 26
1 143 26
2 143 26
3 143 26
0 144 26
1 144 26
2 144 26
3 144 26
0 145 26
1 145 26
2 145 26
3 145 26
0 146 26
1 146 26
2 146 26
3 146 26
0 147 26
1 147 26
2 147 26
3 147 26
0 148 26
1 148 26
2 148 26
3 148 26
0 149 26
1 149 26
2 149 26
3 149 26
0 150 26
1 150 26
2 150 26
3 150 26
0 151 26
1 151 26
2 151 26
3 151 26
0 152 26
1 152 26
2 152 26
3 152 26
0 153 26
1 153 26
2 153 26
3 153 26
0 154 26
1 154 26
2 154 26
3 154 26
0 155 26
1 155 26
2 155 26
3 155 26
0 156 26
1 156 26
2 156 26
3 156 26
0 157 26
1 157 26
2 157 26
3 157 26
0 158 26
1 158 26
2 158 26
3 158 26
0 159 26
1 159 26
2 159 26
3 159 26
0 160 26
1 160 26
2 160 26
3 160 26
0 161 26
1 161 26
2 161 26
3 161 26
0 162 26
1 162 26
2 162 26
3 162 26
0 163 26
1 163 26
2 163 26
3 163 26
0 164 26
1 164 26
2 164 26
3 164 26
0 165 26
1 165 26
2 165 26
3 165 26
0 166 26
1 166 26
2 166 26
3 166 26
0 167 26
1 167 26
2 167 26
3 167 26
0 168 26
1 168 26
2 168 26
3 168 26
0 169 26
1 169 26
2 169 26
3 169 26
0 170 26
1 170 26
2 170 26
3 170 26
0 171 26
1 171 26
2 171 26
3 171 26
0 172 26
1 172 26
2 172 26
3 172 26
0 173 26
1 173 26
2 173 26
3 173 26
0 174 26
1 174 26
2 174 26
3 174 26
0 175 26
1 175 26
2 175 26
3 175 26
0 176 26
1 176 26
2 176 26
3 176 26
0 177 26
1 177 26
2 177 26
3 177 26
0 178 26
1 178 26
2 178 26
3 178 26
0 179 26
1 179 26
2 179 26
3 179 26
0 180 26
1 180 26
2 180 26
3 180 26
0 181 26
1 181 26
2 181 26
3 181 26
0 182 26
1 182 26
2 182 26
3 182 26
0 183 26
1 183 26
2 183 26
3 183 26
0 184 26
1 184 26
2 184 26
3 184 26
0 185 26
1 185 26
2 185 26
3 185 26
0 186 26
1 186 26
2 186 26
3 186 26
0 187 26
1 187 26
2 187 26
3 187 26
0 188 26
1 188 26
2 188 26
3 188 26
0 189 26
1 189 26
2 189 26
3 189 26
0 190 26
1 190 26
2 190 26
3 190 26
0 191 26
1 191 26
2 191 26
3 191 26
0 192 26
1 192 26
2 192 26
3 192 26
0 193 26
1 193 26
2 193 26
3 193 26
0 194 26
1 194 26
2 194 26
3 194 26
0 195 26
1 195 26
2 195 26
3 195 26
0 196 26
1 196 26
2 196 26
3 196 26
0 197 26
1 197 26
2 197 26
3 197 26
0 198 26
1 198 26
2 198 26
3 198 26
0 199 26
1 199 26
2 199 26
3 199 26
0 132 27
1 132 27
2 132 27
3 132 27
0 133 27
1 133 27
2 133 27
3 133 27
0 134 27
1 134 27
2 134 27
3 134 27
0 135 27
1 135 27
2 135 27
3 135 27
0 136 27
1 136 27
2 136 27
3 136 27
0 137 27
1 137 27
2 137 27
3 137 27
0 138 27
1 138 27
2 138 27
3 138 27
0 139 27
1 139 27
2 139 27
3 139 27
0 140 27
1 140 27
2 140 27
3 140 27
0 141 27
1 141 27
2 141 27
3 141 27
0 142 27
1 142 27
2 142 27
3 142 27
0 143 27
1 143 27
2 143 27
3 143 27
0 144 27
1 144 27
2 144 27
3 144 27
0 145 27
1 145 27
2 145 27
3 145 27
0 146 27
1 146 27
2 146 27
3 146 27
0 147 27
1 147 27
2 147 27
3 147 27
0 148 27
1 148 27
2 148 27
3 148 27
0 149 27
1 149 27
2 149 27
3 149 27
0 150 27
1 150 27
2 150 27
3 150 27
0 151 27
1 151 27
2 151 27
3 151 27
0 152 27
1 152 27
2 152 27
3 152 27
0 153 27
1 153 27
2 153 27
3 153 27
0 154 27
1 154 27
2 154 27
3 154 27
0 155 27
1 155 27
2 155 27
3 155 27
0 156 27
1 156 27
2 156 27
3 156 27
0 157 27
1 157 27
2 157 27
3 157 27
0 158 27
1 158 27
2 158 27
3 158 27
0 159 27
1 159 27
2 159 27
3 159 27
0 160 27
1 160 27
2 160 27
3 160 27
0 161 27
1 161 27
2 161 27
3 161 27
0 162 27
1 162 27
2 162 27
3 162 27
0 163 27
1 163 27
2 163 27
3 163 27
0 164 27
1 164 27
2 164 27
3 164 27
0 165 27
1 165 27
2 165 27
3 165 27
0 166 27
1 166 27
2 166 27
3 166 27
0 167 27
1 167 27
2 167 27
3 167 27
0 168 27
1 168 27
2 168 27
3 168 27
0 169 27
1 169 27
2 169 27
3 169 27
0 170 27
1 170 27
2 170 27
3 170 27
0 171 27
1 171 27
2 171 27
3 171 27
0 172 27
1 172 27
2 172 27
3 172 27
0 173 27
1 173 27
2 173 27
3 173 27
0 174 27
1 174 27
2 174 27
3 174 27
0 175 27
1 175 27
2 175 27
3 175 27
0 176 27
1 176 27
2 176 27
3 176 27
0 177 27
1 177 27
2 177 27
3 177 27
0 178 27
1 178 27
2 178 27
3 178 27
0 179 27
1 179 27
2 179 27
3 179 27
0 180 27
1 180 27
2 180 27
3 180 27
0 181 27
1 181 27
2 181 27
3 181 27
0 182 27
1 182 27
2 182 27
3 182 27
0 183 27
1 183 27
2 183 27
3 183 27
0 184 27
1 184 27
2 184 27
3 184 27
0 185 27
1 185 27
2 185 27
3 185 27
0 186 27
1 186 27
2 186 27
3 186 27
0 187 27
1 187 27
2 187 27
3 187 27
0 188 27
1 188 27
2 188 27
3 188 27
0 189 27
1 189 27
2 189 27
3 189 27
0 190 27
1 190 27
2 190 27
3 190 27
0 191 27
1 191 27
2 191 27
3 191 27
0 192 27
1 192 27
2 192 27
3 192 27
0 193 27
1 193 27
2 193 27
3 193 27
0 194 27
1 194 27
2 194 27
3 194 27
0 195 27
1 195 27
2 195 27
3 195 27
0 196 27
1 196 27
2 196 27
3 196 27
0 197 27
1 197 27
2 197 27
3 197 27
0 198 27
1 198 27
2 198 27
3 198 27
0 199 27
1 199 27
2 199 27
3 199 27
0 132 28
1 132 28
2 132 28
3 132 28
0 133 28
1 133 28
2 133 28
3 133 28
0 134 28
1 134 28
2 134 28
3 134 28
0 135 28
1 135 28
2 135 28
3 135 28
0 136 28
1 136 28
2 136 28
3 136 28
0 137 28
1 137 28
2 137 28
3 137 28
0 138 28
1 138 28
2 138 28
3 138 28
0 139 28
1 139 28
2 139 28
3 139 28
0 140 28
1 140 28
2 140 28
3 140 28
0 141 28
1 141 28
2 141 28
3 141 28
0 142 28
1 142 28
2 142 28
3 142 28
0 143 28
1 143 28
2 143 28
3 143 28
0 144 28
1 144 28
2 144 28
3 144 28
0 145 28
1 145 28
2 145 28
3 145 28
0 146 28
1 146 28
2 146 28
3 146 28
0 147 28
1 147 28
2 147 28
3 147 28
0 148 28
1 148 28
2 148 28
3 148 28
0 149 28
1 149 28
2 149 28
3 149 28
0 150 28
1 150 28
2 150 28
3 150 28
0 151 28
1 151 28
2 151 28
3 151 28
0 152 28
1 152 28
2 152 28
3 152 28
0 153 28
1 153 28
2 153 28
3 153 28
0 154 28
1 154 28
2 154 28
3 154 28
0 155 28
1 155 28
2 155 28
3 155 28
0 156 28
1 156 28
2 156 28
3 156 28
0 157 28
1 157 28
2 157 28
3 157 28
0 158 28
1 158 28
2 158 28
3 158 28
0 159 28
1 159 28
2 159 28
3 159 28
0 160 28
1 160 28
2 160 28
3 160 28
0 161 28
1 161 28
2 161 28
3 161 28
0 162 28
1 162 28
2 162 28
3 162 28
0 163 28
1 163 28
2 163 28
3 163 28
0 164 28
1 164 28
2 164 28
3 164 28
0 165 28
1 165 28
2 165 28
3 165 28
0 166 28
1 166 28
2 166 28
3 166 28
0 167 28
1 167 28
2 167 28
3 167 28
0 168 28
1 168 28
2 168 28
3 168 28
0 169 28
1 169 28
2 169 28
3 169 28
0 170 28
1 170 28
2 170 28
3 170 28
0 171 28
1 171 28
2 171 28
3 171 28
0 172 28
1 172 28
2 172 28
3 172 28
0 173 28
1 173 28
2 173 28
3 173 28
0 174 28
1 174 28
2 174 28
3 174 28
0 175 28
1 175 28
2 175 28
3 175 28
0 176 28
1 176 28
2 176 28
3 176 28
0 177 28
1 177 28
2 177 28
3 177 28
0 178 28
1 178 28
2 178 28
3 178 28
0 179 28
1 179 28
2 179 28
3 179 28
0 180 28
1 180 28
2 180 28
3 180 28
0 181 28
1 181 28
2 181 28
3 181 28
0 182 28
1 182 28
2 182 28
3 182 28
0 183 28
1 183 28
2 183 28
3 183 28
0 184 28
1 184 28
2 184 28
3 184 28
0 185 28
1 185 28
2 185 28
3 185 28
0 186 28
1 186 28
2 186 28
3 186 28
0 187 28
1 187 28
2 187 28
3 187 28
0 188 28
1 188 28
2 188 28
3 188 28
0 189 28
1 189 28
2 189 28
3 189 28
0 190 28
1 190 28
2 190 28
3 190 28
0 191 28
1 191 28
2 191 28
3 191 28
0 192 28
1 192 28
2 192 28
3 192 28
0 193 28
1 193 28
2 193 28
3 193 28
0 194 28
1 194 28
2 194 28
3 194 28
0 195 28
1 195 28
2 195 28
3 195 28
0 196 28
1 196 28
2 196 28
3 196 28
0 197 28
1 197 28
2 197 28
3 197 28
0 198 28
1 198 28
2 198 28
3 198 28
0 199 28
1 199 28
2 199 28
3 199 28
0 132 29
1 132 29
2 132 29
3 132 29
0 133 29
1 133 29
2 133 29
3 133 29
0 134 29
1 134 29
2 134 29
3 134 29
0 135 29
1 135 29
2 135 29
3 135 29
0 136 29
1 136 29
2 136 29
3 136 29
0 137 29
1 137 29
2 137 29
3 137 29
0 138 29
1 138 29
2 138 29
3 138 29
0 139 29
1 139 29
2 139 29
3 139 29
0 140 29
1 140 29
2 140 29
3 140 29
0 141 29
1 141 29
2 141 29
3 141 29
0 142 29
1 142 29
2 142 29
3 142 29
0 143 29
1 143 29
2 143 29
3 143 29
0 144 29
1 144 29
2 144 29
3 144 29
0 145 29
1 145 29
2 145 29
3 145 29
0 146 29
1 146 29
2 146 29
3 146 29
0 147 29
1 147 29
2 147 29
3 147 29
0 148 29
1 148 29
2 148 29
3 148 29
0 149 29
1 149 29
2 149 29
3 149 29
0 150 29
1 150 29
2 150 29
3 150 29
0 151 29
1 151 29
2 151 29
3 151 29
0 152 29
1 152 29
2 152 29
3 152 29
0 153 29
1 153 29
2 153 29
3 153 29
0 154 29
1 154 29
2 154 29
3 154 29
0 155 29
1 155 29
2 155 29
3 155 29
0 156 29
1 156 29
2 156 29
3 156 29
0 157 29
1 157 29
2 157 29
3 157 29
0 158 29
1 158 29
2 158 29
3 158 29
0 159 29
1 159 29
2 159 29
3 159 29
0 160 29
1 160 29
2 160 29
3 160 29
0 161 29
1 161 29
2 161 29
3 161 29
0 162 29
1 162 29
2 162 29
3 162 29
0 163 29
1 163 29
2 163 29
3 163 29
0 164 29
1 164 29
2 164 29
3 164 29
0 165 29
1 165 29
2 165 29
3 165 29
0 166 29
1 166 29
2 166 29
3 166 29
0 167 29
1 167 29
2 167 29
3 167 29
0 168 29
1 168 29
2 168 29
3 168 29
0 169 29
1 169 29
2 169 29
3 169 29
0 170 29
1 170 29
2 170 29
3 170 29
0 171 29
1 171 29
2 171 29
3 171 29
0 172 29
1 172 29
2 172 29
3 172 29
0 173 29
1 173 29
2 173 29
3 173 29
0 174 29
1 174 29
2 174 29
3 174 29
0 175 29
1 175 29
2 175 29
3 175 29
0 176 29
1 176 29
2 176 29
3 176 29
0 177 29
1 177 29
2 177 29
3 177 29
0 178 29
1 178 29
2 178 29
3 178 29
0 179 29
1 179 29
2 179 29
3 179 29
0 180 29
1 180 29
2 180 29
3 180 29
0 181 29
1 181 29
2 181 29
3 181 29
0 182 29
1 182 29
2 182 29
3 182 29
0 183 29
1 183 29
2 183 29
3 183 29
0 184 29
1 184 29
2 184 29
3 184 29
0 185 29
1 185 29
2 185 29
3 185 29
0 186 29
1 186 29
2 186 29
3 186 29
0 187 29
1 187 29
2 187 29
3 187 29
0 188 29
1 188 29
2 188 29
3 188 29
0 189 29
1 189 29
2 189 29
3 189 29
0 190 29
1 190 29
2 190 29
3 190 29
0 191 29
1 191 29
2 191 29
3 191 29
0 192 29
1 192 29
2 192 29
3 192 29
0 193 29
1 193 29
2 193 29
3 193 29
0 194 29
1 194 29
2 194 29
3 194 29
0 195 29
1 195 29
2 195 29
3 195 29
0 196 29
1 196 29
2 196 29
3 196 29
0 197 29
1 197 29
2 197 29
3 197 29
0 198 29
1 198 29
2 198 29
3 198 29
0 199 29
1 199 29
2 199 29
3 199 29
0 132 30
1 132 30
2 132 30
3 132 30
0 133 30
1 133 30
2 133 30
3 133 30
0 134 30
1 134 30
2 134 30
3 134 30
0 135 30
1 135 30
2 135 30
3 135 30
0 136 30
1 136 30
2 136 30
3 136 30
0 137 30
1 137 30
2 137 30
3 137 30
0 138 30
1 138 30
2 138 30
3 138 30
0 139 30
1 139 30
2 139 30
3 139 30
0 140 30
1 140 30
2 140 30
3 140 30
0 141 30
1 141 30
2 141 30
3 141 30
0 142 30
1 142 30
2 142 30
3 142 30
0 143 30
1 143 30
2 143 30
3 143 30
0 144 30
1 144 30
2 144 30
3 144 30
0 145 30
1 145 30
2 145 30
3 145 30
0 146 30
1 146 30
2 146 30
3 146 30
0 147 30
1 147 30
2 147 30
3 147 30
0 148 30
1 148 30
2 148 30
3 148 30
0 149 30
1 149 30
2 149 30
3 149 30
0 150 30
1 150 30
2 150 30
3 150 30
0 151 30
1 151 30
2 151 30
3 151 30
0 152 30
1 152 30
2 152 30
3 152 30
0 153 30
1 153 30
2 153 30
3 153 30
0 154 30
1 154 30
2 154 30
3 154 30
0 155 30
1 155 30
2 155 30
3 155 30
0 156 30
1 156 30
2 156 30
3 156 30
0 157 30
1 157 30
2 157 30
3 157 30
0 158 30
1 158 30
2 158 30
3 158 30
0 159 30
1 159 30
2 159 30
3 159 30
0 160 30
1 160 30
2 160 30
3 160 30
0 161 30
1 161 30
2 161 30
3 161 30
0 162 30
1 162 30
2 162 30
3 162 30
0 163 30
1 163 30
2 163 30
3 163 30
0 164 30
1 164 30
2 164 30
3 164 30
0 165 30
1 165 30
2 165 30
3 165 30
0 166 30
1 166 30
2 166 30
3 166 30
0 167 30
1 167 30
2 167 30
3 167 30
0 168 30
1 168 30
2 168 30
3 168 30
0 169 30
1 169 30
2 169 30
3 169 30
0 170 30
1 170 30
2 170 30
3 170 30
0 171 30
1 171 30
2 171 30
3 171 30
0 172 30
1 172 30
2 172 30
3 172 30
0 173 30
1 173 30
2 173 30
3 173 30
0 174 30
1 174 30
2 174 30
3 174 30
0 175 30
1 175 30
2 175 30
3 175 30
0 176 30
1 176 30
2 176 30
3 176 30
0 177 30
1 177 30
2 177 30
3 177 30
0 178 30
1 178 30
2 178 30
3 178 30
0 179 30
1 179 30
2 179 30
3 179 30
0 180 30
1 180 30
2 180 30
3 180 30
0 181 30
1 181 30
2 181 30
3 181 30
0 182 30
1 182 30
2 182 30
3 182 30
0 183 30
1 183 30
2 183 30
3 183 30
0 184 30
1 184 30
2 184 30
3 184 30
0 185 30
1 185 30
2 185 30
3 185 30
0 186 30
1 186 30
2 186 30
3 186 30
0 187 30
1 187 30
2 187 30
3 187 30
0 188 30
1 188 30
2 188 30
3 188 30
0 189 30
1 189 30
2 189 30
3 189 30
0 190 30
1 190 30
2 190 30
3 190 30
0 191 30
1 191 30
2 191 30
3 191 30
0 192 30
1 192 30
2 192 30
3 192 30
0 193 30
1 193 30
2 193 30
3 193 30
0 194 30
1 194 30
2 194 30
3 194 30
0 195 30
1 195 30
2 195 30
3 195 30
0 196 30
1 196 30
2 196 30
3 196 30
0 197 30
1 197 30
2 197 30
3 197 30
0 198 30
1 198 30
2 198 30
3 198 30
0 199 30
1 199 30
2 199 30
3 199 30
0 132 31
1 132 31
2 132 31
3 132 31
0 133 31
1 133 31
2 133 31
3 133 31
0 134 31
1 134 31
2 134 31
3 134 31
0 135 31
1 135 31
2 135 31
3 135 31
0 136 31
1 136 31
2 136 31
3 136 31
0 137 31
1 137 31
2 137 31
3 137 31
0 138 31
1 138 31
2 138 31
3 138 31
0 139 31
1 139 31
2 139 31
3 139 31
0 140 31
1 140 31
2 140 31
3 140 31
0 141 31
1 141 31
2 141 31
3 141 31
0 142 31
1 142 31
2 142 31
3 142 31
0 143 31
1 143 31
2 143 31
3 143 31
0 144 31
1 144 31
2 144 31
3 144 31
0 145 31
1 145 31
2 145 31
3 145 31
0 146 31
1 146 31
2 146 31
3 146 31
0 147 31
1 147 31
2 147 31
3 147 31
0 148 31
1 148 31
2 148 31
3 148 31
0 149 31
1 149 31
2 149 31
3 149 31
0 150 31
1 150 31
2 150 31
3 150 31
0 151 31
1 151 31
2 151 31
3 151 31
0 152 31
1 152 31
2 152 31
3 152 31
0 153 31
1 153 31
2 153 31
3 153 31
0 154 31
1 154 31
2 154 31
3 154 31
0 155 31
1 155 31
2 155 31
3 155 31
0 156 31
1 156 31
2 156 31
3 156 31
0 157 31
1 157 31
2 157 31
3 157 31
0 158 31
1 158 31
2 158 31
3 158 31
0 159 31
1 159 31
2 159 31
3 159 31
0 160 31
1 160 31
2 160 31
3 160 31
0 161 31
1 161 31
2 161 31
3 161 31
0 162 31
1 162 31
2 162 31
3 162 31
0 163 31
1 163 31
2 163 31
3 163 31
0 164 31
1 164 31
2 164 31
3 164 31
0 165 31
1 165 31
2 165 31
3 165 31
0 166 31
1 166 31
2 166 31
3 166 31
0 167 31
1 167 31
2 167 31
3 167 31
0 168 31
1 168 31
2 168 31
3 168 31
0 169 31
1 169 31
2 169 31
3 169 31
0 170 31
1 170 31
2 170 31
3 170 31
0 171 31
1 171 31
2 171 31
3 171 31
0 172 31
1 172 31
2 172 31
3 172 31
0 173 31
1 173 31
2 173 31
3 173 31
0 174 31
1 174 31
2 174 31
3 174 31
0 175 31
1 175 31
2 175 31
3 175 31
0 176 31
1 176 31
2 176 31
3 176 31
0 177 31
1 177 31
2 177 31
3 177 31
0 178 31
1 178 31
2 178 31
3 178 31
0 179 31
1 179 31
2 179 31
3 179 31
0 180 31
1 180 31
2 180 31
3 180 31
0 181 31
1 181 31
2 181 31
3 181 31
0 182 31
1 182 31
2 182 31
3 182 31
0 183 31
1 183 31
2 183 31
3 183 31
0 184 31
1 184 31
2 184 31
3 184 31
0 185 31
1 185 31
2 185 31
3 185 31
0 186 31
1 186 31
2 186 31
3 186 31
0 187 31
1 187 31
2 187 31
3 187 31
0 188 31
1 188 31
2 188 31
3 188 31
0 189 31
1 189 31
2 189 31
3 189 31
0 190 31
1 190 31
2 190 31
3 190 31
0 191 31
1 191 31
2 191 31
3 191 31
0 192 31
1 192 31
2 192 31
3 192 31
0 193 31
1 193 31
2 193 31
3 193 31
0 194 31
1 194 31
2 194 31
3 194 31
0 195 31
1 195 31
2 195 31
3 195 31
0 196 31
1 196 31
2 196 31
3 196 31
0 197 31
1 197 31
2 197 31
3 197 31
0 198 31
1 198 31
2 198 31
3 198 31
0 199 31
1 199 31
2 199 31
3 199 31
0 132 32
1 132 32
2 132 32
3 132 32
0 133 32
1 133 32
2 133 32
3 133 32
0 134 32
1 134 32
2 134 32
3 134 32
0 135 32
1 135 32
2 135 32
3 135 32
0 136 32
1 136 32
2 136 32
3 136 32
0 137 32
1 137 32
2 137 32
3 137 32
0 138 32
1 138 32
2 138 32
3 138 32
0 139 32
1 139 32
2 139 32
3 139 32
0 140 32
1 140 32
2 140 32
3 140 32
0 141 32
1 141 32
2 141 32
3 141 32
0 142 32
1 142 32
2 142 32
3 142 32
0 143 32
1 143 32
2 143 32
3 143 32
0 144 32
1 144 32
2 144 32
3 144 32
0 145 32
1 145 32
2 145 32
3 145 32
0 146 32
1 146 32
2 146 32
3 146 32
0 147 32
1 147 32
2 147 32
3 147 32
0 148 32
1 148 32
2 148 32
3 148 32
0 149 32
1 149 32
2 149 32
3 149 32
0 150 32
1 150 32
2 150 32
3 150 32
0 151 32
1 151 32
2 151 32
3 151 32
0 152 32
1 152 32
2 152 32
3 152 32
0 153 32
1 153 32
2 153 32
3 153 32
0 154 32
1 154 32
2 154 32
3 154 32
0 155 32
1 155 32
2 155 32
3 155 32
0 156 32
1 156 32
2 156 32
3 156 32
0 157 32
1 157 32
2 157 32
3 157 32
0 158 32
1 158 32
2 158 32
3 158 32
0 159 32
1 159 32
2 159 32
3 159 32
0 160 32
1 160 32
2 160 32
3 160 32
0 161 32
1 161 32
2 161 32
3 161 32
0 162 32
1 162 32
2 162 32
3 162 32
0 163 32
1 163 32
2 163 32
3 163 32
0 164 32
1 164 32
2 164 32
3 164 32
0 165 32
1 165 32
2 165 32
3 165 32
0 166 32
1 166 32
2 166 32
3 166 32
0 167 32
1 167 32
2 167 32
3 167 32
0 168 32
1 168 32
2 168 32
3 168 32
0 169 32
1 169 32
2 169 32
3 169 32
0 170 32
1 170 32
2 170 32
3 170 32
0 171 32
1 171 32
2 171 32
3 171 32
0 172 32
1 172 32
2 172 32
3 172 32
0 173 32
1 173 32
2 173 32
3 173 32
0 174 32
1 174 32
2 174 32
3 174 32
0 175 32
1 175 32
2 175 32
3 175 32
0 176 32
1 176 32
2 176 32
3 176 32
0 177 32
1 177 32
2 177 32
3 177 32
0 178 32
1 178 32
2 178 32
3 178 32
0 179 32
1 179 32
2 179 32
3 179 32
0 180 32
1 180 32
2 180 32
3 180 32
0 181 32
1 181 32
2 181 32
3 181 32
0 182 32
1 182 32
2 182 32
3 182 32
0 183 32
1 183 32
2 183 32
3 183 32
0 184 32
1 184 32
2 184 32
3 184 32
0 185 32
1 185 32
2 185 32
3 185 32
0 186 32
1 186 32
2 186 32
3 186 32
0 187 32
1 187 32
2 187 32
3 187 32
0 188 32
1 188 32
2 188 32
3 188 32
0 189 32
1 189 32
2 189 32
3 189 32
0 190 32
1 190 32
2 190 32
3 190 32
0 191 32
1 191 32
2 191 32
3 191 32
0 192 32
1 192 32
2 192 32
3 192 32
0 193 32
1 193 32
2 193 32
3 193 32
0 194 32
1 194 32
2 194 32
3 194 32
0 195 32
1 195 32
2 195 32
3 195 32
0 196 32
1 196 32
2 196 32
3 196 32
0 197 32
1 197 32
2 197 32
3 197 32
0 198 32
1 198 32
2 198 32
3 198 32
0 199 32
1 199 32
2 199 32
3 199 32
0 132 33
1 132 33
2 132 33
3 132 33
0 133 33
1 133 33
2 133 33
3 133 33
0 134 33
1 134 33
2 134 33
3 134 33
0 135 33
1 135 33
2 135 33
3 135 33
0 136 33
1 136 33
2 136 33
3 136 33
0 137 33
1 137 33
2 137 33
3 137 33
0 138 33
1 138 33
2 138 33
3 138 33
0 139 33
1 139 33
2 139 33
3 139 33
0 140 33
1 140 33
2 140 33
3 140 33
0 141 33
1 141 33
2 141 33
3 141 33
0 142 33
1 142 33
2 142 33
3 142 33
0 143 33
1 143 33
2 143 33
3 143 33
0 144 33
1 144 33
2 144 33
3 144 33
0 145 33
1 145 33
2 145 33
3 145 33
0 146 33
1 146 33
2 146 33
3 146 33
0 147 33
1 147 33
2 147 33
3 147 33
0 148 33
1 148 33
2 148 33
3 148 33
0 149 33
1 149 33
2 149 33
3 149 33
0 150 33
1 150 33
2 150 33
3 150 33
0 151 33
1 151 33
2 151 33
3 151 33
0 152 33
1 152 33
2 152 33
3 152 33
0 153 33
1 153 33
2 153 33
3 153 33
0 154 33
1 154 33
2 154 33
3 154 33
0 155 33
1 155 33
2 155 33
3 155 33
0 156 33
1 156 33
2 156 33
3 156 33
0 157 33
1 157 33
2 157 33
3 157 33
0 158 33
1 158 33
2 158 33
3 158 33
0 159 33
1 159 33
2 159 33
3 159 33
0 160 33
1 160 33
2 160 33
3 160 33
0 161 33
1 161 33
2 161 33
3 161 33
0 162 33
1 162 33
2 162 33
3 162 33
0 163 33
1 163 33
2 163 33
3 163 33
0 164 33
1 164 33
2 164 33
3 164 33
0 165 33
1 165 33
2 165 33
3 165 33
0 166 33
1 166 33
2 166 33
3 166 33
0 167 33
1 167 33
2 167 33
3 167 33
0 168 33
1 168 33
2 168 33
3 168 33
0 169 33
1 169 33
2 169 33
3 169 33
0 170 33
1 170 33
2 170 33
3 170 33
0 171 33
1 171 33
2 171 33
3 171 33
0 172 33
1 172 33
2 172 33
3 172 33
0 173 33
1 173 33
2 173 33
3 173 33
0 174 33
1 174 33
2 174 33
3 174 33
0 175 33
1 175 33
2 175 33
3 175 33
0 176 33
1 176 33
2 176 33
3 176 33
0 177 33
1 177 33
2 177 33
3 177 33
0 178 33
1 178 33
2 178 33
3 178 33
0 179 33
1 179 33
2 179 33
3 179 33
0 180 33
1 180 33
2 180 33
3 180 33
0 181 33
1 181 33
2 181 33
3 181 33
0 182 33
1 182 33
2 182 33
3 182 33
0 183 33
1 183 33
2 183 33
3 183 33
0 184 33
1 184 33
2 184 33
3 184 33
0 185 33
1 185 33
2 185 33
3 185 33
0 186 33
1 186 33
2 186 33
3 186 33
0 187 33
1 187 33
2 187 33
3 187 33
0 188 33
1 188 33
2 188 33
3 188 33
0 189 33
1 189 33
2 189 33
3 189 33
0 190 33
1 190 33
2 190 33
3 190 33
0 191 33
1 191 33
2 191 33
3 191 33
0 192 33
1 192 33
2 192 33
3 192 33
0 193 33
1 193 33
2 193 33
3 193 33
0 194 33
1 194 33
2 194 33
3 194 33
0 195 33
1 195 33
2 195 33
3 195 33
0 196 33
1 196 33
2 196 33
3 196 33
0 197 33
1 197 33
2 197 33
3 197 33
0 198 33
1 198 33
2 198 33
3 198 33
0 199 33
1 199 33
2 199 33
3 199 33
0 132 34
1 132 34
2 132 34
3 132 34
0 133 34
1 133 34
2 133 34
3 133 34
0 134 34
1 134 34
2 134 34
3 134 34
0 135 34
1 135 34
2 135 34
3 135 34
0 136 34
1 136 34
2 136 34
3 136 34
0 137 34
1 137 34
2 137 34
3 137 34
0 138 34
1 138 34
2 138 34
3 138 34
0 139 34
1 139 34
2 139 34
3 139 34
0 140 34
1 140 34
2 140 34
3 140 34
0 141 34
1 141 34
2 141 34
3 141 34
0 142 34
1 142 34
2 142 34
3 142 34
0 143 34
1 143 34
2 143 34
3 143 34
0 144 34
1 144 34
2 144 34
3 144 34
0 145 34
1 145 34
2 145 34
3 145 34
0 146 34
1 146 34
2 146 34
3 146 34
0 147 34
1 147 34
2 147 34
3 147 34
0 148 34
1 148 34
2 148 34
3 148 34
0 149 34
1 149 34
2 149 34
3 149 34
0 150 34
1 150 34
2 150 34
3 150 34
0 151 34
1 151 34
2 151 34
3 151 34
0 152 34
1 152 34
2 152 34
3 152 34
0 153 34
1 153 34
2 153 34
3 153 34
0 154 34
1 154 34
2 154 34
3 154 34
0 155 34
1 155 34
2 155 34
3 155 34
0 156 34
1 156 34
2 156 34
3 156 34
0 157 34
1 157 34
2 157 34
3 157 34
0 158 34
1 158 34
2 158 34
3 158 34
0 159 34
1 159 34
2 159 34
3 159 34
0 160 34
1 160 34
2 160 34
3 160 34
0 161 34
1 161 34
2 161 34
3 161 34
0 162 34
1 162 34
2 162 34
3 162 34
0 163 34
1 163 34
2 163 34
3 163 34
0 164 34
1 164 34
2 164 34
3 164 34
0 165 34
1 165 34
2 165 34
3 165 34
0 166 34
1 166 34
2 166 34
3 166 34
0 167 34
1 167 34
2 167 34
3 167 34
0 168 34
1 168 34
2 168 34
3 168 34
0 169 34
1 169 34
2 169 34
3 169 34
0 170 34
1 170 34
2 170 34
3 170 34
0 171 34
1 171 34
2 171 34
3 171 34
0 172 34
1 172 34
2 172 34
3 172 34
0 173 34
1 173 34
2 173 34
3 173 34
0 174 34
1 174 34
2 174 34
3 174 34
0 175 34
1 175 34
2 175 34
3 175 34
0 176 34
1 176 34
2 176 34
3 176 34
0 177 34
1 177 34
2 177 34
3 177 34
0 178 34
1 178 34
2 178 34
3 178 34
0 179 34
1 179 34
2 179 34
3 179 34
0 180 34
1 180 34
2 180 34
3 180 34
0 181 34
1 181 34
2 181 34
3 181 34
0 182 34
1 182 34
2 182 34
3 182 34
0 183 34
1 183 34
2 183 34
3 183 34
0 184 34
1 184 34
2 184 34
3 184 34
0 185 34
1 185 34
2 185 34
3 185 34
0 186 34
1 186 34
2 186 34
3 186 34
0 187 34
1 187 34
2 187 34
3 187 34
0 188 34
1 188 34
2 188 34
3 188 34
0 189 34
1 189 34
2 189 34
3 189 34
0 190 34
1 190 34
2 190 34
3 190 34
0 191 34
1 191 34
2 191 34
3 191 34
0 192 34
1 192 34
2 192 34
3 192 34
0 193 34
1 193 34
2 193 34
3 193 34
0 194 34
1 194 34
2 194 34
3 194 34
0 195 34
1 195 34
2 195 34
3 195 34
0 196 34
1 196 34
2 196 34
3 196 34
0 197 34
1 197 34
2 197 34
3 197 34
0 198 34
1 198 34
2 198 34
3 198 34
0 199 34
1 199 34
2 199 34
3 199 34
0 132 35
1 132 35
2 132 35
3 132 35
0 133 35
1 133 35
2 133 35
3 133 35
0 134 35
1 134 35
2 134 35
3 134 35
0 135 35
1 135 35
2 135 35
3 135 35
0 136 35
1 136 35
2 136 35
3 136 35
0 137 35
1 137 35
2 137 35
3 137 35
0 138 35
1 138 35
2 138 35
3 138 35
0 139 35
1 139 35
2 139 35
3 139 35
0 140 35
1 140 35
2 140 35
3 140 35
0 141 35
1 141 35
2 141 35
3 141 35
0 142 35
1 142 35
2 142 35
3 142 35
0 143 35
1 143 35
2 143 35
3 143 35
0 144 35
1 144 35
2 144 35
3 144 35
0 145 35
1 145 35
2 145 35
3 145 35
0 146 35
1 146 35
2 146 35
3 146 35
0 147 35
1 147 35
2 147 35
3 147 35
0 148 35
1 148 35
2 148 35
3 148 35
0 149 35
1 149 35
2 149 35
3 149 35
0 150 35
1 150 35
2 150 35
3 150 35
0 151 35
1 151 35
2 151 35
3 151 35
0 152 35
1 152 35
2 152 35
3 152 35
0 153 35
1 153 35
2 153 35
3 153 35
0 154 35
1 154 35
2 154 35
3 154 35
0 155 35
1 155 35
2 155 35
3 155 35
0 156 35
1 156 35
2 156 35
3 156 35
0 157 35
1 157 35
2 157 35
3 157 35
0 158 35
1 158 35
2 158 35
3 158 35
0 159 35
1 159 35
2 159 35
3 159 35
0 160 35
1 160 35
2 160 35
3 160 35
0 161 35
1 161 35
2 161 35
3 161 35
0 162 35
1 162 35
2 162 35
3 162 35
0 163 35
1 163 35
2 163 35
3 163 35
0 164 35
1 164 35
2 164 35
3 164 35
0 165 35
1 165 35
2 165 35
3 165 35
0 166 35
1 166 35
2 166 35
3 166 35
0 167 35
1 167 35
2 167 35
3 167 35
0 168 35
1 168 35
2 168 35
3 168 35
0 169 35
1 169 35
2 169 35
3 169 35
0 170 35
1 170 35
2 170 35
3 170 35
0 171 35
1 171 35
2 171 35
3 171 35
0 172 35
1 172 35
2 172 35
3 172 35
0 173 35
1 173 35
2 173 35
3 173 35
0 174 35
1 174 35
2 174 35
3 174 35
0 175 35
1 175 35
2 175 35
3 175 35
0 176 35
1 176 35
2 176 35
3 176 35
0 177 35
1 177 35
2 177 35
3 177 35
0 178 35
1 178 35
2 178 35
3 178 35
0 179 35
1 179 35
2 179 35
3 179 35
0 180 35
1 180 35
2 180 35
3 180 35
0 181 35
1 181 35
2 181 35
3 181 35
0 182 35
1 182 35
2 182 35
3 182 35
0 183 35
1 183 35
2 183 35
3 183 35
0 184 35
1 184 35
2 184 35
3 184 35
0 185 35
1 185 35
2 185 35
3 185 35
0 186 35
1 186 35
2 186 35
3 186 35
0 187 35
1 187 35
2 187 35
3 187 35
0 188 35
1 188 35
2 188 35
3 188 35
0 189 35
1 189 35
2 189 35
3 189 35
0 190 35
1 190 35
2 190 35
3 190 35
0 191 35
1 191 35
2 191 35
3 191 35
0 192 35
1 192 35
2 192 35
3 192 35
0 193 35
1 193 35
2 193 35
3 193 35
0 194 35
1 194 35
2 194 35
3 194 35
0 195 35
1 195 35
2 195 35
3 195 35
0 196 35
1 196 35
2 196 35
3 196 35
0 197 35
1 197 35
2 197 35
3 197 35
0 198 35
1 198 35
2 198 35
3 198 35
0 199 35
1 199 35
2 199 35
3 199 35
0 132 36
1 132 36
2 132 36
3 132 36
0 133 36
1 133 36
2 133 36
3 133 36
0 134 36
1 134 36
2 134 36
3 134 36
0 135 36
1 135 36
2 135 36
3 135 36
0 136 36
1 136 36
2 136 36
3 136 36
0 137 36
1 137 36
2 137 36
3 137 36
0 138 36
1 138 36
2 138 36
3 138 36
0 139 36
1 139 36
2 139 36
3 139 36
0 140 36
1 140 36
2 140 36
3 140 36
0 141 36
1 141 36
2 141 36
3 141 36
0 142 36
1 142 36
2 142 36
3 142 36
0 143 36
1 143 36
2 143 36
3 143 36
0 144 36
1 144 36
2 144 36
3 144 36
0 145 36
1 145 36
2 145 36
3 145 36
0 146 36
1 146 36
2 146 36
3 146 36
0 147 36
1 147 36
2 147 36
3 147 36
0 148 36
1 148 36
2 148 36
3 148 36
0 149 36
1 149 36
2 149 36
3 149 36
0 150 36
1 150 36
2 150 36
3 150 36
0 151 36
1 151 36
2 151 36
3 151 36
0 152 36
1 152 36
2 152 36
3 152 36
0 153 36
1 153 36
2 153 36
3 153 36
0 154 36
1 154 36
2 154 36
3 154 36
0 155 36
1 155 36
2 155 36
3 155 36
0 156 36
1 156 36
2 156 36
3 156 36
0 157 36
1 157 36
2 157 36
3 157 36
0 158 36
1 158 36
2 158 36
3 158 36
0 159 36
1 159 36
2 159 36
3 159 36
0 160 36
1 160 36
2 160 36
3 160 36
0 161 36
1 161 36
2 161 36
3 161 36
0 162 36
1 162 36
2 162 36
3 162 36
0 163 36
1 163 36
2 163 36
3 163 36
0 164 36
1 164 36
2 164 36
3 164 36
0 165 36
1 165 36
2 165 36
3 165 36
0 166 36
1 166 36
2 166 36
3 166 36
0 167 36
1 167 36
2 167 36
3 167 36
0 168 36
1 168 36
2 168 36
3 168 36
0 169 36
1 169 36
2 169 36
3 169 36
0 170 36
1 170 36
2 170 36
3 170 36
0 171 36
1 171 36
2 171 36
3 171 36
0 172 36
1 172 36
2 172 36
3 172 36
0 173 36
1 173 36
2 173 36
3 173 36
0 174 36
1 174 36
2 174 36
3 174 36
0 175 36
1 175 36
2 175 36
3 175 36
0 176 36
1 176 36
2 176 36
3 176 36
0 177 36
1 177 36
2 177 36
3 177 36
0 178 36
1 178 36
2 178 36
3 178 36
0 179 36
1 179 36
2 179 36
3 179 36
0 180 36
1 180 36
2 180 36
3 180 36
0 181 36
1 181 36
2 181 36
3 181 36
0 182 36
1 182 36
2 182 36
3 182 36
0 183 36
1 183 36
2 183 36
3 183 36
0 184 36
1 184 36
2 184 36
3 184 36
0 185 36
1 185 36
2 185 36
3 185 36
0 186 36
1 186 36
2 186 36
3 186 36
0 187 36
1 187 36
2 187 36
3 187 36
0 188 36
1 188 36
2 188 36
3 188 36
0 189 36
1 189 36
2 189 36
3 189 36
0 190 36
1 190 36
2 190 36
3 190 36
0 191 36
1 191 36
2 191 36
3 191 36
0 192 36
1 192 36
2 192 36
3 192 36
0 193 36
1 193 36
2 193 36
3 193 36
0 194 36
1 194 36
2 194 36
3 194 36
0 195 36
1 195 36
2 195 36
3 195 36
0 196 36
1 196 36
2 196 36
3 196 36
0 197 36
1 197 36
2 197 36
3 197 36
0 198 36
1 198 36
2 198 36
3 198 36
0 199 36
1 199 36
2 199 36
3 199 36
0 132 37
1 132 37
2 132 37
3 132 37
0 133 37
1 133 37
2 133 37
3 133 37
0 134 37
1 134 37
2 134 37
3 134 37
0 135 37
1 135 37
2 135 37
3 135 37
0 136 37
1 136 37
2 136 37
3 136 37
0 137 37
1 137 37
2 137 37
3 137 37
0 138 37
1 138 37
2 138 37
3 138 37
0 139 37
1 139 37
2 139 37
3 139 37
0 140 37
1 140 37
2 140 37
3 140 37
0 141 37
1 141 37
2 141 37
3 141 37
0 142 37
1 142 37
2 142 37
3 142 37
0 143 37
1 143 37
2 143 37
3 143 37
0 144 37
1 144 37
2 144 37
3 144 37
0 145 37
1 145 37
2 145 37
3 145 37
0 146 37
1 146 37
2 146 37
3 146 37
0 147 37
1 147 37
2 147 37
3 147 37
0 148 37
1 148 37
2 148 37
3 148 37
0 149 37
1 149 37
2 149 37
3 149 37
0 150 37
1 150 37
2 150 37
3 150 37
0 151 37
1 151 37
2 151 37
3 151 37
0 152 37
1 152 37
2 152 37
3 152 37
0 153 37
1 153 37
2 153 37
3 153 37
0 154 37
1 154 37
2 154 37
3 154 37
0 155 37
1 155 37
2 155 37
3 155 37
0 156 37
1 156 37
2 156 37
3 156 37
0 157 37
1 157 37
2 157 37
3 157 37
0 158 37
1 158 37
2 158 37
3 158 37
0 159 37
1 159 37
2 159 37
3 159 37
0 160 37
1 160 37
2 160 37
3 160 37
0 161 37
1 161 37
2 161 37
3 161 37
0 162 37
1 162 37
2 162 37
3 162 37
0 163 37
1 163 37
2 163 37
3 163 37
0 164 37
1 164 37
2 164 37
3 164 37
0 165 37
1 165 37
2 165 37
3 165 37
0 166 37
1 166 37
2 166 37
3 166 37
0 167 37
1 167 37
2 167 37
3 167 37
0 168 37
1 168 37
2 168 37
3 168 37
0 169 37
1 169 37
2 169 37
3 169 37
0 170 37
1 170 37
2 170 37
3 170 37
0 171 37
1 171 37
2 171 37
3 171 37
0 172 37
1 172 37
2 172 37
3 172 37
0 173 37
1 173 37
2 173 37
3 173 37
0 174 37
1 174 37
2 174 37
3 174 37
0 175 37
1 175 37
2 175 37
3 175 37
0 176 37
1 176 37
2 176 37
3 176 37
0 177 37
1 177 37
2 177 37
3 177 37
0 178 37
1 178 37
2 178 37
3 178 37
0 179 37
1 179 37
2 179 37
3 179 37
0 180 37
1 180 37
2 180 37
3 180 37
0 181 37
1 181 37
2 181 37
3 181 37
0 182 37
1 182 37
2 182 37
3 182 37
0 183 37
1 183 37
2 183 37
3 183 37
0 184 37
1 184 37
2 184 37
3 184 37
0 185 37
1 185 37
2 185 37
3 185 37
0 186 37
1 186 37
2 186 37
3 186 37
0 187 37
1 187 37
2 187 37
3 187 37
0 188 37
1 188 37
2 188 37
3 188 37
0 189 37
1 189 37
2 189 37
3 189 37
0 190 37
1 190 37
2 190 37
3 190 37
0 191 37
1 191 37
2 191 37
3 191 37
0 192 37
1 192 37
2 192 37
3 192 37
0 193 37
1 193 37
2 193 37
3 193 37
0 194 37
1 194 37
2 194 37
3 194 37
0 195 37
1 195 37
2 195 37
3 195 37
0 196 37
1 196 37
2 196 37
3 196 37
0 197 37
1 197 37
2 197 37
3 197 37
0 198 37
1 198 37
2 198 37
3 198 37
0 199 37
1 199 37
2 199 37
3 199 37
0 132 38
1 132 38
2 132 38
3 132 38
0 133 38
1 133 38
2 133 38
3 133 38
0 134 38
1 134 38
2 134 38
3 134 38
0 135 38
1 135 38
2 135 38
3 135 38
0 136 38
1 136 38
2 136 38
3 136 38
0 137 38
1 137 38
2 137 38
3 137 38
0 138 38
1 138 38
2 138 38
3 138 38
0 139 38
1 139 38
2 139 38
3 139 38
0 140 38
1 140 38
2 140 38
3 140 38
0 141 38
1 141 38
2 141 38
3 141 38
0 142 38
1 142 38
2 142 38
3 142 38
0 143 38
1 143 38
2 143 38
3 143 38
0 144 38
1 144 38
2 144 38
3 144 38
0 145 38
1 145 38
2 145 38
3 145 38
0 146 38
1 146 38
2 146 38
3 146 38
0 147 38
1 147 38
2 147 38
3 147 38
0 148 38
1 148 38
2 148 38
3 148 38
0 149 38
1 149 38
2 149 38
3 149 38
0 150 38
1 150 38
2 150 38
3 150 38
0 151 38
1 151 38
2 151 38
3 151 38
0 152 38
1 152 38
2 152 38
3 152 38
0 153 38
1 153 38
2 153 38
3 153 38
0 154 38
1 154 38
2 154 38
3 154 38
0 155 38
1 155 38
2 155 38
3 155 38
0 156 38
1 156 38
2 156 38
3 156 38
0 157 38
1 157 38
2 157 38
3 157 38
0 158 38
1 158 38
2 158 38
3 158 38
0 159 38
1 159 38
2 159 38
3 159 38
0 160 38
1 160 38
2 160 38
3 160 38
0 161 38
1 161 38
2 161 38
3 161 38
0 162 38
1 162 38
2 162 38
3 162 38
0 163 38
1 163 38
2 163 38
3 163 38
0 164 38
1 164 38
2 164 38
3 164 38
0 165 38
1 165 38
2 165 38
3 165 38
0 166 38
1 166 38
2 166 38
3 166 38
0 167 38
1 167 38
2 167 38
3 167 38
0 168 38
1 168 38
2 168 38
3 168 38
0 169 38
1 169 38
2 169 38
3 169 38
0 170 38
1 170 38
2 170 38
3 170 38
0 171 38
1 171 38
2 171 38
3 171 38
0 172 38
1 172 38
2 172 38
3 172 38
0 173 38
1 173 38
2 173 38
3 173 38
0 174 38
1 174 38
2 174 38
3 174 38
0 175 38
1 175 38
2 175 38
3 175 38
0 176 38
1 176 38
2 176 38
3 176 38
0 177 38
1 177 38
2 177 38
3 177 38
0 178 38
1 178 38
2 178 38
3 178 38
0 179 38
1 179 38
2 179 38
3 179 38
0 180 38
1 180 38
2 180 38
3 180 38
0 181 38
1 181 38
2 181 38
3 181 38
0 182 38
1 182 38
2 182 38
3 182 38
0 183 38
1 183 38
2 183 38
3 183 38
0 184 38
1 184 38
2 184 38
3 184 38
0 185 38
1 185 38
2 185 38
3 185 38
0 186 38
1 186 38
2 186 38
3 186 38
0 187 38
1 187 38
2 187 38
3 187 38
0 188 38
1 188 38
2 188 38
3 188 38
0 189 38
1 189 38
2 189 38
3 189 38
0 190 38
1 190 38
2 190 38
3 190 38
0 191 38
1 191 38
2 191 38
3 191 38
0 192 38
1 192 38
2 192 38
3 192 38
0 193 38
1 193 38
2 193 38
3 193 38
0 194 38
1 194 38
2 194 38
3 194 38
0 195 38
1 195 38
2 195 38
3 195 38
0 196 38
1 196 38
2 196 38
3 196 38
0 197 38
1 197 38
2 197 38
3 197 38
0 198 38
1 198 38
2 198 38
3 198 38
0 199 38
1 199 38
2 199 38
3 199 38
0 132 39
1 132 39
2 132 39
3 132 39
0 133 39
1 133 39
2 133 39
3 133 39
0 134 39
1 134 39
2 134 39
3 134 39
0 135 39
1 135 39
2 135 39
3 135 39
0 136 39
1 136 39
2 136 39
3 136 39
0 137 39
1 137 39
2 137 39
3 137 39
0 138 39
1 138 39
2 138 39
3 138 39
0 139 39
1 139 39
2 139 39
3 139 39
0 140 39
1 140 39
2 140 39
3 140 39
0 141 39
1 141 39
2 141 39
3 141 39
0 142 39
1 142 39
2 142 39
3 142 39
0 143 39
1 143 39
2 143 39
3 143 39
0 144 39
1 144 39
2 144 39
3 144 39
0 145 39
1 145 39
2 145 39
3 145 39
0 146 39
1 146 39
2 146 39
3 146 39
0 147 39
1 147 39
2 147 39
3 147 39
0 148 39
1 148 39
2 148 39
3 148 39
0 149 39
1 149 39
2 149 39
3 149 39
0 150 39
1 150 39
2 150 39
3 150 39
0 151 39
1 151 39
2 151 39
3 151 39
0 152 39
1 152 39
2 152 39
3 152 39
0 153 39
1 153 39
2 153 39
3 153 39
0 154 39
1 154 39
2 154 39
3 154 39
0 155 39
1 155 39
2 155 39
3 155 39
0 156 39
1 156 39
2 156 39
3 156 39
0 157 39
1 157 39
2 157 39
3 157 39
0 158 39
1 158 39
2 158 39
3 158 39
0 159 39
1 159 39
2 159 39
3 159 39
0 160 39
1 160 39
2 160 39
3 160 39
0 161 39
1 161 39
2 161 39
3 161 39
0 162 39
1 162 39
2 162 39
3 162 39
0 163 39
1 163 39
2 163 39
3 163 39
0 164 39
1 164 39
2 164 39
3 164 39
0 165 39
1 165 39
2 165 39
3 165 39
0 166 39
1 166 39
2 166 39
3 166 39
0 167 39
1 167 39
2 167 39
3 167 39
0 168 39
1 168 39
2 168 39
3 168 39
0 169 39
1 169 39
2 169 39
3 169 39
0 170 39
1 170 39
2 170 39
3 170 39
0 171 39
1 171 39
2 171 39
3 171 39
0 172 39
1 172 39
2 172 39
3 172 39
0 173 39
1 173 39
2 173 39
3 173 39
0 174 39
1 174 39
2 174 39
3 174 39
0 175 39
1 175 39
2 175 39
3 175 39
0 176 39
1 176 39
2 176 39
3 176 39
0 177 39
1 177 39
2 177 39
3 177 39
0 178 39
1 178 39
2 178 39
3 178 39
0 179 39
1 179 39
2 179 39
3 179 39
0 180 39
1 180 39
2 180 39
3 180 39
0 181 39
1 181 39
2 181 39
3 181 39
0 182 39
1 182 39
2 182 39
3 182 39
0 183 39
1 183 39
2 183 39
3 183 39
0 184 39
1 184 39
2 184 39
3 184 39
0 185 39
1 185 39
2 185 39
3 185 39
0 186 39
1 186 39
2 186 39
3 186 39
0 187 39
1 187 39
2 187 39
3 187 39
0 188 39
1 188 39
2 188 39
3 188 39
0 189 39
1 189 39
2 189 39
3 189 39
0 190 39
1 190 39
2 190 39
3 190 39
0 191 39
1 191 39
2 191 39
3 191 39
0 192 39
1 192 39
2 192 39
3 192 39
0 193 39
1 193 39
2 193 39
3 193 39
0 194 39
1 194 39
2 194 39
3 194 39
0 195 39
1 195 39
2 195 39
3 195 39
0 196 39
1 196 39
2 196 39
3 196 39
0 197 39
1 197 39
2 197 39
3 197 39
0 198 39
1 198 39
2 198 39
3 198 39
0 199 39
1 199 39
2 199 39
3 199 39
0 132 40
1 132 40
2 132 40
3 132 40
0 133 40
1 133 40
2 133 40
3 133 40
0 134 40
1 134 40
2 134 40
3 134 40
0 135 40
1 135 40
2 135 40
3 135 40
0 136 40
1 136 40
2 136 40
3 136 40
0 137 40
1 137 40
2 137 40
3 137 40
0 138 40
1 138 40
2 138 40
3 138 40
0 139 40
1 139 40
2 139 40
3 139 40
0 140 40
1 140 40
2 140 40
3 140 40
0 141 40
1 141 40
2 141 40
3 141 40
0 142 40
1 142 40
2 142 40
3 142 40
0 143 40
1 143 40
2 143 40
3 143 40
0 144 40
1 144 40
2 144 40
3 144 40
0 145 40
1 145 40
2 145 40
3 145 40
0 146 40
1 146 40
2 146 40
3 146 40
0 147 40
1 147 40
2 147 40
3 147 40
0 148 40
1 148 40
2 148 40
3 148 40
0 149 40
1 149 40
2 149 40
3 149 40
0 150 40
1 150 40
2 150 40
3 150 40
0 151 40
1 151 40
2 151 40
3 151 40
0 152 40
1 152 40
2 152 40
3 152 40
0 153 40
1 153 40
2 153 40
3 153 40
0 154 40
1 154 40
2 154 40
3 154 40
0 155 40
1 155 40
2 155 40
3 155 40
0 156 40
1 156 40
2 156 40
3 156 40
0 157 40
1 157 40
2 157 40
3 157 40
0 158 40
1 158 40
2 158 40
3 158 40
0 159 40
1 159 40
2 159 40
3 159 40
0 160 40
1 160 40
2 160 40
3 160 40
0 161 40
1 161 40
2 161 40
3 161 40
0 162 40
1 162 40
2 162 40
3 162 40
0 163 40
1 163 40
2 163 40
3 163 40
0 164 40
1 164 40
2 164 40
3 164 40
0 165 40
1 165 40
2 165 40
3 165 40
0 166 40
1 166 40
2 166 40
3 166 40
0 167 40
1 167 40
2 167 40
3 167 40
0 168 40
1 168 40
2 168 40
3 168 40
0 169 40
1 169 40
2 169 40
3 169 40
0 170 40
1 170 40
2 170 40
3 170 40
0 171 40
1 171 40
2 171 40
3 171 40
0 172 40
1 172 40
2 172 40
3 172 40
0 173 40
1 173 40
2 173 40
3 173 40
0 174 40
1 174 40
2 174 40
3 174 40
0 175 40
1 175 40
2 175 40
3 175 40
0 176 40
1 176 40
2 176 40
3 176 40
0 177 40
1 177 40
2 177 40
3 177 40
0 178 40
1 178 40
2 178 40
3 178 40
0 179 40
1 179 40
2 179 40
3 179 40
0 180 40
1 180 40
2 180 40
3 180 40
0 181 40
1 181 40
2 181 40
3 181 40
0 182 40
1 182 40
2 182 40
3 182 40
0 183 40
1 183 40
2 183 40
3 183 40
0 184 40
1 184 40
2 184 40
3 184 40
0 185 40
1 185 40
2 185 40
3 185 40
0 186 40
1 186 40
2 186 40
3 186 40
0 187 40
1 187 40
2 187 40
3 187 40
0 188 40
1 188 40
2 188 40
3 188 40
0 189 40
1 189 40
2 189 40
3 189 40
0 190 40
1 190 40
2 190 40
3 190 40
0 191 40
1 191 40
2 191 40
3 191 40
0 192 40
1 192 40
2 192 40
3 192 40
0 193 40
1 193 40
2 193 40
3 193 40
0 194 40
1 194 40
2 194 40
3 194 40
0 195 40
1 195 40
2 195 40
3 195 40
0 196 40
1 196 40
2 196 40
3 196 40
0 197 40
1 197 40
2 197 40
3 197 40
0 198 40
1 198 40
2 198 40
3 198 40
0 199 40
1 199 40
2 199 40
3 199 40
0 132 41
1 132 41
2 132 41
3 132 41
0 133 41
1 133 41
2 133 41
3 133 41
0 134 41
1 134 41
2 134 41
3 134 41
0 135 41
1 135 41
2 135 41
3 135 41
0 136 41
1 136 41
2 136 41
3 136 41
0 137 41
1 137 41
2 137 41
3 137 41
0 138 41
1 138 41
2 138 41
3 138 41
0 139 41
1 139 41
2 139 41
3 139 41
0 140 41
1 140 41
2 140 41
3 140 41
0 141 41
1 141 41
2 141 41
3 141 41
0 142 41
1 142 41
2 142 41
3 142 41
0 143 41
1 143 41
2 143 41
3 143 41
0 144 41
1 144 41
2 144 41
3 144 41
0 145 41
1 145 41
2 145 41
3 145 41
0 146 41
1 146 41
2 146 41
3 146 41
0 147 41
1 147 41
2 147 41
3 147 41
0 148 41
1 148 41
2 148 41
3 148 41
0 149 41
1 149 41
2 149 41
3 149 41
0 150 41
1 150 41
2 150 41
3 150 41
0 151 41
1 151 41
2 151 41
3 151 41
0 152 41
1 152 41
2 152 41
3 152 41
0 153 41
1 153 41
2 153 41
3 153 41
0 154 41
1 154 41
2 154 41
3 154 41
0 155 41
1 155 41
2 155 41
3 155 41
0 156 41
1 156 41
2 156 41
3 156 41
0 157 41
1 157 41
2 157 41
3 157 41
0 158 41
1 158 41
2 158 41
3 158 41
0 159 41
1 159 41
2 159 41
3 159 41
0 160 41
1 160 41
2 160 41
3 160 41
0 161 41
1 161 41
2 161 41
3 161 41
0 162 41
1 162 41
2 162 41
3 162 41
0 163 41
1 163 41
2 163 41
3 163 41
0 164 41
1 164 41
2 164 41
3 164 41
0 165 41
1 165 41
2 165 41
3 165 41
0 166 41
1 166 41
2 166 41
3 166 41
0 167 41
1 167 41
2 167 41
3 167 41
0 168 41
1 168 41
2 168 41
3 168 41
0 169 41
1 169 41
2 169 41
3 169 41
0 170 41
1 170 41
2 170 41
3 170 41
0 171 41
1 171 41
2 171 41
3 171 41
0 172 41
1 172 41
2 172 41
3 172 41
0 173 41
1 173 41
2 173 41
3 173 41
0 174 41
1 174 41
2 174 41
3 174 41
0 175 41
1 175 41
2 175 41
3 175 41
0 176 41
1 176 41
2 176 41
3 176 41
0 177 41
1 177 41
2 177 41
3 177 41
0 178 41
1 178 41
2 178 41
3 178 41
0 179 41
1 179 41
2 179 41
3 179 41
0 180 41
1 180 41
2 180 41
3 180 41
0 181 41
1 181 41
2 181 41
3 181 41
0 182 41
1 182 41
2 182 41
3 182 41
0 183 41
1 183 41
2 183 41
3 183 41
0 184 41
1 184 41
2 184 41
3 184 41
0 185 41
1 185 41
2 185 41
3 185 41
0 186 41
1 186 41
2 186 41
3 186 41
0 187 41
1 187 41
2 187 41
3 187 41
0 188 41
1 188 41
2 188 41
3 188 41
0 189 41
1 189 41
2 189 41
3 189 41
0 190 41
1 190 41
2 190 41
3 190 41
0 191 41
1 191 41
2 191 41
3 191 41
0 192 41
1 192 41
2 192 41
3 192 41
0 193 41
1 193 41
2 193 41
3 193 41
0 194 41
1 194 41
2 194 41
3 194 41
0 195 41
1 195 41
2 195 41
3 195 41
0 196 41
1 196 41
2 196 41
3 196 41
0 197 41
1 197 41
2 197 41
3 197 41
0 198 41
1 198 41
2 198 41
3 198 41
0 199 41
1 199 41
2 199 41
3 199 41
0 132 42
1 132 42
2 132 42
3 132 42
0 133 42
1 133 42
2 133 42
3 133 42
0 134 42
1 134 42
2 134 42
3 134 42
0 135 42
1 135 42
2 135 42
3 135 42
0 136 42
1 136 42
2 136 42
3 136 42
0 137 42
1 137 42
2 137 42
3 137 42
0 138 42
1 138 42
2 138 42
3 138 42
0 139 42
1 139 42
2 139 42
3 139 42
0 140 42
1 140 42
2 140 42
3 140 42
0 141 42
1 141 42
2 141 42
3 141 42
0 142 42
1 142 42
2 142 42
3 142 42
0 143 42
1 143 42
2 143 42
3 143 42
0 144 42
1 144 42
2 144 42
3 144 42
0 145 42
1 145 42
2 145 42
3 145 42
0 146 42
1 146 42
2 146 42
3 146 42
0 147 42
1 147 42
2 147 42
3 147 42
0 148 42
1 148 42
2 148 42
3 148 42
0 149 42
1 149 42
2 149 42
3 149 42
0 150 42
1 150 42
2 150 42
3 150 42
0 151 42
1 151 42
2 151 42
3 151 42
0 152 42
1 152 42
2 152 42
3 152 42
0 153 42
1 153 42
2 153 42
3 153 42
0 154 42
1 154 42
2 154 42
3 154 42
0 155 42
1 155 42
2 155 42
3 155 42
0 156 42
1 156 42
2 156 42
3 156 42
0 157 42
1 157 42
2 157 42
3 157 42
0 158 42
1 158 42
2 158 42
3 158 42
0 159 42
1 159 42
2 159 42
3 159 42
0 160 42
1 160 42
2 160 42
3 160 42
0 161 42
1 161 42
2 161 42
3 161 42
0 162 42
1 162 42
2 162 42
3 162 42
0 163 42
1 163 42
2 163 42
3 163 42
0 164 42
1 164 42
2 164 42
3 164 42
0 165 42
1 165 42
2 165 42
3 165 42
0 166 42
1 166 42
2 166 42
3 166 42
0 167 42
1 167 42
2 167 42
3 167 42
0 168 42
1 168 42
2 168 42
3 168 42
0 169 42
1 169 42
2 169 42
3 169 42
0 170 42
1 170 42
2 170 42
3 170 42
0 171 42
1 171 42
2 171 42
3 171 42
0 172 42
1 172 42
2 172 42
3 172 42
0 173 42
1 173 42
2 173 42
3 173 42
0 174 42
1 174 42
2 174 42
3 174 42
0 175 42
1 175 42
2 175 42
3 175 42
0 176 42
1 176 42
2 176 42
3 176 42
0 177 42
1 177 42
2 177 42
3 177 42
0 178 42
1 178 42
2 178 42
3 178 42
0 179 42
1 179 42
2 179 42
3 179 42
0 180 42
1 180 42
2 180 42
3 180 42
0 181 42
1 181 42
2 181 42
3 181 42
0 182 42
1 182 42
2 182 42
3 182 42
0 183 42
1 183 42
2 183 42
3 183 42
0 184 42
1 184 42
2 184 42
3 184 42
0 185 42
1 185 42
2 185 42
3 185 42
0 186 42
1 186 42
2 186 42
3 186 42
0 187 42
1 187 42
2 187 42
3 187 42
0 188 42
1 188 42
2 188 42
3 188 42
0 189 42
1 189 42
2 189 42
3 189 42
0 190 42
1 190 42
2 190 42
3 190 42
0 191 42
1 191 42
2 191 42
3 191 42
0 192 42
1 192 42
2 192 42
3 192 42
0 193 42
1 193 42
2 193 42
3 193 42
0 194 42
1 194 42
2 194 42
3 194 42
0 195 42
1 195 42
2 195 42
3 195 42
0 196 42
1 196 42
2 196 42
3 196 42
0 197 42
1 197 42
2 197 42
3 197 42
0 198 42
1 198 42
2 198 42
3 198 42
0 199 42
1 199 42
2 199 42
3 199 42
0 132 43
1 132 43
2 132 43
3 132 43
0 133 43
1 133 43
2 133 43
3 133 43
0 134 43
1 134 43
2 134 43
3 134 43
0 135 43
1 135 43
2 135 43
3 135 43
0 136 43
1 136 43
2 136 43
3 136 43
0 137 43
1 137 43
2 137 43
3 137 43
0 138 43
1 138 43
2 138 43
3 138 43
0 139 43
1 139 43
2 139 43
3 139 43
0 140 43
1 140 43
2 140 43
3 140 43
0 141 43
1 141 43
2 141 43
3 141 43
0 142 43
1 142 43
2 142 43
3 142 43
0 143 43
1 143 43
2 143 43
3 143 43
0 144 43
1 144 43
2 144 43
3 144 43
0 145 43
1 145 43
2 145 43
3 145 43
0 146 43
1 146 43
2 146 43
3 146 43
0 147 43
1 147 43
2 147 43
3 147 43
0 148 43
1 148 43
2 148 43
3 148 43
0 149 43
1 149 43
2 149 43
3 149 43
0 150 43
1 150 43
2 150 43
3 150 43
0 151 43
1 151 43
2 151 43
3 151 43
0 152 43
1 152 43
2 152 43
3 152 43
0 153 43
1 153 43
2 153 43
3 153 43
0 154 43
1 154 43
2 154 43
3 154 43
0 155 43
1 155 43
2 155 43
3 155 43
0 156 43
1 156 43
2 156 43
3 156 43
0 157 43
1 157 43
2 157 43
3 157 43
0 158 43
1 158 43
2 158 43
3 158 43
0 159 43
1 159 43
2 159 43
3 159 43
0 160 43
1 160 43
2 160 43
3 160 43
0 161 43
1 161 43
2 161 43
3 161 43
0 162 43
1 162 43
2 162 43
3 162 43
0 163 43
1 163 43
2 163 43
3 163 43
0 164 43
1 164 43
2 164 43
3 164 43
0 165 43
1 165 43
2 165 43
3 165 43
0 166 43
1 166 43
2 166 43
3 166 43
0 167 43
1 167 43
2 167 43
3 167 43
0 168 43
1 168 43
2 168 43
3 168 43
0 169 43
1 169 43
2 169 43
3 169 43
0 170 43
1 170 43
2 170 43
3 170 43
0 171 43
1 171 43
2 171 43
3 171 43
0 172 43
1 172 43
2 172 43
3 172 43
0 173 43
1 173 43
2 173 43
3 173 43
0 174 43
1 174 43
2 174 43
3 174 43
0 175 43
1 175 43
2 175 43
3 175 43
0 176 43
1 176 43
2 176 43
3 176 43
0 177 43
1 177 43
2 177 43
3 177 43
0 178 43
1 178 43
2 178 43
3 178 43
0 179 43
1 179 43
2 179 43
3 179 43
0 180 43
1 180 43
2 180 43
3 180 43
0 181 43
1 181 43
2 181 43
3 181 43
0 182 43
1 182 43
2 182 43
3 182 43
0 183 43
1 183 43
2 183 43
3 183 43
0 184 43
1 184 43
2 184 43
3 184 43
0 185 43
1 185 43
2 185 43
3 185 43
0 186 43
1 186 43
2 186 43
3 186 43
0 187 43
1 187 43
2 187 43
3 187 43
0 188 43
1 188 43
2 188 43
3 188 43
0 189 43
1 189 43
2 189 43
3 189 43
0 190 43
1 190 43
2 190 43
3 190 43
0 191 43
1 191 43
2 191 43
3 191 43
0 192 43
1 192 43
2 192 43
3 192 43
0 193 43
1 193 43
2 193 43
3 193 43
0 194 43
1 194 43
2 194 43
3 194 43
0 195 43
1 195 43
2 195 43
3 195 43
0 196 43
1 196 43
2 196 43
3 196 43
0 197 43
1 197 43
2 197 43
3 197 43
0 198 43
1 198 43
2 198 43
3 198 43
0 199 43
1 199 43
2 199 43
3 199 43
0 132 44
1 132 44
2 132 44
3 132 44
0 133 44
1 133 44
2 133 44
3 133 44
0 134 44
1 134 44
2 134 44
3 134 44
0 135 44
1 135 44
2 135 44
3 135 44
0 136 44
1 136 44
2 136 44
3 136 44
0 137 44
1 137 44
2 137 44
3 137 44
0 138 44
1 138 44
2 138 44
3 138 44
0 139 44
1 139 44
2 139 44
3 139 44
0 140 44
1 140 44
2 140 44
3 140 44
0 141 44
1 141 44
2 141 44
3 141 44
0 142 44
1 142 44
2 142 44
3 142 44
0 143 44
1 143 44
2 143 44
3 143 44
0 144 44
1 144 44
2 144 44
3 144 44
0 145 44
1 145 44
2 145 44
3 145 44
0 146 44
1 146 44
2 146 44
3 146 44
0 147 44
1 147 44
2 147 44
3 147 44
0 148 44
1 148 44
2 148 44
3 148 44
0 149 44
1 149 44
2 149 44
3 149 44
0 150 44
1 150 44
2 150 44
3 150 44
0 151 44
1 151 44
2 151 44
3 151 44
0 152 44
1 152 44
2 152 44
3 152 44
0 153 44
1 153 44
2 153 44
3 153 44
0 154 44
1 154 44
2 154 44
3 154 44
0 155 44
1 155 44
2 155 44
3 155 44
0 156 44
1 156 44
2 156 44
3 156 44
0 157 44
1 157 44
2 157 44
3 157 44
0 158 44
1 158 44
2 158 44
3 158 44
0 159 44
1 159 44
2 159 44
3 159 44
0 160 44
1 160 44
2 160 44
3 160 44
0 161 44
1 161 44
2 161 44
3 161 44
0 162 44
1 162 44
2 162 44
3 162 44
0 163 44
1 163 44
2 163 44
3 163 44
0 164 44
1 164 44
2 164 44
3 164 44
0 165 44
1 165 44
2 165 44
3 165 44
0 166 44
1 166 44
2 166 44
3 166 44
0 167 44
1 167 44
2 167 44
3 167 44
0 168 44
1 168 44
2 168 44
3 168 44
0 169 44
1 169 44
2 169 44
3 169 44
0 170 44
1 170 44
2 170 44
3 170 44
0 171 44
1 171 44
2 171 44
3 171 44
0 172 44
1 172 44
2 172 44
3 172 44
0 173 44
1 173 44
2 173 44
3 173 44
0 174 44
1 174 44
2 174 44
3 174 44
0 175 44
1 175 44
2 175 44
3 175 44
0 176 44
1 176 44
2 176 44
3 176 44
0 177 44
1 177 44
2 177 44
3 177 44
0 178 44
1 178 44
2 178 44
3 178 44
0 179 44
1 179 44
2 179 44
3 179 44
0 180 44
1 180 44
2 180 44
3 180 44
0 181 44
1 181 44
2 181 44
3 181 44
0 182 44
1 182 44
2 182 44
3 182 44
0 183 44
1 183 44
2 183 44
3 183 44
0 184 44
1 184 44
2 184 44
3 184 44
0 185 44
1 185 44
2 185 44
3 185 44
0 186 44
1 186 44
2 186 44
3 186 44
0 187 44
1 187 44
2 187 44
3 187 44
0 188 44
1 188 44
2 188 44
3 188 44
0 189 44
1 189 44
2 189 44
3 189 44
0 190 44
1 190 44
2 190 44
3 190 44
0 191 44
1 191 44
2 191 44
3 191 44
0 192 44
1 192 44
2 192 44
3 192 44
0 193 44
1 193 44
2 193 44
3 193 44
0 194 44
1 194 44
2 194 44
3 194 44
0 195 44
1 195 44
2 195 44
3 195 44
0 196 44
1 196 44
2 196 44
3 196 44
0 197 44
1 197 44
2 197 44
3 197 44
0 198 44
1 198 44
2 198 44
3 198 44
0 199 44
1 199 44
2 199 44
3 199 44
0 132 45
1 132 45
2 132 45
3 132 45
0 133 45
1 133 45
2 133 45
3 133 45
0 134 45
1 134 45
2 134 45
3 134 45
0 135 45
1 135 45
2 135 45
3 135 45
0 136 45
1 136 45
2 136 45
3 136 45
0 137 45
1 137 45
2 137 45
3 137 45
0 138 45
1 138 45
2 138 45
3 138 45
0 139 45
1 139 45
2 139 45
3 139 45
0 140 45
1 140 45
2 140 45
3 140 45
0 141 45
1 141 45
2 141 45
3 141 45
0 142 45
1 142 45
2 142 45
3 142 45
0 143 45
1 143 45
2 143 45
3 143 45
0 144 45
1 144 45
2 144 45
3 144 45
0 145 45
1 145 45
2 145 45
3 145 45
0 146 45
1 146 45
2 146 45
3 146 45
0 147 45
1 147 45
2 147 45
3 147 45
0 148 45
1 148 45
2 148 45
3 148 45
0 149 45
1 149 45
2 149 45
3 149 45
0 150 45
1 150 45
2 150 45
3 150 45
0 151 45
1 151 45
2 151 45
3 151 45
0 152 45
1 152 45
2 152 45
3 152 45
0 153 45
1 153 45
2 153 45
3 153 45
0 154 45
1 154 45
2 154 45
3 154 45
0 155 45
1 155 45
2 155 45
3 155 45
0 156 45
1 156 45
2 156 45
3 156 45
0 157 45
1 157 45
2 157 45
3 157 45
0 158 45
1 158 45
2 158 45
3 158 45
0 159 45
1 159 45
2 159 45
3 159 45
0 160 45
1 160 45
2 160 45
3 160 45
0 161 45
1 161 45
2 161 45
3 161 45
0 162 45
1 162 45
2 162 45
3 162 45
0 163 45
1 163 45
2 163 45
3 163 45
0 164 45
1 164 45
2 164 45
3 164 45
0 165 45
1 165 45
2 165 45
3 165 45
0 166 45
1 166 45
2 166 45
3 166 45
0 167 45
1 167 45
2 167 45
3 167 45
0 168 45
1 168 45
2 168 45
3 168 45
0 169 45
1 169 45
2 169 45
3 169 45
0 170 45
1 170 45
2 170 45
3 170 45
0 171 45
1 171 45
2 171 45
3 171 45
0 172 45
1 172 45
2 172 45
3 172 45
0 173 45
1 173 45
2 173 45
3 173 45
0 174 45
1 174 45
2 174 45
3 174 45
0 175 45
1 175 45
2 175 45
3 175 45
0 176 45
1 176 45
2 176 45
3 176 45
0 177 45
1 177 45
2 177 45
3 177 45
0 178 45
1 178 45
2 178 45
3 178 45
0 179 45
1 179 45
2 179 45
3 179 45
0 180 45
1 180 45
2 180 45
3 180 45
0 181 45
1 181 45
2 181 45
3 181 45
0 182 45
1 182 45
2 182 45
3 182 45
0 183 45
1 183 45
2 183 45
3 183 45
0 184 45
1 184 45
2 184 45
3 184 45
0 185 45
1 185 45
2 185 45
3 185 45
0 186 45
1 186 45
2 186 45
3 186 45
0 187 45
1 187 45
2 187 45
3 187 45
0 188 45
1 188 45
2 188 45
3 188 45
0 189 45
1 189 45
2 189 45
3 189 45
0 190 45
1 190 45
2 190 45
3 190 45
0 191 45
1 191 45
2 191 45
3 191 45
0 192 45
1 192 45
2 192 45
3 192 45
0 193 45
1 193 45
2 193 45
3 193 45
0 194 45
1 194 45
2 194 45
3 194 45
0 195 45
1 195 45
2 195 45
3 195 45
0 196 45
1 196 45
2 196 45
3 196 45
0 197 45
1 197 45
2 197 45
3 197 45
0 198 45
1 198 45
2 198 45
3 198 45
0 199 45
1 199 45
2 199 45
3 199 45
0 132 46
1 132 46
2 132 46
3 132 46
0 133 46
1 133 46
2 133 46
3 133 46
0 134 46
1 134 46
2 134 46
3 134 46
0 135 46
1 135 46
2 135 46
3 135 46
0 136 46
1 136 46
2 136 46
3 136 46
0 137 46
1 137 46
2 137 46
3 137 46
0 138 46
1 138 46
2 138 46
3 138 46
0 139 46
1 139 46
2 139 46
3 139 46
0 140 46
1 140 46
2 140 46
3 140 46
0 141 46
1 141 46
2 141 46
3 141 46
0 142 46
1 142 46
2 142 46
3 142 46
0 143 46
1 143 46
2 143 46
3 143 46
0 144 46
1 144 46
2 144 46
3 144 46
0 145 46
1 145 46
2 145 46
3 145 46
0 146 46
1 146 46
2 146 46
3 146 46
0 147 46
1 147 46
2 147 46
3 147 46
0 148 46
1 148 46
2 148 46
3 148 46
0 149 46
1 149 46
2 149 46
3 149 46
0 150 46
1 150 46
2 150 46
3 150 46
0 151 46
1 151 46
2 151 46
3 151 46
0 152 46
1 152 46
2 152 46
3 152 46
0 153 46
1 153 46
2 153 46
3 153 46
0 154 46
1 154 46
2 154 46
3 154 46
0 155 46
1 155 46
2 155 46
3 155 46
0 156 46
1 156 46
2 156 46
3 156 46
0 157 46
1 157 46
2 157 46
3 157 46
0 158 46
1 158 46
2 158 46
3 158 46
0 159 46
1 159 46
2 159 46
3 159 46
0 160 46
1 160 46
2 160 46
3 160 46
0 161 46
1 161 46
2 161 46
3 161 46
0 162 46
1 162 46
2 162 46
3 162 46
0 163 46
1 163 46
2 163 46
3 163 46
0 164 46
1 164 46
2 164 46
3 164 46
0 165 46
1 165 46
2 165 46
3 165 46
0 166 46
1 166 46
2 166 46
3 166 46
0 167 46
1 167 46
2 167 46
3 167 46
0 168 46
1 168 46
2 168 46
3 168 46
0 169 46
1 169 46
2 169 46
3 169 46
0 170 46
1 170 46
2 170 46
3 170 46
0 171 46
1 171 46
2 171 46
3 171 46
0 172 46
1 172 46
2 172 46
3 172 46
0 173 46
1 173 46
2 173 46
3 173 46
0 174 46
1 174 46
2 174 46
3 174 46
0 175 46
1 175 46
2 175 46
3 175 46
0 176 46
1 176 46
2 176 46
3 176 46
0 177 46
1 177 46
2 177 46
3 177 46
0 178 46
1 178 46
2 178 46
3 178 46
0 179 46
1 179 46
2 179 46
3 179 46
0 180 46
1 180 46
2 180 46
3 180 46
0 181 46
1 181 46
2 181 46
3 181 46
0 182 46
1 182 46
2 182 46
3 182 46
0 183 46
1 183 46
2 183 46
3 183 46
0 184 46
1 184 46
2 184 46
3 184 46
0 185 46
1 185 46
2 185 46
3 185 46
0 186 46
1 186 46
2 186 46
3 186 46
0 187 46
1 187 46
2 187 46
3 187 46
0 188 46
1 188 46
2 188 46
3 188 46
0 189 46
1 189 46
2 189 46
3 189 46
0 190 46
1 190 46
2 190 46
3 190 46
0 191 46
1 191 46
2 191 46
3 191 46
0 192 46
1 192 46
2 192 46
3 192 46
0 193 46
1 193 46
2 193 46
3 193 46
0 194 46
1 194 46
2 194 46
3 194 46
0 195 46
1 195 46
2 195 46
3 195 46
0 196 46
1 196 46
2 196 46
3 196 46
0 197 46
1 197 46
2 197 46
3 197 46
0 198 46
1 198 46
2 198 46
3 198 46
0 199 46
1 199 46
2 199 46
3 199 46
0 132 47
1 132 47
2 132 47
3 132 47
0 133 47
1 133 47
2 133 47
3 133 47
0 134 47
1 134 47
2 134 47
3 134 47
0 135 47
1 135 47
2 135 47
3 135 47
0 136 47
1 136 47
2 136 47
3 136 47
0 137 47
1 137 47
2 137 47
3 137 47
0 138 47
1 138 47
2 138 47
3 138 47
0 139 47
1 139 47
2 139 47
3 139 47
0 140 47
1 140 47
2 140 47
3 140 47
0 141 47
1 141 47
2 141 47
3 141 47
0 142 47
1 142 47
2 142 47
3 142 47
0 143 47
1 143 47
2 143 47
3 143 47
0 144 47
1 144 47
2 144 47
3 144 47
0 145 47
1 145 47
2 145 47
3 145 47
0 146 47
1 146 47
2 146 47
3 146 47
0 147 47
1 147 47
2 147 47
3 147 47
0 148 47
1 148 47
2 148 47
3 148 47
0 149 47
1 149 47
2 149 47
3 149 47
0 150 47
1 150 47
2 150 47
3 150 47
0 151 47
1 151 47
2 151 47
3 151 47
0 152 47
1 152 47
2 152 47
3 152 47
0 153 47
1 153 47
2 153 47
3 153 47
0 154 47
1 154 47
2 154 47
3 154 47
0 155 47
1 155 47
2 155 47
3 155 47
0 156 47
1 156 47
2 156 47
3 156 47
0 157 47
1 157 47
2 157 47
3 157 47
0 158 47
1 158 47
2 158 47
3 158 47
0 159 47
1 159 47
2 159 47
3 159 47
0 160 47
1 160 47
2 160 47
3 160 47
0 161 47
1 161 47
2 161 47
3 161 47
0 162 47
1 162 47
2 162 47
3 162 47
0 163 47
1 163 47
2 163 47
3 163 47
0 164 47
1 164 47
2 164 47
3 164 47
0 165 47
1 165 47
2 165 47
3 165 47
0 166 47
1 166 47
2 166 47
3 166 47
0 167 47
1 167 47
2 167 47
3 167 47
0 168 47
1 168 47
2 168 47
3 168 47
0 169 47
1 169 47
2 169 47
3 169 47
0 170 47
1 170 47
2 170 47
3 170 47
0 171 47
1 171 47
2 171 47
3 171 47
0 172 47
1 172 47
2 172 47
3 172 47
0 173 47
1 173 47
2 173 47
3 173 47
0 174 47
1 174 47
2 174 47
3 174 47
0 175 47
1 175 47
2 175 47
3 175 47
0 176 47
1 176 47
2 176 47
3 176 47
0 177 47
1 177 47
2 177 47
3 177 47
0 178 47
1 178 47
2 178 47
3 178 47
0 179 47
1 179 47
2 179 47
3 179 47
0 180 47
1 180 47
2 180 47
3 180 47
0 181 47
1 181 47
2 181 47
3 181 47
0 182 47
1 182 47
2 182 47
3 182 47
0 183 47
1 183 47
2 183 47
3 183 47
0 184 47
1 184 47
2 184 47
3 184 47
0 185 47
1 185 47
2 185 47
3 185 47
0 186 47
1 186 47
2 186 47
3 186 47
0 187 47
1 187 47
2 187 47
3 187 47
0 188 47
1 188 47
2 188 47
3 188 47
0 189 47
1 189 47
2 189 47
3 189 47
0 190 47
1 190 47
2 190 47
3 190 47
0 191 47
1 191 47
2 191 47
3 191 47
0 192 47
1 192 47
2 192 47
3 192 47
0 193 47
1 193 47
2 193 47
3 193 47
0 194 47
1 194 47
2 194 47
3 194 47
0 195 47
1 195 47
2 195 47
3 195 47
0 196 47
1 196 47
2 196 47
3 196 47
0 197 47
1 197 47
2 197 47
3 197 47
0 198 47
1 198 47
2 198 47
3 198 47
0 199 47
1 199 47
2 199 47
3 199 47
0 132 48
1 132 48
2 132 48
3 132 48
0 133 48
1 133 48
2 133 48
3 133 48
0 134 48
1 134 48
2 134 48
3 134 48
0 135 48
1 135 48
2 135 48
3 135 48
0 136 48
1 136 48
2 136 48
3 136 48
0 137 48
1 137 48
2 137 48
3 137 48
0 138 48
1 138 48
2 138 48
3 138 48
0 139 48
1 139 48
2 139 48
3 139 48
0 140 48
1 140 48
2 140 48
3 140 48
0 141 48
1 141 48
2 141 48
3 141 48
0 142 48
1 142 48
2 142 48
3 142 48
0 143 48
1 143 48
2 143 48
3 143 48
0 144 48
1 144 48
2 144 48
3 144 48
0 145 48
1 145 48
2 145 48
3 145 48
0 146 48
1 146 48
2 146 48
3 146 48
0 147 48
1 147 48
2 147 48
3 147 48
0 148 48
1 148 48
2 148 48
3 148 48
0 149 48
1 149 48
2 149 48
3 149 48
0 150 48
1 150 48
2 150 48
3 150 48
0 151 48
1 151 48
2 151 48
3 151 48
0 152 48
1 152 48
2 152 48
3 152 48
0 153 48
1 153 48
2 153 48
3 153 48
0 154 48
1 154 48
2 154 48
3 154 48
0 155 48
1 155 48
2 155 48
3 155 48
0 156 48
1 156 48
2 156 48
3 156 48
0 157 48
1 157 48
2 157 48
3 157 48
0 158 48
1 158 48
2 158 48
3 158 48
0 159 48
1 159 48
2 159 48
3 159 48
0 160 48
1 160 48
2 160 48
3 160 48
0 161 48
1 161 48
2 161 48
3 161 48
0 162 48
1 162 48
2 162 48
3 162 48
0 163 48
1 163 48
2 163 48
3 163 48
0 164 48
1 164 48
2 164 48
3 164 48
0 165 48
1 165 48
2 165 48
3 165 48
0 166 48
1 166 48
2 166 48
3 166 48
0 167 48
1 167 48
2 167 48
3 167 48
0 168 48
1 168 48
2 168 48
3 168 48
0 169 48
1 169 48
2 169 48
3 169 48
0 170 48
1 170 48
2 170 48
3 170 48
0 171 48
1 171 48
2 171 48
3 171 48
0 172 48
1 172 48
2 172 48
3 172 48
0 173 48
1 173 48
2 173 48
3 173 48
0 174 48
1 174 48
2 174 48
3 174 48
0 175 48
1 175 48
2 175 48
3 175 48
0 176 48
1 176 48
2 176 48
3 176 48
0 177 48
1 177 48
2 177 48
3 177 48
0 178 48
1 178 48
2 178 48
3 178 48
0 179 48
1 179 48
2 179 48
3 179 48
0 180 48
1 180 48
2 180 48
3 180 48
0 181 48
1 181 48
2 181 48
3 181 48
0 182 48
1 182 48
2 182 48
3 182 48
0 183 48
1 183 48
2 183 48
3 183 48
0 184 48
1 184 48
2 184 48
3 184 48
0 185 48
1 185 48
2 185 48
3 185 48
0 186 48
1 186 48
2 186 48
3 186 48
0 187 48
1 187 48
2 187 48
3 187 48
0 188 48
1 188 48
2 188 48
3 188 48
0 189 48
1 189 48
2 189 48
3 189 48
0 190 48
1 190 48
2 190 48
3 190 48
0 191 48
1 191 48
2 191 48
3 191 48
0 192 48
1 192 48
2 192 48
3 192 48
0 193 48
1 193 48
2 193 48
3 193 48
0 194 48
1 194 48
2 194 48
3 194 48
0 195 48
1 195 48
2 195 48
3 195 48
0 196 48
1 196 48
2 196 48
3 196 48
0 197 48
1 197 48
2 197 48
3 197 48
0 198 48
1 198 48
2 198 48
3 198 48
0 199 48
1 199 48
2 199 48
3 199 48
0 132 49
1 132 49
2 132 49
3 132 49
0 133 49
1 133 49
2 133 49
3 133 49
0 134 49
1 134 49
2 134 49
3 134 49
0 135 49
1 135 49
2 135 49
3 135 49
0 136 49
1 136 49
2 136 49
3 136 49
0 137 49
1 137 49
2 137 49
3 137 49
0 138 49
1 138 49
2 138 49
3 138 49
0 139 49
1 139 49
2 139 49
3 139 49
0 140 49
1 140 49
2 140 49
3 140 49
0 141 49
1 141 49
2 141 49
3 141 49
0 142 49
1 142 49
2 142 49
3 142 49
0 143 49
1 143 49
2 143 49
3 143 49
0 144 49
1 144 49
2 144 49
3 144 49
0 145 49
1 145 49
2 145 49
3 145 49
0 146 49
1 146 49
2 146 49
3 146 49
0 147 49
1 147 49
2 147 49
3 147 49
0 148 49
1 148 49
2 148 49
3 148 49
0 149 49
1 149 49
2 149 49
3 149 49
0 150 49
1 150 49
2 150 49
3 150 49
0 151 49
1 151 49
2 151 49
3 151 49
0 152 49
1 152 49
2 152 49
3 152 49
0 153 49
1 153 49
2 153 49
3 153 49
0 154 49
1 154 49
2 154 49
3 154 49
0 155 49
1 155 49
2 155 49
3 155 49
0 156 49
1 156 49
2 156 49
3 156 49
0 157 49
1 157 49
2 157 49
3 157 49
0 158 49
1 158 49
2 158 49
3 158 49
0 159 49
1 159 49
2 159 49
3 159 49
0 160 49
1 160 49
2 160 49
3 160 49
0 161 49
1 161 49
2 161 49
3 161 49
0 162 49
1 162 49
2 162 49
3 162 49
0 163 49
1 163 49
2 163 49
3 163 49
0 164 49
1 164 49
2 164 49
3 164 49
0 165 49
1 165 49
2 165 49
3 165 49
0 166 49
1 166 49
2 166 49
3 166 49
0 167 49
1 167 49
2 167 49
3 167 49
0 168 49
1 168 49
2 168 49
3 168 49
0 169 49
1 169 49
2 169 49
3 169 49
0 170 49
1 170 49
2 170 49
3 170 49
0 171 49
1 171 49
2 171 49
3 171 49
0 172 49
1 172 49
2 172 49
3 172 49
0 173 49
1 173 49
2 173 49
3 173 49
0 174 49
1 174 49
2 174 49
3 174 49
0 175 49
1 175 49
2 175 49
3 175 49
0 176 49
1 176 49
2 176 49
3 176 49
0 177 49
1 177 49
2 177 49
3 177 49
0 178 49
1 178 49
2 178 49
3 178 49
0 179 49
1 179 49
2 179 49
3 179 49
0 180 49
1 180 49
2 180 49
3 180 49
0 181 49
1 181 49
2 181 49
3 181 49
0 182 49
1 182 49
2 182 49
3 182 49
0 183 49
1 183 49
2 183 49
3 183 49
0 184 49
1 184 49
2 184 49
3 184 49
0 185 49
1 185 49
2 185 49
3 185 49
0 186 49
1 186 49
2 186 49
3 186 49
0 187 49
1 187 49
2 187 49
3 187 49
0 188 49
1 188 49
2 188 49
3 188 49
0 189 49
1 189 49
2 189 49
3 189 49
0 190 49
1 190 49
2 190 49
3 190 49
0 191 49
1 191 49
2 191 49
3 191 49
0 192 49
1 192 49
2 192 49
3 192 49
0 193 49
1 193 49
2 193 49
3 193 49
0 194 49
1 194 49
2 194 49
3 194 49
0 195 49
1 195 49
2 195 49
3 195 49
0 196 49
1 196 49
2 196 49
3 196 49
0 197 49
1 197 49
2 197 49
3 197 49
0 198 49
1 198 49
2 198 49
3 198 49
0 199 49
1 199 49
2 199 49
3 199 49
0 132 50
1 132 50
2 132 50
3 132 50
0 133 50
1 133 50
2 133 50
3 133 50
0 134 50
1 134 50
2 134 50
3 134 50
0 135 50
1 135 50
2 135 50
3 135 50
0 136 50
1 136 50
2 136 50
3 136 50
0 137 50
1 137 50
2 137 50
3 137 50
0 138 50
1 138 50
2 138 50
3 138 50
0 139 50
1 139 50
2 139 50
3 139 50
0 140 50
1 140 50
2 140 50
3 140 50
0 141 50
1 141 50
2 141 50
3 141 50
0 142 50
1 142 50
2 142 50
3 142 50
0 143 50
1 143 50
2 143 50
3 143 50
0 144 50
1 144 50
2 144 50
3 144 50
0 145 50
1 145 50
2 145 50
3 145 50
0 146 50
1 146 50
2 146 50
3 146 50
0 147 50
1 147 50
2 147 50
3 147 50
0 148 50
1 148 50
2 148 50
3 148 50
0 149 50
1 149 50
2 149 50
3 149 50
0 150 50
1 150 50
2 150 50
3 150 50
0 151 50
1 151 50
2 151 50
3 151 50
0 152 50
1 152 50
2 152 50
3 152 50
0 153 50
1 153 50
2 153 50
3 153 50
0 154 50
1 154 50
2 154 50
3 154 50
0 155 50
1 155 50
2 155 50
3 155 50
0 156 50
1 156 50
2 156 50
3 156 50
0 157 50
1 157 50
2 157 50
3 157 50
0 158 50
1 158 50
2 158 50
3 158 50
0 159 50
1 159 50
2 159 50
3 159 50
0 160 50
1 160 50
2 160 50
3 160 50
0 161 50
1 161 50
2 161 50
3 161 50
0 162 50
1 162 50
2 162 50
3 162 50
0 163 50
1 163 50
2 163 50
3 163 50
0 164 50
1 164 50
2 164 50
3 164 50
0 165 50
1 165 50
2 165 50
3 165 50
0 166 50
1 166 50
2 166 50
3 166 50
0 167 50
1 167 50
2 167 50
3 167 50
0 168 50
1 168 50
2 168 50
3 168 50
0 169 50
1 169 50
2 169 50
3 169 50
0 170 50
1 170 50
2 170 50
3 170 50
0 171 50
1 171 50
2 171 50
3 171 50
0 172 50
1 172 50
2 172 50
3 172 50
0 173 50
1 173 50
2 173 50
3 173 50
0 174 50
1 174 50
2 174 50
3 174 50
0 175 50
1 175 50
2 175 50
3 175 50
0 176 50
1 176 50
2 176 50
3 176 50
0 177 50
1 177 50
2 177 50
3 177 50
0 178 50
1 178 50
2 178 50
3 178 50
0 179 50
1 179 50
2 179 50
3 179 50
0 180 50
1 180 50
2 180 50
3 180 50
0 181 50
1 181 50
2 181 50
3 181 50
0 182 50
1 182 50
2 182 50
3 182 50
0 183 50
1 183 50
2 183 50
3 183 50
0 184 50
1 184 50
2 184 50
3 184 50
0 185 50
1 185 50
2 185 50
3 185 50
0 186 50
1 186 50
2 186 50
3 186 50
0 187 50
1 187 50
2 187 50
3 187 50
0 188 50
1 188 50
2 188 50
3 188 50
0 189 50
1 189 50
2 189 50
3 189 50
0 190 50
1 190 50
2 190 50
3 190 50
0 191 50
1 191 50
2 191 50
3 191 50
0 192 50
1 192 50
2 192 50
3 192 50
0 193 50
1 193 50
2 193 50
3 193 50
0 194 50
1 194 50
2 194 50
3 194 50
0 195 50
1 195 50
2 195 50
3 195 50
0 196 50
1 196 50
2 196 50
3 196 50
0 197 50
1 197 50
2 197 50
3 197 50
0 198 50
1 198 50
2 198 50
3 198 50
0 199 50
1 199 50
2 199 50
3 199 50
0 132 51
1 132 51
2 132 51
3 132 51
0 133 51
1 133 51
2 133 51
3 133 51
0 134 51
1 134 51
2 134 51
3 134 51
0 135 51
1 135 51
2 135 51
3 135 51
0 136 51
1 136 51
2 136 51
3 136 51
0 137 51
1 137 51
2 137 51
3 137 51
0 138 51
1 138 51
2 138 51
3 138 51
0 139 51
1 139 51
2 139 51
3 139 51
0 140 51
1 140 51
2 140 51
3 140 51
0 141 51
1 141 51
2 141 51
3 141 51
0 142 51
1 142 51
2 142 51
3 142 51
0 143 51
1 143 51
2 143 51
3 143 51
0 144 51
1 144 51
2 144 51
3 144 51
0 145 51
1 145 51
2 145 51
3 145 51
0 146 51
1 146 51
2 146 51
3 146 51
0 147 51
1 147 51
2 147 51
3 147 51
0 148 51
1 148 51
2 148 51
3 148 51
0 149 51
1 149 51
2 149 51
3 149 51
0 150 51
1 150 51
2 150 51
3 150 51
0 151 51
1 151 51
2 151 51
3 151 51
0 152 51
1 152 51
2 152 51
3 152 51
0 153 51
1 153 51
2 153 51
3 153 51
0 154 51
1 154 51
2 154 51
3 154 51
0 155 51
1 155 51
2 155 51
3 155 51
0 156 51
1 156 51
2 156 51
3 156 51
0 157 51
1 157 51
2 157 51
3 157 51
0 158 51
1 158 51
2 158 51
3 158 51
0 159 51
1 159 51
2 159 51
3 159 51
0 160 51
1 160 51
2 160 51
3 160 51
0 161 51
1 161 51
2 161 51
3 161 51
0 162 51
1 162 51
2 162 51
3 162 51
0 163 51
1 163 51
2 163 51
3 163 51
0 164 51
1 164 51
2 164 51
3 164 51
0 165 51
1 165 51
2 165 51
3 165 51
0 166 51
1 166 51
2 166 51
3 166 51
0 167 51
1 167 51
2 167 51
3 167 51
0 168 51
1 168 51
2 168 51
3 168 51
0 169 51
1 169 51
2 169 51
3 169 51
0 170 51
1 170 51
2 170 51
3 170 51
0 171 51
1 171 51
2 171 51
3 171 51
0 172 51
1 172 51
2 172 51
3 172 51
0 173 51
1 173 51
2 173 51
3 173 51
0 174 51
1 174 51
2 174 51
3 174 51
0 175 51
1 175 51
2 175 51
3 175 51
0 176 51
1 176 51
2 176 51
3 176 51
0 177 51
1 177 51
2 177 51
3 177 51
0 178 51
1 178 51
2 178 51
3 178 51
0 179 51
1 179 51
2 179 51
3 179 51
0 180 51
1 180 51
2 180 51
3 180 51
0 181 51
1 181 51
2 181 51
3 181 51
0 182 51
1 182 51
2 182 51
3 182 51
0 183 51
1 183 51
2 183 51
3 183 51
0 184 51
1 184 51
2 184 51
3 184 51
0 185 51
1 185 51
2 185 51
3 185 51
0 186 51
1 186 51
2 186 51
3 186 51
0 187 51
1 187 51
2 187 51
3 187 51
0 188 51
1 188 51
2 188 51
3 188 51
0 189 51
1 189 51
2 189 51
3 189 51
0 190 51
1 190 51
2 190 51
3 190 51
0 191 51
1 191 51
2 191 51
3 191 51
0 192 51
1 192 51
2 192 51
3 192 51
0 193 51
1 193 51
2 193 51
3 193 51
0 194 51
1 194 51
2 194 51
3 194 51
0 195 51
1 195 51
2 195 51
3 195 51
0 196 51
1 196 51
2 196 51
3 196 51
0 197 51
1 197 51
2 197 51
3 197 51
0 198 51
1 198 51
2 198 51
3 198 51
0 199 51
1 199 51
2 199 51
3 199 51
0 132 52
1 132 52
2 132 52
3 132 52
0 133 52
1 133 52
2 133 52
3 133 52
0 134 52
1 134 52
2 134 52
3 134 52
0 135 52
1 135 52
2 135 52
3 135 52
0 136 52
1 136 52
2 136 52
3 136 52
0 137 52
1 137 52
2 137 52
3 137 52
0 138 52
1 138 52
2 138 52
3 138 52
0 139 52
1 139 52
2 139 52
3 139 52
0 140 52
1 140 52
2 140 52
3 140 52
0 141 52
1 141 52
2 141 52
3 141 52
0 142 52
1 142 52
2 142 52
3 142 52
0 143 52
1 143 52
2 143 52
3 143 52
0 144 52
1 144 52
2 144 52
3 144 52
0 145 52
1 145 52
2 145 52
3 145 52
0 146 52
1 146 52
2 146 52
3 146 52
0 147 52
1 147 52
2 147 52
3 147 52
0 148 52
1 148 52
2 148 52
3 148 52
0 149 52
1 149 52
2 149 52
3 149 52
0 150 52
1 150 52
2 150 52
3 150 52
0 151 52
1 151 52
2 151 52
3 151 52
0 152 52
1 152 52
2 152 52
3 152 52
0 153 52
1 153 52
2 153 52
3 153 52
0 154 52
1 154 52
2 154 52
3 154 52
0 155 52
1 155 52
2 155 52
3 155 52
0 156 52
1 156 52
2 156 52
3 156 52
0 157 52
1 157 52
2 157 52
3 157 52
0 158 52
1 158 52
2 158 52
3 158 52
0 159 52
1 159 52
2 159 52
3 159 52
0 160 52
1 160 52
2 160 52
3 160 52
0 161 52
1 161 52
2 161 52
3 161 52
0 162 52
1 162 52
2 162 52
3 162 52
0 163 52
1 163 52
2 163 52
3 163 52
0 164 52
1 164 52
2 164 52
3 164 52
0 165 52
1 165 52
2 165 52
3 165 52
0 166 52
1 166 52
2 166 52
3 166 52
0 167 52
1 167 52
2 167 52
3 167 52
0 168 52
1 168 52
2 168 52
3 168 52
0 169 52
1 169 52
2 169 52
3 169 52
0 170 52
1 170 52
2 170 52
3 170 52
0 171 52
1 171 52
2 171 52
3 171 52
0 172 52
1 172 52
2 172 52
3 172 52
0 173 52
1 173 52
2 173 52
3 173 52
0 174 52
1 174 52
2 174 52
3 174 52
0 175 52
1 175 52
2 175 52
3 175 52
0 176 52
1 176 52
2 176 52
3 176 52
0 177 52
1 177 52
2 177 52
3 177 52
0 178 52
1 178 52
2 178 52
3 178 52
0 179 52
1 179 52
2 179 52
3 179 52
0 180 52
1 180 52
2 180 52
3 180 52
0 181 52
1 181 52
2 181 52
3 181 52
0 182 52
1 182 52
2 182 52
3 182 52
0 183 52
1 183 52
2 183 52
3 183 52
0 184 52
1 184 52
2 184 52
3 184 52
0 185 52
1 185 52
2 185 52
3 185 52
0 186 52
1 186 52
2 186 52
3 186 52
0 187 52
1 187 52
2 187 52
3 187 52
0 188 52
1 188 52
2 188 52
3 188 52
0 189 52
1 189 52
2 189 52
3 189 52
0 190 52
1 190 52
2 190 52
3 190 52
0 191 52
1 191 52
2 191 52
3 191 52
0 192 52
1 192 52
2 192 52
3 192 52
0 193 52
1 193 52
2 193 52
3 193 52
0 194 52
1 194 52
2 194 52
3 194 52
0 195 52
1 195 52
2 195 52
3 195 52
0 196 52
1 196 52
2 196 52
3 196 52
0 197 52
1 197 52
2 197 52
3 197 52
0 198 52
1 198 52
2 198 52
3 198 52
0 199 52
1 199 52
2 199 52
3 199 52
0 132 53
1 132 53
2 132 53
3 132 53
0 133 53
1 133 53
2 133 53
3 133 53
0 134 53
1 134 53
2 134 53
3 134 53
0 135 53
1 135 53
2 135 53
3 135 53
0 136 53
1 136 53
2 136 53
3 136 53
0 137 53
1 137 53
2 137 53
3 137 53
0 138 53
1 138 53
2 138 53
3 138 53
0 139 53
1 139 53
2 139 53
3 139 53
0 140 53
1 140 53
2 140 53
3 140 53
0 141 53
1 141 53
2 141 53
3 141 53
0 142 53
1 142 53
2 142 53
3 142 53
0 143 53
1 143 53
2 143 53
3 143 53
0 144 53
1 144 53
2 144 53
3 144 53
0 145 53
1 145 53
2 145 53
3 145 53
0 146 53
1 146 53
2 146 53
3 146 53
0 147 53
1 147 53
2 147 53
3 147 53
0 148 53
1 148 53
2 148 53
3 148 53
0 149 53
1 149 53
2 149 53
3 149 53
0 150 53
1 150 53
2 150 53
3 150 53
0 151 53
1 151 53
2 151 53
3 151 53
0 152 53
1 152 53
2 152 53
3 152 53
0 153 53
1 153 53
2 153 53
3 153 53
0 154 53
1 154 53
2 154 53
3 154 53
0 155 53
1 155 53
2 155 53
3 155 53
0 156 53
1 156 53
2 156 53
3 156 53
0 157 53
1 157 53
2 157 53
3 157 53
0 158 53
1 158 53
2 158 53
3 158 53
0 159 53
1 159 53
2 159 53
3 159 53
0 160 53
1 160 53
2 160 53
3 160 53
0 161 53
1 161 53
2 161 53
3 161 53
0 162 53
1 162 53
2 162 53
3 162 53
0 163 53
1 163 53
2 163 53
3 163 53
0 164 53
1 164 53
2 164 53
3 164 53
0 165 53
1 165 53
2 165 53
3 165 53
0 166 53
1 166 53
2 166 53
3 166 53
0 167 53
1 167 53
2 167 53
3 167 53
0 168 53
1 168 53
2 168 53
3 168 53
0 169 53
1 169 53
2 169 53
3 169 53
0 170 53
1 170 53
2 170 53
3 170 53
0 171 53
1 171 53
2 171 53
3 171 53
0 172 53
1 172 53
2 172 53
3 172 53
0 173 53
1 173 53
2 173 53
3 173 53
0 174 53
1 174 53
2 174 53
3 174 53
0 175 53
1 175 53
2 175 53
3 175 53
0 176 53
1 176 53
2 176 53
3 176 53
0 177 53
1 177 53
2 177 53
3 177 53
0 178 53
1 178 53
2 178 53
3 178 53
0 179 53
1 179 53
2 179 53
3 179 53
0 180 53
1 180 53
2 180 53
3 180 53
0 181 53
1 181 53
2 181 53
3 181 53
0 182 53
1 182 53
2 182 53
3 182 53
0 183 53
1 183 53
2 183 53
3 183 53
0 184 53
1 184 53
2 184 53
3 184 53
0 185 53
1 185 53
2 185 53
3 185 53
0 186 53
1 186 53
2 186 53
3 186 53
0 187 53
1 187 53
2 187 53
3 187 53
0 188 53
1 188 53
2 188 53
3 188 53
0 189 53
1 189 53
2 189 53
3 189 53
0 190 53
1 190 53
2 190 53
3 190 53
0 191 53
1 191 53
2 191 53
3 191 53
0 192 53
1 192 53
2 192 53
3 192 53
0 193 53
1 193 53
2 193 53
3 193 53
0 194 53
1 194 53
2 194 53
3 194 53
0 195 53
1 195 53
2 195 53
3 195 53
0 196 53
1 196 53
2 196 53
3 196 53
0 197 53
1 197 53
2 197 53
3 197 53
0 198 53
1 198 53
2 198 53
3 198 53
0 199 53
1 199 53
2 199 53
3 199 53
0 132 54
1 132 54
2 132 54
3 132 54
0 133 54
1 133 54
2 133 54
3 133 54
0 134 54
1 134 54
2 134 54
3 134 54
0 135 54
1 135 54
2 135 54
3 135 54
0 136 54
1 136 54
2 136 54
3 136 54
0 137 54
1 137 54
2 137 54
3 137 54
0 138 54
1 138 54
2 138 54
3 138 54
0 139 54
1 139 54
2 139 54
3 139 54
0 140 54
1 140 54
2 140 54
3 140 54
0 141 54
1 141 54
2 141 54
3 141 54
0 142 54
1 142 54
2 142 54
3 142 54
0 143 54
1 143 54
2 143 54
3 143 54
0 144 54
1 144 54
2 144 54
3 144 54
0 145 54
1 145 54
2 145 54
3 145 54
0 146 54
1 146 54
2 146 54
3 146 54
0 147 54
1 147 54
2 147 54
3 147 54
0 148 54
1 148 54
2 148 54
3 148 54
0 149 54
1 149 54
2 149 54
3 149 54
0 150 54
1 150 54
2 150 54
3 150 54
0 151 54
1 151 54
2 151 54
3 151 54
0 152 54
1 152 54
2 152 54
3 152 54
0 153 54
1 153 54
2 153 54
3 153 54
0 154 54
1 154 54
2 154 54
3 154 54
0 155 54
1 155 54
2 155 54
3 155 54
0 156 54
1 156 54
2 156 54
3 156 54
0 157 54
1 157 54
2 157 54
3 157 54
0 158 54
1 158 54
2 158 54
3 158 54
0 159 54
1 159 54
2 159 54
3 159 54
0 160 54
1 160 54
2 160 54
3 160 54
0 161 54
1 161 54
2 161 54
3 161 54
0 162 54
1 162 54
2 162 54
3 162 54
0 163 54
1 163 54
2 163 54
3 163 54
0 164 54
1 164 54
2 164 54
3 164 54
0 165 54
1 165 54
2 165 54
3 165 54
0 166 54
1 166 54
2 166 54
3 166 54
0 167 54
1 167 54
2 167 54
3 167 54
0 168 54
1 168 54
2 168 54
3 168 54
0 169 54
1 169 54
2 169 54
3 169 54
0 170 54
1 170 54
2 170 54
3 170 54
0 171 54
1 171 54
2 171 54
3 171 54
0 172 54
1 172 54
2 172 54
3 172 54
0 173 54
1 173 54
2 173 54
3 173 54
0 174 54
1 174 54
2 174 54
3 174 54
0 175 54
1 175 54
2 175 54
3 175 54
0 176 54
1 176 54
2 176 54
3 176 54
0 177 54
1 177 54
2 177 54
3 177 54
0 178 54
1 178 54
2 178 54
3 178 54
0 179 54
1 179 54
2 179 54
3 179 54
0 180 54
1 180 54
2 180 54
3 180 54
0 181 54
1 181 54
2 181 54
3 181 54
0 182 54
1 182 54
2 182 54
3 182 54
0 183 54
1 183 54
2 183 54
3 183 54
0 184 54
1 184 54
2 184 54
3 184 54
0 185 54
1 185 54
2 185 54
3 185 54
0 186 54
1 186 54
2 186 54
3 186 54
0 187 54
1 187 54
2 187 54
3 187 54
0 188 54
1 188 54
2 188 54
3 188 54
0 189 54
1 189 54
2 189 54
3 189 54
0 190 54
1 190 54
2 190 54
3 190 54
0 191 54
1 191 54
2 191 54
3 191 54
0 192 54
1 192 54
2 192 54
3 192 54
0 193 54
1 193 54
2 193 54
3 193 54
0 194 54
1 194 54
2 194 54
3 194 54
0 195 54
1 195 54
2 195 54
3 195 54
0 196 54
1 196 54
2 196 54
3 196 54
0 197 54
1 197 54
2 197 54
3 197 54
0 198 54
1 198 54
2 198 54
3 198 54
0 199 54
1 199 54
2 199 54
3 199 54
0 132 55
1 132 55
2 132 55
3 132 55
0 133 55
1 133 55
2 133 55
3 133 55
0 134 55
1 134 55
2 134 55
3 134 55
0 135 55
1 135 55
2 135 55
3 135 55
0 136 55
1 136 55
2 136 55
3 136 55
0 137 55
1 137 55
2 137 55
3 137 55
0 138 55
1 138 55
2 138 55
3 138 55
0 139 55
1 139 55
2 139 55
3 139 55
0 140 55
1 140 55
2 140 55
3 140 55
0 141 55
1 141 55
2 141 55
3 141 55
0 142 55
1 142 55
2 142 55
3 142 55
0 143 55
1 143 55
2 143 55
3 143 55
0 144 55
1 144 55
2 144 55
3 144 55
0 145 55
1 145 55
2 145 55
3 145 55
0 146 55
1 146 55
2 146 55
3 146 55
0 147 55
1 147 55
2 147 55
3 147 55
0 148 55
1 148 55
2 148 55
3 148 55
0 149 55
1 149 55
2 149 55
3 149 55
0 150 55
1 150 55
2 150 55
3 150 55
0 151 55
1 151 55
2 151 55
3 151 55
0 152 55
1 152 55
2 152 55
3 152 55
0 153 55
1 153 55
2 153 55
3 153 55
0 154 55
1 154 55
2 154 55
3 154 55
0 155 55
1 155 55
2 155 55
3 155 55
0 156 55
1 156 55
2 156 55
3 156 55
0 157 55
1 157 55
2 157 55
3 157 55
0 158 55
1 158 55
2 158 55
3 158 55
0 159 55
1 159 55
2 159 55
3 159 55
0 160 55
1 160 55
2 160 55
3 160 55
0 161 55
1 161 55
2 161 55
3 161 55
0 162 55
1 162 55
2 162 55
3 162 55
0 163 55
1 163 55
2 163 55
3 163 55
0 164 55
1 164 55
2 164 55
3 164 55
0 165 55
1 165 55
2 165 55
3 165 55
0 166 55
1 166 55
2 166 55
3 166 55
0 167 55
1 167 55
2 167 55
3 167 55
0 168 55
1 168 55
2 168 55
3 168 55
0 169 55
1 169 55
2 169 55
3 169 55
0 170 55
1 170 55
2 170 55
3 170 55
0 171 55
1 171 55
2 171 55
3 171 55
0 172 55
1 172 55
2 172 55
3 172 55
0 173 55
1 173 55
2 173 55
3 173 55
0 174 55
1 174 55
2 174 55
3 174 55
0 175 55
1 175 55
2 175 55
3 175 55
0 176 55
1 176 55
2 176 55
3 176 55
0 177 55
1 177 55
2 177 55
3 177 55
0 178 55
1 178 55
2 178 55
3 178 55
0 179 55
1 179 55
2 179 55
3 179 55
0 180 55
1 180 55
2 180 55
3 180 55
0 181 55
1 181 55
2 181 55
3 181 55
0 182 55
1 182 55
2 182 55
3 182 55
0 183 55
1 183 55
2 183 55
3 183 55
0 184 55
1 184 55
2 184 55
3 184 55
0 185 55
1 185 55
2 185 55
3 185 55
0 186 55
1 186 55
2 186 55
3 186 55
0 187 55
1 187 55
2 187 55
3 187 55
0 188 55
1 188 55
2 188 55
3 188 55
0 189 55
1 189 55
2 189 55
3 189 55
0 190 55
1 190 55
2 190 55
3 190 55
0 191 55
1 191 55
2 191 55
3 191 55
0 192 55
1 192 55
2 192 55
3 192 55
0 193 55
1 193 55
2 193 55
3 193 55
0 194 55
1 194 55
2 194 55
3 194 55
0 195 55
1 195 55
2 195 55
3 195 55
0 196 55
1 196 55
2 196 55
3 196 55
0 197 55
1 197 55
2 197 55
3 197 55
0 198 55
1 198 55
2 198 55
3 198 55
0 199 55
1 199 55
2 199 55
3 199 55
0 132 56
1 132 56
2 132 56
3 132 56
0 133 56
1 133 56
2 133 56
3 133 56
0 134 56
1 134 56
2 134 56
3 134 56
0 135 56
1 135 56
2 135 56
3 135 56
0 136 56
1 136 56
2 136 56
3 136 56
0 137 56
1 137 56
2 137 56
3 137 56
0 138 56
1 138 56
2 138 56
3 138 56
0 139 56
1 139 56
2 139 56
3 139 56
0 140 56
1 140 56
2 140 56
3 140 56
0 141 56
1 141 56
2 141 56
3 141 56
0 142 56
1 142 56
2 142 56
3 142 56
0 143 56
1 143 56
2 143 56
3 143 56
0 144 56
1 144 56
2 144 56
3 144 56
0 145 56
1 145 56
2 145 56
3 145 56
0 146 56
1 146 56
2 146 56
3 146 56
0 147 56
1 147 56
2 147 56
3 147 56
0 148 56
1 148 56
2 148 56
3 148 56
0 149 56
1 149 56
2 149 56
3 149 56
0 150 56
1 150 56
2 150 56
3 150 56
0 151 56
1 151 56
2 151 56
3 151 56
0 152 56
1 152 56
2 152 56
3 152 56
0 153 56
1 153 56
2 153 56
3 153 56
0 154 56
1 154 56
2 154 56
3 154 56
0 155 56
1 155 56
2 155 56
3 155 56
0 156 56
1 156 56
2 156 56
3 156 56
0 157 56
1 157 56
2 157 56
3 157 56
0 158 56
1 158 56
2 158 56
3 158 56
0 159 56
1 159 56
2 159 56
3 159 56
0 160 56
1 160 56
2 160 56
3 160 56
0 161 56
1 161 56
2 161 56
3 161 56
0 162 56
1 162 56
2 162 56
3 162 56
0 163 56
1 163 56
2 163 56
3 163 56
0 164 56
1 164 56
2 164 56
3 164 56
0 165 56
1 165 56
2 165 56
3 165 56
0 166 56
1 166 56
2 166 56
3 166 56
0 167 56
1 167 56
2 167 56
3 167 56
0 168 56
1 168 56
2 168 56
3 168 56
0 169 56
1 169 56
2 169 56
3 169 56
0 170 56
1 170 56
2 170 56
3 170 56
0 171 56
1 171 56
2 171 56
3 171 56
0 172 56
1 172 56
2 172 56
3 172 56
0 173 56
1 173 56
2 173 56
3 173 56
0 174 56
1 174 56
2 174 56
3 174 56
0 175 56
1 175 56
2 175 56
3 175 56
0 176 56
1 176 56
2 176 56
3 176 56
0 177 56
1 177 56
2 177 56
3 177 56
0 178 56
1 178 56
2 178 56
3 178 56
0 179 56
1 179 56
2 179 56
3 179 56
0 180 56
1 180 56
2 180 56
3 180 56
0 181 56
1 181 56
2 181 56
3 181 56
0 182 56
1 182 56
2 182 56
3 182 56
0 183 56
1 183 56
2 183 56
3 183 56
0 184 56
1 184 56
2 184 56
3 184 56
0 185 56
1 185 56
2 185 56
3 185 56
0 186 56
1 186 56
2 186 56
3 186 56
0 187 56
1 187 56
2 187 56
3 187 56
0 188 56
1 188 56
2 188 56
3 188 56
0 189 56
1 189 56
2 189 56
3 189 56
0 190 56
1 190 56
2 190 56
3 190 56
0 191 56
1 191 56
2 191 56
3 191 56
0 192 56
1 192 56
2 192 56
3 192 56
0 193 56
1 193 56
2 193 56
3 193 56
0 194 56
1 194 56
2 194 56
3 194 56
0 195 56
1 195 56
2 195 56
3 195 56
0 196 56
1 196 56
2 196 56
3 196 56
0 197 56
1 197 56
2 197 56
3 197 56
0 198 56
1 198 56
2 198 56
3 198 56
0 199 56
1 199 56
2 199 56
3 199 56
0 132 57
1 132 57
2 132 57
3 132 57
0 133 57
1 133 57
2 133 57
3 133 57
0 134 57
1 134 57
2 134 57
3 134 57
0 135 57
1 135 57
2 135 57
3 135 57
0 136 57
1 136 57
2 136 57
3 136 57
0 137 57
1 137 57
2 137 57
3 137 57
0 138 57
1 138 57
2 138 57
3 138 57
0 139 57
1 139 57
2 139 57
3 139 57
0 140 57
1 140 57
2 140 57
3 140 57
0 141 57
1 141 57
2 141 57
3 141 57
0 142 57
1 142 57
2 142 57
3 142 57
0 143 57
1 143 57
2 143 57
3 143 57
0 144 57
1 144 57
2 144 57
3 144 57
0 145 57
1 145 57
2 145 57
3 145 57
0 146 57
1 146 57
2 146 57
3 146 57
0 147 57
1 147 57
2 147 57
3 147 57
0 148 57
1 148 57
2 148 57
3 148 57
0 149 57
1 149 57
2 149 57
3 149 57
0 150 57
1 150 57
2 150 57
3 150 57
0 151 57
1 151 57
2 151 57
3 151 57
0 152 57
1 152 57
2 152 57
3 152 57
0 153 57
1 153 57
2 153 57
3 153 57
0 154 57
1 154 57
2 154 57
3 154 57
0 155 57
1 155 57
2 155 57
3 155 57
0 156 57
1 156 57
2 156 57
3 156 57
0 157 57
1 157 57
2 157 57
3 157 57
0 158 57
1 158 57
2 158 57
3 158 57
0 159 57
1 159 57
2 159 57
3 159 57
0 160 57
1 160 57
2 160 57
3 160 57
0 161 57
1 161 57
2 161 57
3 161 57
0 162 57
1 162 57
2 162 57
3 162 57
0 163 57
1 163 57
2 163 57
3 163 57
0 164 57
1 164 57
2 164 57
3 164 57
0 165 57
1 165 57
2 165 57
3 165 57
0 166 57
1 166 57
2 166 57
3 166 57
0 167 57
1 167 57
2 167 57
3 167 57
0 168 57
1 168 57
2 168 57
3 168 57
0 169 57
1 169 57
2 169 57
3 169 57
0 170 57
1 170 57
2 170 57
3 170 57
0 171 57
1 171 57
2 171 57
3 171 57
0 172 57
1 172 57
2 172 57
3 172 57
0 173 57
1 173 57
2 173 57
3 173 57
0 174 57
1 174 57
2 174 57
3 174 57
0 175 57
1 175 57
2 175 57
3 175 57
0 176 57
1 176 57
2 176 57
3 176 57
0 177 57
1 177 57
2 177 57
3 177 57
0 178 57
1 178 57
2 178 57
3 178 57
0 179 57
1 179 57
2 179 57
3 179 57
0 180 57
1 180 57
2 180 57
3 180 57
0 181 57
1 181 57
2 181 57
3 181 57
0 182 57
1 182 57
2 182 57
3 182 57
0 183 57
1 183 57
2 183 57
3 183 57
0 184 57
1 184 57
2 184 57
3 184 57
0 185 57
1 185 57
2 185 57
3 185 57
0 186 57
1 186 57
2 186 57
3 186 57
0 187 57
1 187 57
2 187 57
3 187 57
0 188 57
1 188 57
2 188 57
3 188 57
0 189 57
1 189 57
2 189 57
3 189 57
0 190 57
1 190 57
2 190 57
3 190 57
0 191 57
1 191 57
2 191 57
3 191 57
0 192 57
1 192 57
2 192 57
3 192 57
0 193 57
1 193 57
2 193 57
3 193 57
0 194 57
1 194 57
2 194 57
3 194 57
0 195 57
1 195 57
2 195 57
3 195 57
0 196 57
1 196 57
2 196 57
3 196 57
0 197 57
1 197 57
2 197 57
3 197 57
0 198 57
1 198 57
2 198 57
3 198 57
0 199 57
1 199 57
2 199 57
3 199 57
0 132 58
1 132 58
2 132 58
3 132 58
0 133 58
1 133 58
2 133 58
3 133 58
0 134 58
1 134 58
2 134 58
3 134 58
0 135 58
1 135 58
2 135 58
3 135 58
0 136 58
1 136 58
2 136 58
3 136 58
0 137 58
1 137 58
2 137 58
3 137 58
0 138 58
1 138 58
2 138 58
3 138 58
0 139 58
1 139 58
2 139 58
3 139 58
0 140 58
1 140 58
2 140 58
3 140 58
0 141 58
1 141 58
2 141 58
3 141 58
0 142 58
1 142 58
2 142 58
3 142 58
0 143 58
1 143 58
2 143 58
3 143 58
0 144 58
1 144 58
2 144 58
3 144 58
0 145 58
1 145 58
2 145 58
3 145 58
0 146 58
1 146 58
2 146 58
3 146 58
0 147 58
1 147 58
2 147 58
3 147 58
0 148 58
1 148 58
2 148 58
3 148 58
0 149 58
1 149 58
2 149 58
3 149 58
0 150 58
1 150 58
2 150 58
3 150 58
0 151 58
1 151 58
2 151 58
3 151 58
0 152 58
1 152 58
2 152 58
3 152 58
0 153 58
1 153 58
2 153 58
3 153 58
0 154 58
1 154 58
2 154 58
3 154 58
0 155 58
1 155 58
2 155 58
3 155 58
0 156 58
1 156 58
2 156 58
3 156 58
0 157 58
1 157 58
2 157 58
3 157 58
0 158 58
1 158 58
2 158 58
3 158 58
0 159 58
1 159 58
2 159 58
3 159 58
0 160 58
1 160 58
2 160 58
3 160 58
0 161 58
1 161 58
2 161 58
3 161 58
0 162 58
1 162 58
2 162 58
3 162 58
0 163 58
1 163 58
2 163 58
3 163 58
0 164 58
1 164 58
2 164 58
3 164 58
0 165 58
1 165 58
2 165 58
3 165 58
0 166 58
1 166 58
2 166 58
3 166 58
0 167 58
1 167 58
2 167 58
3 167 58
0 168 58
1 168 58
2 168 58
3 168 58
0 169 58
1 169 58
2 169 58
3 169 58
0 170 58
1 170 58
2 170 58
3 170 58
0 171 58
1 171 58
2 171 58
3 171 58
0 172 58
1 172 58
2 172 58
3 172 58
0 173 58
1 173 58
2 173 58
3 173 58
0 174 58
1 174 58
2 174 58
3 174 58
0 175 58
1 175 58
2 175 58
3 175 58
0 176 58
1 176 58
2 176 58
3 176 58
0 177 58
1 177 58
2 177 58
3 177 58
0 178 58
1 178 58
2 178 58
3 178 58
0 179 58
1 179 58
2 179 58
3 179 58
0 180 58
1 180 58
2 180 58
3 180 58
0 181 58
1 181 58
2 181 58
3 181 58
0 182 58
1 182 58
2 182 58
3 182 58
0 183 58
1 183 58
2 183 58
3 183 58
0 184 58
1 184 58
2 184 58
3 184 58
0 185 58
1 185 58
2 185 58
3 185 58
0 186 58
1 186 58
2 186 58
3 186 58
0 187 58
1 187 58
2 187 58
3 187 58
0 188 58
1 188 58
2 188 58
3 188 58
0 189 58
1 189 58
2 189 58
3 189 58
0 190 58
1 190 58
2 190 58
3 190 58
0 191 58
1 191 58
2 191 58
3 191 58
0 192 58
1 192 58
2 192 58
3 192 58
0 193 58
1 193 58
2 193 58
3 193 58
0 194 58
1 194 58
2 194 58
3 194 58
0 195 58
1 195 58
2 195 58
3 195 58
0 196 58
1 196 58
2 196 58
3 196 58
0 197 58
1 197 58
2 197 58
3 197 58
0 198 58
1 198 58
2 198 58
3 198 58
0 199 58
1 199 58
2 199 58
3 199 58
0 132 59
1 132 59
2 132 59
3 132 59
0 133 59
1 133 59
2 133 59
3 133 59
0 134 59
1 134 59
2 134 59
3 134 59
0 135 59
1 135 59
2 135 59
3 135 59
0 136 59
1 136 59
2 136 59
3 136 59
0 137 59
1 137 59
2 137 59
3 137 59
0 138 59
1 138 59
2 138 59
3 138 59
0 139 59
1 139 59
2 139 59
3 139 59
0 140 59
1 140 59
2 140 59
3 140 59
0 141 59
1 141 59
2 141 59
3 141 59
0 142 59
1 142 59
2 142 59
3 142 59
0 143 59
1 143 59
2 143 59
3 143 59
0 144 59
1 144 59
2 144 59
3 144 59
0 145 59
1 145 59
2 145 59
3 145 59
0 146 59
1 146 59
2 146 59
3 146 59
0 147 59
1 147 59
2 147 59
3 147 59
0 148 59
1 148 59
2 148 59
3 148 59
0 149 59
1 149 59
2 149 59
3 149 59
0 150 59
1 150 59
2 150 59
3 150 59
0 151 59
1 151 59
2 151 59
3 151 59
0 152 59
1 152 59
2 152 59
3 152 59
0 153 59
1 153 59
2 153 59
3 153 59
0 154 59
1 154 59
2 154 59
3 154 59
0 155 59
1 155 59
2 155 59
3 155 59
0 156 59
1 156 59
2 156 59
3 156 59
0 157 59
1 157 59
2 157 59
3 157 59
0 158 59
1 158 59
2 158 59
3 158 59
0 159 59
1 159 59
2 159 59
3 159 59
0 160 59
1 160 59
2 160 59
3 160 59
0 161 59
1 161 59
2 161 59
3 161 59
0 162 59
1 162 59
2 162 59
3 162 59
0 163 59
1 163 59
2 163 59
3 163 59
0 164 59
1 164 59
2 164 59
3 164 59
0 165 59
1 165 59
2 165 59
3 165 59
0 166 59
1 166 59
2 166 59
3 166 59
0 167 59
1 167 59
2 167 59
3 167 59
0 168 59
1 168 59
2 168 59
3 168 59
0 169 59
1 169 59
2 169 59
3 169 59
0 170 59
1 170 59
2 170 59
3 170 59
0 171 59
1 171 59
2 171 59
3 171 59
0 172 59
1 172 59
2 172 59
3 172 59
0 173 59
1 173 59
2 173 59
3 173 59
0 174 59
1 174 59
2 174 59
3 174 59
0 175 59
1 175 59
2 175 59
3 175 59
0 176 59
1 176 59
2 176 59
3 176 59
0 177 59
1 177 59
2 177 59
3 177 59
0 178 59
1 178 59
2 178 59
3 178 59
0 179 59
1 179 59
2 179 59
3 179 59
0 180 59
1 180 59
2 180 59
3 180 59
0 181 59
1 181 59
2 181 59
3 181 59
0 182 59
1 182 59
2 182 59
3 182 59
0 183 59
1 183 59
2 183 59
3 183 59
0 184 59
1 184 59
2 184 59
3 184 59
0 185 59
1 185 59
2 185 59
3 185 59
0 186 59
1 186 59
2 186 59
3 186 59
0 187 59
1 187 59
2 187 59
3 187 59
0 188 59
1 188 59
2 188 59
3 188 59
0 189 59
1 189 59
2 189 59
3 189 59
0 190 59
1 190 59
2 190 59
3 190 59
0 191 59
1 191 59
2 191 59
3 191 59
0 192 59
1 192 59
2 192 59
3 192 59
0 193 59
1 193 59
2 193 59
3 193 59
0 194 59
1 194 59
2 194 59
3 194 59
0 195 59
1 195 59
2 195 59
3 195 59
0 196 59
1 196 59
2 196 59
3 196 59
0 197 59
1 197 59
2 197 59
3 197 59
0 198 59
1 198 59
2 198 59
3 198 59
0 199 59
1 199 59
2 199 59
3 199 59
0 132 60
1 132 60
2 132 60
3 132 60
0 133 60
1 133 60
2 133 60
3 133 60
0 134 60
1 134 60
2 134 60
3 134 60
0 135 60
1 135 60
2 135 60
3 135 60
0 136 60
1 136 60
2 136 60
3 136 60
0 137 60
1 137 60
2 137 60
3 137 60
0 138 60
1 138 60
2 138 60
3 138 60
0 139 60
1 139 60
2 139 60
3 139 60
0 140 60
1 140 60
2 140 60
3 140 60
0 141 60
1 141 60
2 141 60
3 141 60
0 142 60
1 142 60
2 142 60
3 142 60
0 143 60
1 143 60
2 143 60
3 143 60
0 144 60
1 144 60
2 144 60
3 144 60
0 145 60
1 145 60
2 145 60
3 145 60
0 146 60
1 146 60
2 146 60
3 146 60
0 147 60
1 147 60
2 147 60
3 147 60
0 148 60
1 148 60
2 148 60
3 148 60
0 149 60
1 149 60
2 149 60
3 149 60
0 150 60
1 150 60
2 150 60
3 150 60
0 151 60
1 151 60
2 151 60
3 151 60
0 152 60
1 152 60
2 152 60
3 152 60
0 153 60
1 153 60
2 153 60
3 153 60
0 154 60
1 154 60
2 154 60
3 154 60
0 155 60
1 155 60
2 155 60
3 155 60
0 156 60
1 156 60
2 156 60
3 156 60
0 157 60
1 157 60
2 157 60
3 157 60
0 158 60
1 158 60
2 158 60
3 158 60
0 159 60
1 159 60
2 159 60
3 159 60
0 160 60
1 160 60
2 160 60
3 160 60
0 161 60
1 161 60
2 161 60
3 161 60
0 162 60
1 162 60
2 162 60
3 162 60
0 163 60
1 163 60
2 163 60
3 163 60
0 164 60
1 164 60
2 164 60
3 164 60
0 165 60
1 165 60
2 165 60
3 165 60
0 166 60
1 166 60
2 166 60
3 166 60
0 167 60
1 167 60
2 167 60
3 167 60
0 168 60
1 168 60
2 168 60
3 168 60
0 169 60
1 169 60
2 169 60
3 169 60
0 170 60
1 170 60
2 170 60
3 170 60
0 171 60
1 171 60
2 171 60
3 171 60
0 172 60
1 172 60
2 172 60
3 172 60
0 173 60
1 173 60
2 173 60
3 173 60
0 174 60
1 174 60
2 174 60
3 174 60
0 175 60
1 175 60
2 175 60
3 175 60
0 176 60
1 176 60
2 176 60
3 176 60
0 177 60
1 177 60
2 177 60
3 177 60
0 178 60
1 178 60
2 178 60
3 178 60
0 179 60
1 179 60
2 179 60
3 179 60
0 180 60
1 180 60
2 180 60
3 180 60
0 181 60
1 181 60
2 181 60
3 181 60
0 182 60
1 182 60
2 182 60
3 182 60
0 183 60
1 183 60
2 183 60
3 183 60
0 184 60
1 184 60
2 184 60
3 184 60
0 185 60
1 185 60
2 185 60
3 185 60
0 186 60
1 186 60
2 186 60
3 186 60
0 187 60
1 187 60
2 187 60
3 187 60
0 188 60
1 188 60
2 188 60
3 188 60
0 189 60
1 189 60
2 189 60
3 189 60
0 190 60
1 190 60
2 190 60
3 190 60
0 191 60
1 191 60
2 191 60
3 191 60
0 192 60
1 192 60
2 192 60
3 192 60
0 193 60
1 193 60
2 193 60
3 193 60
0 194 60
1 194 60
2 194 60
3 194 60
0 195 60
1 195 60
2 195 60
3 195 60
0 196 60
1 196 60
2 196 60
3 196 60
0 197 60
1 197 60
2 197 60
3 197 60
0 198 60
1 198 60
2 198 60
3 198 60
0 199 60
1 199 60
2 199 60
3 199 60
0 132 61
1 132 61
2 132 61
3 132 61
0 133 61
1 133 61
2 133 61
3 133 61
0 134 61
1 134 61
2 134 61
3 134 61
0 135 61
1 135 61
2 135 61
3 135 61
0 136 61
1 136 61
2 136 61
3 136 61
0 137 61
1 137 61
2 137 61
3 137 61
0 138 61
1 138 61
2 138 61
3 138 61
0 139 61
1 139 61
2 139 61
3 139 61
0 140 61
1 140 61
2 140 61
3 140 61
0 141 61
1 141 61
2 141 61
3 141 61
0 142 61
1 142 61
2 142 61
3 142 61
0 143 61
1 143 61
2 143 61
3 143 61
0 144 61
1 144 61
2 144 61
3 144 61
0 145 61
1 145 61
2 145 61
3 145 61
0 146 61
1 146 61
2 146 61
3 146 61
0 147 61
1 147 61
2 147 61
3 147 61
0 148 61
1 148 61
2 148 61
3 148 61
0 149 61
1 149 61
2 149 61
3 149 61
0 150 61
1 150 61
2 150 61
3 150 61
0 151 61
1 151 61
2 151 61
3 151 61
0 152 61
1 152 61
2 152 61
3 152 61
0 153 61
1 153 61
2 153 61
3 153 61
0 154 61
1 154 61
2 154 61
3 154 61
0 155 61
1 155 61
2 155 61
3 155 61
0 156 61
1 156 61
2 156 61
3 156 61
0 157 61
1 157 61
2 157 61
3 157 61
0 158 61
1 158 61
2 158 61
3 158 61
0 159 61
1 159 61
2 159 61
3 159 61
0 160 61
1 160 61
2 160 61
3 160 61
0 161 61
1 161 61
2 161 61
3 161 61
0 162 61
1 162 61
2 162 61
3 162 61
0 163 61
1 163 61
2 163 61
3 163 61
0 164 61
1 164 61
2 164 61
3 164 61
0 165 61
1 165 61
2 165 61
3 165 61
0 166 61
1 166 61
2 166 61
3 166 61
0 167 61
1 167 61
2 167 61
3 167 61
0 168 61
1 168 61
2 168 61
3 168 61
0 169 61
1 169 61
2 169 61
3 169 61
0 170 61
1 170 61
2 170 61
3 170 61
0 171 61
1 171 61
2 171 61
3 171 61
0 172 61
1 172 61
2 172 61
3 172 61
0 173 61
1 173 61
2 173 61
3 173 61
0 174 61
1 174 61
2 174 61
3 174 61
0 175 61
1 175 61
2 175 61
3 175 61
0 176 61
1 176 61
2 176 61
3 176 61
0 177 61
1 177 61
2 177 61
3 177 61
0 178 61
1 178 61
2 178 61
3 178 61
0 179 61
1 179 61
2 179 61
3 179 61
0 180 61
1 180 61
2 180 61
3 180 61
0 181 61
1 181 61
2 181 61
3 181 61
0 182 61
1 182 61
2 182 61
3 182 61
0 183 61
1 183 61
2 183 61
3 183 61
0 184 61
1 184 61
2 184 61
3 184 61
0 185 61
1 185 61
2 185 61
3 185 61
0 186 61
1 186 61
2 186 61
3 186 61
0 187 61
1 187 61
2 187 61
3 187 61
0 188 61
1 188 61
2 188 61
3 188 61
0 189 61
1 189 61
2 189 61
3 189 61
0 190 61
1 190 61
2 190 61
3 190 61
0 191 61
1 191 61
2 191 61
3 191 61
0 192 61
1 192 61
2 192 61
3 192 61
0 193 61
1 193 61
2 193 61
3 193 61
0 194 61
1 194 61
2 194 61
3 194 61
0 195 61
1 195 61
2 195 61
3 195 61
0 196 61
1 196 61
2 196 61
3 196 61
0 197 61
1 197 61
2 197 61
3 197 61
0 198 61
1 198 61
2 198 61
3 198 61
0 199 61
1 199 61
2 199 61
3 199 61
0 132 62
1 132 62
2 132 62
3 132 62
0 133 62
1 133 62
2 133 62
3 133 62
0 134 62
1 134 62
2 134 62
3 134 62
0 135 62
1 135 62
2 135 62
3 135 62
0 136 62
1 136 62
2 136 62
3 136 62
0 137 62
1 137 62
2 137 62
3 137 62
0 138 62
1 138 62
2 138 62
3 138 62
0 139 62
1 139 62
2 139 62
3 139 62
0 140 62
1 140 62
2 140 62
3 140 62
0 141 62
1 141 62
2 141 62
3 141 62
0 142 62
1 142 62
2 142 62
3 142 62
0 143 62
1 143 62
2 143 62
3 143 62
0 144 62
1 144 62
2 144 62
3 144 62
0 145 62
1 145 62
2 145 62
3 145 62
0 146 62
1 146 62
2 146 62
3 146 62
0 147 62
1 147 62
2 147 62
3 147 62
0 148 62
1 148 62
2 148 62
3 148 62
0 149 62
1 149 62
2 149 62
3 149 62
0 150 62
1 150 62
2 150 62
3 150 62
0 151 62
1 151 62
2 151 62
3 151 62
0 152 62
1 152 62
2 152 62
3 152 62
0 153 62
1 153 62
2 153 62
3 153 62
0 154 62
1 154 62
2 154 62
3 154 62
0 155 62
1 155 62
2 155 62
3 155 62
0 156 62
1 156 62
2 156 62
3 156 62
0 157 62
1 157 62
2 157 62
3 157 62
0 158 62
1 158 62
2 158 62
3 158 62
0 159 62
1 159 62
2 159 62
3 159 62
0 160 62
1 160 62
2 160 62
3 160 62
0 161 62
1 161 62
2 161 62
3 161 62
0 162 62
1 162 62
2 162 62
3 162 62
0 163 62
1 163 62
2 163 62
3 163 62
0 164 62
1 164 62
2 164 62
3 164 62
0 165 62
1 165 62
2 165 62
3 165 62
0 166 62
1 166 62
2 166 62
3 166 62
0 167 62
1 167 62
2 167 62
3 167 62
0 168 62
1 168 62
2 168 62
3 168 62
0 169 62
1 169 62
2 169 62
3 169 62
0 170 62
1 170 62
2 170 62
3 170 62
0 171 62
1 171 62
2 171 62
3 171 62
0 172 62
1 172 62
2 172 62
3 172 62
0 173 62
1 173 62
2 173 62
3 173 62
0 174 62
1 174 62
2 174 62
3 174 62
0 175 62
1 175 62
2 175 62
3 175 62
0 176 62
1 176 62
2 176 62
3 176 62
0 177 62
1 177 62
2 177 62
3 177 62
0 178 62
1 178 62
2 178 62
3 178 62
0 179 62
1 179 62
2 179 62
3 179 62
0 180 62
1 180 62
2 180 62
3 180 62
0 181 62
1 181 62
2 181 62
3 181 62
0 182 62
1 182 62
2 182 62
3 182 62
0 183 62
1 183 62
2 183 62
3 183 62
0 184 62
1 184 62
2 184 62
3 184 62
0 185 62
1 185 62
2 185 62
3 185 62
0 186 62
1 186 62
2 186 62
3 186 62
0 187 62
1 187 62
2 187 62
3 187 62
0 188 62
1 188 62
2 188 62
3 188 62
0 189 62
1 189 62
2 189 62
3 189 62
0 190 62
1 190 62
2 190 62
3 190 62
0 191 62
1 191 62
2 191 62
3 191 62
0 192 62
1 192 62
2 192 62
3 192 62
0 193 62
1 193 62
2 193 62
3 193 62
0 194 62
1 194 62
2 194 62
3 194 62
0 195 62
1 195 62
2 195 62
3 195 62
0 196 62
1 196 62
2 196 62
3 196 62
0 197 62
1 197 62
2 197 62
3 197 62
0 198 62
1 198 62
2 198 62
3 198 62
0 199 62
1 199 62
2 199 62
3 199 62
0 132 63
1 132 63
2 132 63
3 132 63
0 133 63
1 133 63
2 133 63
3 133 63
0 134 63
1 134 63
2 134 63
3 134 63
0 135 63
1 135 63
2 135 63
3 135 63
0 136 63
1 136 63
2 136 63
3 136 63
0 137 63
1 137 63
2 137 63
3 137 63
0 138 63
1 138 63
2 138 63
3 138 63
0 139 63
1 139 63
2 139 63
3 139 63
0 140 63
1 140 63
2 140 63
3 140 63
0 141 63
1 141 63
2 141 63
3 141 63
0 142 63
1 142 63
2 142 63
3 142 63
0 143 63
1 143 63
2 143 63
3 143 63
0 144 63
1 144 63
2 144 63
3 144 63
0 145 63
1 145 63
2 145 63
3 145 63
0 146 63
1 146 63
2 146 63
3 146 63
0 147 63
1 147 63
2 147 63
3 147 63
0 148 63
1 148 63
2 148 63
3 148 63
0 149 63
1 149 63
2 149 63
3 149 63
0 150 63
1 150 63
2 150 63
3 150 63
0 151 63
1 151 63
2 151 63
3 151 63
0 152 63
1 152 63
2 152 63
3 152 63
0 153 63
1 153 63
2 153 63
3 153 63
0 154 63
1 154 63
2 154 63
3 154 63
0 155 63
1 155 63
2 155 63
3 155 63
0 156 63
1 156 63
2 156 63
3 156 63
0 157 63
1 157 63
2 157 63
3 157 63
0 158 63
1 158 63
2 158 63
3 158 63
0 159 63
1 159 63
2 159 63
3 159 63
0 160 63
1 160 63
2 160 63
3 160 63
0 161 63
1 161 63
2 161 63
3 161 63
0 162 63
1 162 63
2 162 63
3 162 63
0 163 63
1 163 63
2 163 63
3 163 63
0 164 63
1 164 63
2 164 63
3 164 63
0 165 63
1 165 63
2 165 63
3 165 63
0 166 63
1 166 63
2 166 63
3 166 63
0 167 63
1 167 63
2 167 63
3 167 63
0 168 63
1 168 63
2 168 63
3 168 63
0 169 63
1 169 63
2 169 63
3 169 63
0 170 63
1 170 63
2 170 63
3 170 63
0 171 63
1 171 63
2 171 63
3 171 63
0 172 63
1 172 63
2 172 63
3 172 63
0 173 63
1 173 63
2 173 63
3 173 63
0 174 63
1 174 63
2 174 63
3 174 63
0 175 63
1 175 63
2 175 63
3 175 63
0 176 63
1 176 63
2 176 63
3 176 63
0 177 63
1 177 63
2 177 63
3 177 63
0 178 63
1 178 63
2 178 63
3 178 63
0 179 63
1 179 63
2 179 63
3 179 63
0 180 63
1 180 63
2 180 63
3 180 63
0 181 63
1 181 63
2 181 63
3 181 63
0 182 63
1 182 63
2 182 63
3 182 63
0 183 63
1 183 63
2 183 63
3 183 63
0 184 63
1 184 63
2 184 63
3 184 63
0 185 63
1 185 63
2 185 63
3 185 63
0 186 63
1 186 63
2 186 63
3 186 63
0 187 63
1 187 63
2 187 63
3 187 63
0 188 63
1 188 63
2 188 63
3 188 63
0 189 63
1 189 63
2 189 63
3 189 63
0 190 63
1 190 63
2 190 63
3 190 63
0 191 63
1 191 63
2 191 63
3 191 63
0 192 63
1 192 63
2 192 63
3 192 63
0 193 63
1 193 63
2 193 63
3 193 63
0 194 63
1 194 63
2 194 63
3 194 63
0 195 63
1 195 63
2 195 63
3 195 63
0 196 63
1 196 63
2 196 63
3 196 63
0 197 63
1 197 63
2 197 63
3 197 63
0 198 63
1 198 63
2 198 63
3 198 63
0 199 63
1 199 63
2 199 63
3 199 63
0 132 64
1 132 64
2 132 64
3 132 64
0 133 64
1 133 64
2 133 64
3 133 64
0 134 64
1 134 64
2 134 64
3 134 64
0 135 64
1 135 64
2 135 64
3 135 64
0 136 64
1 136 64
2 136 64
3 136 64
0 137 64
1 137 64
2 137 64
3 137 64
0 138 64
1 138 64
2 138 64
3 138 64
0 139 64
1 139 64
2 139 64
3 139 64
0 140 64
1 140 64
2 140 64
3 140 64
0 141 64
1 141 64
2 141 64
3 141 64
0 142 64
1 142 64
2 142 64
3 142 64
0 143 64
1 143 64
2 143 64
3 143 64
0 144 64
1 144 64
2 144 64
3 144 64
0 145 64
1 145 64
2 145 64
3 145 64
0 146 64
1 146 64
2 146 64
3 146 64
0 147 64
1 147 64
2 147 64
3 147 64
0 148 64
1 148 64
2 148 64
3 148 64
0 149 64
1 149 64
2 149 64
3 149 64
0 150 64
1 150 64
2 150 64
3 150 64
0 151 64
1 151 64
2 151 64
3 151 64
0 152 64
1 152 64
2 152 64
3 152 64
0 153 64
1 153 64
2 153 64
3 153 64
0 154 64
1 154 64
2 154 64
3 154 64
0 155 64
1 155 64
2 155 64
3 155 64
0 156 64
1 156 64
2 156 64
3 156 64
0 157 64
1 157 64
2 157 64
3 157 64
0 158 64
1 158 64
2 158 64
3 158 64
0 159 64
1 159 64
2 159 64
3 159 64
0 160 64
1 160 64
2 160 64
3 160 64
0 161 64
1 161 64
2 161 64
3 161 64
0 162 64
1 162 64
2 162 64
3 162 64
0 163 64
1 163 64
2 163 64
3 163 64
0 164 64
1 164 64
2 164 64
3 164 64
0 165 64
1 165 64
2 165 64
3 165 64
0 166 64
1 166 64
2 166 64
3 166 64
0 167 64
1 167 64
2 167 64
3 167 64
0 168 64
1 168 64
2 168 64
3 168 64
0 169 64
1 169 64
2 169 64
3 169 64
0 170 64
1 170 64
2 170 64
3 170 64
0 171 64
1 171 64
2 171 64
3 171 64
0 172 64
1 172 64
2 172 64
3 172 64
0 173 64
1 173 64
2 173 64
3 173 64
0 174 64
1 174 64
2 174 64
3 174 64
0 175 64
1 175 64
2 175 64
3 175 64
0 176 64
1 176 64
2 176 64
3 176 64
0 177 64
1 177 64
2 177 64
3 177 64
0 178 64
1 178 64
2 178 64
3 178 64
0 179 64
1 179 64
2 179 64
3 179 64
0 180 64
1 180 64
2 180 64
3 180 64
0 181 64
1 181 64
2 181 64
3 181 64
0 182 64
1 182 64
2 182 64
3 182 64
0 183 64
1 183 64
2 183 64
3 183 64
0 184 64
1 184 64
2 184 64
3 184 64
0 185 64
1 185 64
2 185 64
3 185 64
0 186 64
1 186 64
2 186 64
3 186 64
0 187 64
1 187 64
2 187 64
3 187 64
0 188 64
1 188 64
2 188 64
3 188 64
0 189 64
1 189 64
2 189 64
3 189 64
0 190 64
1 190 64
2 190 64
3 190 64
0 191 64
1 191 64
2 191 64
3 191 64
0 192 64
1 192 64
2 192 64
3 192 64
0 193 64
1 193 64
2 193 64
3 193 64
0 194 64
1 194 64
2 194 64
3 194 64
0 195 64
1 195 64
2 195 64
3 195 64
0 196 64
1 196 64
2 196 64
3 196 64
0 197 64
1 197 64
2 197 64
3 197 64
0 198 64
1 198 64
2 198 64
3 198 64
0 199 64
1 199 64
2 199 64
3 199 64
0 132 65
1 132 65
2 132 65
3 132 65
0 133 65
1 133 65
2 133 65
3 133 65
0 134 65
1 134 65
2 134 65
3 134 65
0 135 65
1 135 65
2 135 65
3 135 65
0 136 65
1 136 65
2 136 65
3 136 65
0 137 65
1 137 65
2 137 65
3 137 65
0 138 65
1 138 65
2 138 65
3 138 65
0 139 65
1 139 65
2 139 65
3 139 65
0 140 65
1 140 65
2 140 65
3 140 65
0 141 65
1 141 65
2 141 65
3 141 65
0 142 65
1 142 65
2 142 65
3 142 65
0 143 65
1 143 65
2 143 65
3 143 65
0 144 65
1 144 65
2 144 65
3 144 65
0 145 65
1 145 65
2 145 65
3 145 65
0 146 65
1 146 65
2 146 65
3 146 65
0 147 65
1 147 65
2 147 65
3 147 65
0 148 65
1 148 65
2 148 65
3 148 65
0 149 65
1 149 65
2 149 65
3 149 65
0 150 65
1 150 65
2 150 65
3 150 65
0 151 65
1 151 65
2 151 65
3 151 65
0 152 65
1 152 65
2 152 65
3 152 65
0 153 65
1 153 65
2 153 65
3 153 65
0 154 65
1 154 65
2 154 65
3 154 65
0 155 65
1 155 65
2 155 65
3 155 65
0 156 65
1 156 65
2 156 65
3 156 65
0 157 65
1 157 65
2 157 65
3 157 65
0 158 65
1 158 65
2 158 65
3 158 65
0 159 65
1 159 65
2 159 65
3 159 65
0 160 65
1 160 65
2 160 65
3 160 65
0 161 65
1 161 65
2 161 65
3 161 65
0 162 65
1 162 65
2 162 65
3 162 65
0 163 65
1 163 65
2 163 65
3 163 65
0 164 65
1 164 65
2 164 65
3 164 65
0 165 65
1 165 65
2 165 65
3 165 65
0 166 65
1 166 65
2 166 65
3 166 65
0 167 65
1 167 65
2 167 65
3 167 65
0 168 65
1 168 65
2 168 65
3 168 65
0 169 65
1 169 65
2 169 65
3 169 65
0 170 65
1 170 65
2 170 65
3 170 65
0 171 65
1 171 65
2 171 65
3 171 65
0 172 65
1 172 65
2 172 65
3 172 65
0 173 65
1 173 65
2 173 65
3 173 65
0 174 65
1 174 65
2 174 65
3 174 65
0 175 65
1 175 65
2 175 65
3 175 65
0 176 65
1 176 65
2 176 65
3 176 65
0 177 65
1 177 65
2 177 65
3 177 65
0 178 65
1 178 65
2 178 65
3 178 65
0 179 65
1 179 65
2 179 65
3 179 65
0 180 65
1 180 65
2 180 65
3 180 65
0 181 65
1 181 65
2 181 65
3 181 65
0 182 65
1 182 65
2 182 65
3 182 65
0 183 65
1 183 65
2 183 65
3 183 65
0 184 65
1 184 65
2 184 65
3 184 65
0 185 65
1 185 65
2 185 65
3 185 65
0 186 65
1 186 65
2 186 65
3 186 65
0 187 65
1 187 65
2 187 65
3 187 65
0 188 65
1 188 65
2 188 65
3 188 65
0 189 65
1 189 65
2 189 65
3 189 65
0 190 65
1 190 65
2 190 65
3 190 65
0 191 65
1 191 65
2 191 65
3 191 65
0 192 65
1 192 65
2 192 65
3 192 65
0 193 65
1 193 65
2 193 65
3 193 65
0 194 65
1 194 65
2 194 65
3 194 65
0 195 65
1 195 65
2 195 65
3 195 65
0 196 65
1 196 65
2 196 65
3 196 65
0 197 65
1 197 65
2 197 65
3 197 65
0 198 65
1 198 65
2 198 65
3 198 65
0 199 65
1 199 65
2 199 65
3 199 65
0 132 66
1 132 66
2 132 66
3 132 66
0 133 66
1 133 66
2 133 66
3 133 66
0 134 66
1 134 66
2 134 66
3 134 66
0 135 66
1 135 66
2 135 66
3 135 66
0 136 66
1 136 66
2 136 66
3 136 66
0 137 66
1 137 66
2 137 66
3 137 66
0 138 66
1 138 66
2 138 66
3 138 66
0 139 66
1 139 66
2 139 66
3 139 66
0 140 66
1 140 66
2 140 66
3 140 66
0 141 66
1 141 66
2 141 66
3 141 66
0 142 66
1 142 66
2 142 66
3 142 66
0 143 66
1 143 66
2 143 66
3 143 66
0 144 66
1 144 66
2 144 66
3 144 66
0 145 66
1 145 66
2 145 66
3 145 66
0 146 66
1 146 66
2 146 66
3 146 66
0 147 66
1 147 66
2 147 66
3 147 66
0 148 66
1 148 66
2 148 66
3 148 66
0 149 66
1 149 66
2 149 66
3 149 66
0 150 66
1 150 66
2 150 66
3 150 66
0 151 66
1 151 66
2 151 66
3 151 66
0 152 66
1 152 66
2 152 66
3 152 66
0 153 66
1 153 66
2 153 66
3 153 66
0 154 66
1 154 66
2 154 66
3 154 66
0 155 66
1 155 66
2 155 66
3 155 66
0 156 66
1 156 66
2 156 66
3 156 66
0 157 66
1 157 66
2 157 66
3 157 66
0 158 66
1 158 66
2 158 66
3 158 66
0 159 66
1 159 66
2 159 66
3 159 66
0 160 66
1 160 66
2 160 66
3 160 66
0 161 66
1 161 66
2 161 66
3 161 66
0 162 66
1 162 66
2 162 66
3 162 66
0 163 66
1 163 66
2 163 66
3 163 66
0 164 66
1 164 66
2 164 66
3 164 66
0 165 66
1 165 66
2 165 66
3 165 66
0 166 66
1 166 66
2 166 66
3 166 66
0 167 66
1 167 66
2 167 66
3 167 66
0 168 66
1 168 66
2 168 66
3 168 66
0 169 66
1 169 66
2 169 66
3 169 66
0 170 66
1 170 66
2 170 66
3 170 66
0 171 66
1 171 66
2 171 66
3 171 66
0 172 66
1 172 66
2 172 66
3 172 66
0 173 66
1 173 66
2 173 66
3 173 66
0 174 66
1 174 66
2 174 66
3 174 66
0 175 66
1 175 66
2 175 66
3 175 66
0 176 66
1 176 66
2 176 66
3 176 66
0 177 66
1 177 66
2 177 66
3 177 66
0 178 66
1 178 66
2 178 66
3 178 66
0 179 66
1 179 66
2 179 66
3 179 66
0 180 66
1 180 66
2 180 66
3 180 66
0 181 66
1 181 66
2 181 66
3 181 66
0 182 66
1 182 66
2 182 66
3 182 66
0 183 66
1 183 66
2 183 66
3 183 66
0 184 66
1 184 66
2 184 66
3 184 66
0 185 66
1 185 66
2 185 66
3 185 66
0 186 66
1 186 66
2 186 66
3 186 66
0 187 66
1 187 66
2 187 66
3 187 66
0 188 66
1 188 66
2 188 66
3 188 66
0 189 66
1 189 66
2 189 66
3 189 66
0 190 66
1 190 66
2 190 66
3 190 66
0 191 66
1 191 66
2 191 66
3 191 66
0 192 66
1 192 66
2 192 66
3 192 66
0 193 66
1 193 66
2 193 66
3 193 66
0 194 66
1 194 66
2 194 66
3 194 66
0 195 66
1 195 66
2 195 66
3 195 66
0 196 66
1 196 66
2 196 66
3 196 66
0 197 66
1 197 66
2 197 66
3 197 66
0 198 66
1 198 66
2 198 66
3 198 66
0 199 66
1 199 66
2 199 66
3 199 66
0 132 67
1 132 67
2 132 67
3 132 67
0 133 67
1 133 67
2 133 67
3 133 67
0 134 67
1 134 67
2 134 67
3 134 67
0 135 67
1 135 67
2 135 67
3 135 67
0 136 67
1 136 67
2 136 67
3 136 67
0 137 67
1 137 67
2 137 67
3 137 67
0 138 67
1 138 67
2 138 67
3 138 67
0 139 67
1 139 67
2 139 67
3 139 67
0 140 67
1 140 67
2 140 67
3 140 67
0 141 67
1 141 67
2 141 67
3 141 67
0 142 67
1 142 67
2 142 67
3 142 67
0 143 67
1 143 67
2 143 67
3 143 67
0 144 67
1 144 67
2 144 67
3 144 67
0 145 67
1 145 67
2 145 67
3 145 67
0 146 67
1 146 67
2 146 67
3 146 67
0 147 67
1 147 67
2 147 67
3 147 67
0 148 67
1 148 67
2 148 67
3 148 67
0 149 67
1 149 67
2 149 67
3 149 67
0 150 67
1 150 67
2 150 67
3 150 67
0 151 67
1 151 67
2 151 67
3 151 67
0 152 67
1 152 67
2 152 67
3 152 67
0 153 67
1 153 67
2 153 67
3 153 67
0 154 67
1 154 67
2 154 67
3 154 67
0 155 67
1 155 67
2 155 67
3 155 67
0 156 67
1 156 67
2 156 67
3 156 67
0 157 67
1 157 67
2 157 67
3 157 67
0 158 67
1 158 67
2 158 67
3 158 67
0 159 67
1 159 67
2 159 67
3 159 67
0 160 67
1 160 67
2 160 67
3 160 67
0 161 67
1 161 67
2 161 67
3 161 67
0 162 67
1 162 67
2 162 67
3 162 67
0 163 67
1 163 67
2 163 67
3 163 67
0 164 67
1 164 67
2 164 67
3 164 67
0 165 67
1 165 67
2 165 67
3 165 67
0 166 67
1 166 67
2 166 67
3 166 67
0 167 67
1 167 67
2 167 67
3 167 67
0 168 67
1 168 67
2 168 67
3 168 67
0 169 67
1 169 67
2 169 67
3 169 67
0 170 67
1 170 67
2 170 67
3 170 67
0 171 67
1 171 67
2 171 67
3 171 67
0 172 67
1 172 67
2 172 67
3 172 67
0 173 67
1 173 67
2 173 67
3 173 67
0 174 67
1 174 67
2 174 67
3 174 67
0 175 67
1 175 67
2 175 67
3 175 67
0 176 67
1 176 67
2 176 67
3 176 67
0 177 67
1 177 67
2 177 67
3 177 67
0 178 67
1 178 67
2 178 67
3 178 67
0 179 67
1 179 67
2 179 67
3 179 67
0 180 67
1 180 67
2 180 67
3 180 67
0 181 67
1 181 67
2 181 67
3 181 67
0 182 67
1 182 67
2 182 67
3 182 67
0 183 67
1 183 67
2 183 67
3 183 67
0 184 67
1 184 67
2 184 67
3 184 67
0 185 67
1 185 67
2 185 67
3 185 67
0 186 67
1 186 67
2 186 67
3 186 67
0 187 67
1 187 67
2 187 67
3 187 67
0 188 67
1 188 67
2 188 67
3 188 67
0 189 67
1 189 67
2 189 67
3 189 67
0 190 67
1 190 67
2 190 67
3 190 67
0 191 67
1 191 67
2 191 67
3 191 67
0 192 67
1 192 67
2 192 67
3 192 67
0 193 67
1 193 67
2 193 67
3 193 67
0 194 67
1 194 67
2 194 67
3 194 67
0 195 67
1 195 67
2 195 67
3 195 67
0 196 67
1 196 67
2 196 67
3 196 67
0 197 67
1 197 67
2 197 67
3 197 67
0 198 67
1 198 67
2 198 67
3 198 67
0 199 67
1 199 67
2 199 67
3 199 67
0 132 68
1 132 68
2 132 68
3 132 68
0 133 68
1 133 68
2 133 68
3 133 68
0 134 68
1 134 68
2 134 68
3 134 68
0 135 68
1 135 68
2 135 68
3 135 68
0 136 68
1 136 68
2 136 68
3 136 68
0 137 68
1 137 68
2 137 68
3 137 68
0 138 68
1 138 68
2 138 68
3 138 68
0 139 68
1 139 68
2 139 68
3 139 68
0 140 68
1 140 68
2 140 68
3 140 68
0 141 68
1 141 68
2 141 68
3 141 68
0 142 68
1 142 68
2 142 68
3 142 68
0 143 68
1 143 68
2 143 68
3 143 68
0 144 68
1 144 68
2 144 68
3 144 68
0 145 68
1 145 68
2 145 68
3 145 68
0 146 68
1 146 68
2 146 68
3 146 68
0 147 68
1 147 68
2 147 68
3 147 68
0 148 68
1 148 68
2 148 68
3 148 68
0 149 68
1 149 68
2 149 68
3 149 68
0 150 68
1 150 68
2 150 68
3 150 68
0 151 68
1 151 68
2 151 68
3 151 68
0 152 68
1 152 68
2 152 68
3 152 68
0 153 68
1 153 68
2 153 68
3 153 68
0 154 68
1 154 68
2 154 68
3 154 68
0 155 68
1 155 68
2 155 68
3 155 68
0 156 68
1 156 68
2 156 68
3 156 68
0 157 68
1 157 68
2 157 68
3 157 68
0 158 68
1 158 68
2 158 68
3 158 68
0 159 68
1 159 68
2 159 68
3 159 68
0 160 68
1 160 68
2 160 68
3 160 68
0 161 68
1 161 68
2 161 68
3 161 68
0 162 68
1 162 68
2 162 68
3 162 68
0 163 68
1 163 68
2 163 68
3 163 68
0 164 68
1 164 68
2 164 68
3 164 68
0 165 68
1 165 68
2 165 68
3 165 68
0 166 68
1 166 68
2 166 68
3 166 68
0 167 68
1 167 68
2 167 68
3 167 68
0 168 68
1 168 68
2 168 68
3 168 68
0 169 68
1 169 68
2 169 68
3 169 68
0 170 68
1 170 68
2 170 68
3 170 68
0 171 68
1 171 68
2 171 68
3 171 68
0 172 68
1 172 68
2 172 68
3 172 68
0 173 68
1 173 68
2 173 68
3 173 68
0 174 68
1 174 68
2 174 68
3 174 68
0 175 68
1 175 68
2 175 68
3 175 68
0 176 68
1 176 68
2 176 68
3 176 68
0 177 68
1 177 68
2 177 68
3 177 68
0 178 68
1 178 68
2 178 68
3 178 68
0 179 68
1 179 68
2 179 68
3 179 68
0 180 68
1 180 68
2 180 68
3 180 68
0 181 68
1 181 68
2 181 68
3 181 68
0 182 68
1 182 68
2 182 68
3 182 68
0 183 68
1 183 68
2 183 68
3 183 68
0 184 68
1 184 68
2 184 68
3 184 68
0 185 68
1 185 68
2 185 68
3 185 68
0 186 68
1 186 68
2 186 68
3 186 68
0 187 68
1 187 68
2 187 68
3 187 68
0 188 68
1 188 68
2 188 68
3 188 68
0 189 68
1 189 68
2 189 68
3 189 68
0 190 68
1 190 68
2 190 68
3 190 68
0 191 68
1 191 68
2 191 68
3 191 68
0 192 68
1 192 68
2 192 68
3 192 68
0 193 68
1 193 68
2 193 68
3 193 68
0 194 68
1 194 68
2 194 68
3 194 68
0 195 68
1 195 68
2 195 68
3 195 68
0 196 68
1 196 68
2 196 68
3 196 68
0 197 68
1 197 68
2 197 68
3 197 68
0 198 68
1 198 68
2 198 68
3 198 68
0 199 68
1 199 68
2 199 68
3 199 68
0 132 69
1 132 69
2 132 69
3 132 69
0 133 69
1 133 69
2 133 69
3 133 69
0 134 69
1 134 69
2 134 69
3 134 69
0 135 69
1 135 69
2 135 69
3 135 69
0 136 69
1 136 69
2 136 69
3 136 69
0 137 69
1 137 69
2 137 69
3 137 69
0 138 69
1 138 69
2 138 69
3 138 69
0 139 69
1 139 69
2 139 69
3 139 69
0 140 69
1 140 69
2 140 69
3 140 69
0 141 69
1 141 69
2 141 69
3 141 69
0 142 69
1 142 69
2 142 69
3 142 69
0 143 69
1 143 69
2 143 69
3 143 69
0 144 69
1 144 69
2 144 69
3 144 69
0 145 69
1 145 69
2 145 69
3 145 69
0 146 69
1 146 69
2 146 69
3 146 69
0 147 69
1 147 69
2 147 69
3 147 69
0 148 69
1 148 69
2 148 69
3 148 69
0 149 69
1 149 69
2 149 69
3 149 69
0 150 69
1 150 69
2 150 69
3 150 69
0 151 69
1 151 69
2 151 69
3 151 69
0 152 69
1 152 69
2 152 69
3 152 69
0 153 69
1 153 69
2 153 69
3 153 69
0 154 69
1 154 69
2 154 69
3 154 69
0 155 69
1 155 69
2 155 69
3 155 69
0 156 69
1 156 69
2 156 69
3 156 69
0 157 69
1 157 69
2 157 69
3 157 69
0 158 69
1 158 69
2 158 69
3 158 69
0 159 69
1 159 69
2 159 69
3 159 69
0 160 69
1 160 69
2 160 69
3 160 69
0 161 69
1 161 69
2 161 69
3 161 69
0 162 69
1 162 69
2 162 69
3 162 69
0 163 69
1 163 69
2 163 69
3 163 69
0 164 69
1 164 69
2 164 69
3 164 69
0 165 69
1 165 69
2 165 69
3 165 69
0 166 69
1 166 69
2 166 69
3 166 69
0 167 69
1 167 69
2 167 69
3 167 69
0 168 69
1 168 69
2 168 69
3 168 69
0 169 69
1 169 69
2 169 69
3 169 69
0 170 69
1 170 69
2 170 69
3 170 69
0 171 69
1 171 69
2 171 69
3 171 69
0 172 69
1 172 69
2 172 69
3 172 69
0 173 69
1 173 69
2 173 69
3 173 69
0 174 69
1 174 69
2 174 69
3 174 69
0 175 69
1 175 69
2 175 69
3 175 69
0 176 69
1 176 69
2 176 69
3 176 69
0 177 69
1 177 69
2 177 69
3 177 69
0 178 69
1 178 69
2 178 69
3 178 69
0 179 69
1 179 69
2 179 69
3 179 69
0 180 69
1 180 69
2 180 69
3 180 69
0 181 69
1 181 69
2 181 69
3 181 69
0 182 69
1 182 69
2 182 69
3 182 69
0 183 69
1 183 69
2 183 69
3 183 69
0 184 69
1 184 69
2 184 69
3 184 69
0 185 69
1 185 69
2 185 69
3 185 69
0 186 69
1 186 69
2 186 69
3 186 69
0 187 69
1 187 69
2 187 69
3 187 69
0 188 69
1 188 69
2 188 69
3 188 69
0 189 69
1 189 69
2 189 69
3 189 69
0 190 69
1 190 69
2 190 69
3 190 69
0 191 69
1 191 69
2 191 69
3 191 69
0 192 69
1 192 69
2 192 69
3 192 69
0 193 69
1 193 69
2 193 69
3 193 69
0 194 69
1 194 69
2 194 69
3 194 69
0 195 69
1 195 69
2 195 69
3 195 69
0 196 69
1 196 69
2 196 69
3 196 69
0 197 69
1 197 69
2 197 69
3 197 69
0 198 69
1 198 69
2 198 69
3 198 69
0 199 69
1 199 69
2 199 69
3 199 69
0 132 70
1 132 70
2 132 70
3 132 70
0 133 70
1 133 70
2 133 70
3 133 70
0 134 70
1 134 70
2 134 70
3 134 70
0 135 70
1 135 70
2 135 70
3 135 70
0 136 70
1 136 70
2 136 70
3 136 70
0 137 70
1 137 70
2 137 70
3 137 70
0 138 70
1 138 70
2 138 70
3 138 70
0 139 70
1 139 70
2 139 70
3 139 70
0 140 70
1 140 70
2 140 70
3 140 70
0 141 70
1 141 70
2 141 70
3 141 70
0 142 70
1 142 70
2 142 70
3 142 70
0 143 70
1 143 70
2 143 70
3 143 70
0 144 70
1 144 70
2 144 70
3 144 70
0 145 70
1 145 70
2 145 70
3 145 70
0 146 70
1 146 70
2 146 70
3 146 70
0 147 70
1 147 70
2 147 70
3 147 70
0 148 70
1 148 70
2 148 70
3 148 70
0 149 70
1 149 70
2 149 70
3 149 70
0 150 70
1 150 70
2 150 70
3 150 70
0 151 70
1 151 70
2 151 70
3 151 70
0 152 70
1 152 70
2 152 70
3 152 70
0 153 70
1 153 70
2 153 70
3 153 70
0 154 70
1 154 70
2 154 70
3 154 70
0 155 70
1 155 70
2 155 70
3 155 70
0 156 70
1 156 70
2 156 70
3 156 70
0 157 70
1 157 70
2 157 70
3 157 70
0 158 70
1 158 70
2 158 70
3 158 70
0 159 70
1 159 70
2 159 70
3 159 70
0 160 70
1 160 70
2 160 70
3 160 70
0 161 70
1 161 70
2 161 70
3 161 70
0 162 70
1 162 70
2 162 70
3 162 70
0 163 70
1 163 70
2 163 70
3 163 70
0 164 70
1 164 70
2 164 70
3 164 70
0 165 70
1 165 70
2 165 70
3 165 70
0 166 70
1 166 70
2 166 70
3 166 70
0 167 70
1 167 70
2 167 70
3 167 70
0 168 70
1 168 70
2 168 70
3 168 70
0 169 70
1 169 70
2 169 70
3 169 70
0 170 70
1 170 70
2 170 70
3 170 70
0 171 70
1 171 70
2 171 70
3 171 70
0 172 70
1 172 70
2 172 70
3 172 70
0 173 70
1 173 70
2 173 70
3 173 70
0 174 70
1 174 70
2 174 70
3 174 70
0 175 70
1 175 70
2 175 70
3 175 70
0 176 70
1 176 70
2 176 70
3 176 70
0 177 70
1 177 70
2 177 70
3 177 70
0 178 70
1 178 70
2 178 70
3 178 70
0 179 70
1 179 70
2 179 70
3 179 70
0 180 70
1 180 70
2 180 70
3 180 70
0 181 70
1 181 70
2 181 70
3 181 70
0 182 70
1 182 70
2 182 70
3 182 70
0 183 70
1 183 70
2 183 70
3 183 70
0 184 70
1 184 70
2 184 70
3 184 70
0 185 70
1 185 70
2 185 70
3 185 70
0 186 70
1 186 70
2 186 70
3 186 70
0 187 70
1 187 70
2 187 70
3 187 70
0 188 70
1 188 70
2 188 70
3 188 70
0 189 70
1 189 70
2 189 70
3 189 70
0 190 70
1 190 70
2 190 70
3 190 70
0 191 70
1 191 70
2 191 70
3 191 70
0 192 70
1 192 70
2 192 70
3 192 70
0 193 70
1 193 70
2 193 70
3 193 70
0 194 70
1 194 70
2 194 70
3 194 70
0 195 70
1 195 70
2 195 70
3 195 70
0 196 70
1 196 70
2 196 70
3 196 70
0 197 70
1 197 70
2 197 70
3 197 70
0 198 70
1 198 70
2 198 70
3 198 70
0 199 70
1 199 70
2 199 70
3 199 70
0 132 71
1 132 71
2 132 71
3 132 71
0 133 71
1 133 71
2 133 71
3 133 71
0 134 71
1 134 71
2 134 71
3 134 71
0 135 71
1 135 71
2 135 71
3 135 71
0 136 71
1 136 71
2 136 71
3 136 71
0 137 71
1 137 71
2 137 71
3 137 71
0 138 71
1 138 71
2 138 71
3 138 71
0 139 71
1 139 71
2 139 71
3 139 71
0 140 71
1 140 71
2 140 71
3 140 71
0 141 71
1 141 71
2 141 71
3 141 71
0 142 71
1 142 71
2 142 71
3 142 71
0 143 71
1 143 71
2 143 71
3 143 71
0 144 71
1 144 71
2 144 71
3 144 71
0 145 71
1 145 71
2 145 71
3 145 71
0 146 71
1 146 71
2 146 71
3 146 71
0 147 71
1 147 71
2 147 71
3 147 71
0 148 71
1 148 71
2 148 71
3 148 71
0 149 71
1 149 71
2 149 71
3 149 71
0 150 71
1 150 71
2 150 71
3 150 71
0 151 71
1 151 71
2 151 71
3 151 71
0 152 71
1 152 71
2 152 71
3 152 71
0 153 71
1 153 71
2 153 71
3 153 71
0 154 71
1 154 71
2 154 71
3 154 71
0 155 71
1 155 71
2 155 71
3 155 71
0 156 71
1 156 71
2 156 71
3 156 71
0 157 71
1 157 71
2 157 71
3 157 71
0 158 71
1 158 71
2 158 71
3 158 71
0 159 71
1 159 71
2 159 71
3 159 71
0 160 71
1 160 71
2 160 71
3 160 71
0 161 71
1 161 71
2 161 71
3 161 71
0 162 71
1 162 71
2 162 71
3 162 71
0 163 71
1 163 71
2 163 71
3 163 71
0 164 71
1 164 71
2 164 71
3 164 71
0 165 71
1 165 71
2 165 71
3 165 71
0 166 71
1 166 71
2 166 71
3 166 71
0 167 71
1 167 71
2 167 71
3 167 71
0 168 71
1 168 71
2 168 71
3 168 71
0 169 71
1 169 71
2 169 71
3 169 71
0 170 71
1 170 71
2 170 71
3 170 71
0 171 71
1 171 71
2 171 71
3 171 71
0 172 71
1 172 71
2 172 71
3 172 71
0 173 71
1 173 71
2 173 71
3 173 71
0 174 71
1 174 71
2 174 71
3 174 71
0 175 71
1 175 71
2 175 71
3 175 71
0 176 71
1 176 71
2 176 71
3 176 71
0 177 71
1 177 71
2 177 71
3 177 71
0 178 71
1 178 71
2 178 71
3 178 71
0 179 71
1 179 71
2 179 71
3 179 71
0 180 71
1 180 71
2 180 71
3 180 71
0 181 71
1 181 71
2 181 71
3 181 71
0 182 71
1 182 71
2 182 71
3 182 71
0 183 71
1 183 71
2 183 71
3 183 71
0 184 71
1 184 71
2 184 71
3 184 71
0 185 71
1 185 71
2 185 71
3 185 71
0 186 71
1 186 71
2 186 71
3 186 71
0 187 71
1 187 71
2 187 71
3 187 71
0 188 71
1 188 71
2 188 71
3 188 71
0 189 71
1 189 71
2 189 71
3 189 71
0 190 71
1 190 71
2 190 71
3 190 71
0 191 71
1 191 71
2 191 71
3 191 71
0 192 71
1 192 71
2 192 71
3 192 71
0 193 71
1 193 71
2 193 71
3 193 71
0 194 71
1 194 71
2 194 71
3 194 71
0 195 71
1 195 71
2 195 71
3 195 71
0 196 71
1 196 71
2 196 71
3 196 71
0 197 71
1 197 71
2 197 71
3 197 71
0 198 71
1 198 71
2 198 71
3 198 71
0 199 71
1 199 71
2 199 71
3 199 71
0 132 72
1 132 72
2 132 72
3 132 72
0 133 72
1 133 72
2 133 72
3 133 72
0 134 72
1 134 72
2 134 72
3 134 72
0 135 72
1 135 72
2 135 72
3 135 72
0 136 72
1 136 72
2 136 72
3 136 72
0 137 72
1 137 72
2 137 72
3 137 72
0 138 72
1 138 72
2 138 72
3 138 72
0 139 72
1 139 72
2 139 72
3 139 72
0 140 72
1 140 72
2 140 72
3 140 72
0 141 72
1 141 72
2 141 72
3 141 72
0 142 72
1 142 72
2 142 72
3 142 72
0 143 72
1 143 72
2 143 72
3 143 72
0 144 72
1 144 72
2 144 72
3 144 72
0 145 72
1 145 72
2 145 72
3 145 72
0 146 72
1 146 72
2 146 72
3 146 72
0 147 72
1 147 72
2 147 72
3 147 72
0 148 72
1 148 72
2 148 72
3 148 72
0 149 72
1 149 72
2 149 72
3 149 72
0 150 72
1 150 72
2 150 72
3 150 72
0 151 72
1 151 72
2 151 72
3 151 72
0 152 72
1 152 72
2 152 72
3 152 72
0 153 72
1 153 72
2 153 72
3 153 72
0 154 72
1 154 72
2 154 72
3 154 72
0 155 72
1 155 72
2 155 72
3 155 72
0 156 72
1 156 72
2 156 72
3 156 72
0 157 72
1 157 72
2 157 72
3 157 72
0 158 72
1 158 72
2 158 72
3 158 72
0 159 72
1 159 72
2 159 72
3 159 72
0 160 72
1 160 72
2 160 72
3 160 72
0 161 72
1 161 72
2 161 72
3 161 72
0 162 72
1 162 72
2 162 72
3 162 72
0 163 72
1 163 72
2 163 72
3 163 72
0 164 72
1 164 72
2 164 72
3 164 72
0 165 72
1 165 72
2 165 72
3 165 72
0 166 72
1 166 72
2 166 72
3 166 72
0 167 72
1 167 72
2 167 72
3 167 72
0 168 72
1 168 72
2 168 72
3 168 72
0 169 72
1 169 72
2 169 72
3 169 72
0 170 72
1 170 72
2 170 72
3 170 72
0 171 72
1 171 72
2 171 72
3 171 72
0 172 72
1 172 72
2 172 72
3 172 72
0 173 72
1 173 72
2 173 72
3 173 72
0 174 72
1 174 72
2 174 72
3 174 72
0 175 72
1 175 72
2 175 72
3 175 72
0 176 72
1 176 72
2 176 72
3 176 72
0 177 72
1 177 72
2 177 72
3 177 72
0 178 72
1 178 72
2 178 72
3 178 72
0 179 72
1 179 72
2 179 72
3 179 72
0 180 72
1 180 72
2 180 72
3 180 72
0 181 72
1 181 72
2 181 72
3 181 72
0 182 72
1 182 72
2 182 72
3 182 72
0 183 72
1 183 72
2 183 72
3 183 72
0 184 72
1 184 72
2 184 72
3 184 72
0 185 72
1 185 72
2 185 72
3 185 72
0 186 72
1 186 72
2 186 72
3 186 72
0 187 72
1 187 72
2 187 72
3 187 72
0 188 72
1 188 72
2 188 72
3 188 72
0 189 72
1 189 72
2 189 72
3 189 72
0 190 72
1 190 72
2 190 72
3 190 72
0 191 72
1 191 72
2 191 72
3 191 72
0 192 72
1 192 72
2 192 72
3 192 72
0 193 72
1 193 72
2 193 72
3 193 72
0 194 72
1 194 72
2 194 72
3 194 72
0 195 72
1 195 72
2 195 72
3 195 72
0 196 72
1 196 72
2 196 72
3 196 72
0 197 72
1 197 72
2 197 72
3 197 72
0 198 72
1 198 72
2 198 72
3 198 72
0 199 72
1 199 72
2 199 72
3 199 72
0 132 73
1 132 73
2 132 73
3 132 73
0 133 73
1 133 73
2 133 73
3 133 73
0 134 73
1 134 73
2 134 73
3 134 73
0 135 73
1 135 73
2 135 73
3 135 73
0 136 73
1 136 73
2 136 73
3 136 73
0 137 73
1 137 73
2 137 73
3 137 73
0 138 73
1 138 73
2 138 73
3 138 73
0 139 73
1 139 73
2 139 73
3 139 73
0 140 73
1 140 73
2 140 73
3 140 73
0 141 73
1 141 73
2 141 73
3 141 73
0 142 73
1 142 73
2 142 73
3 142 73
0 143 73
1 143 73
2 143 73
3 143 73
0 144 73
1 144 73
2 144 73
3 144 73
0 145 73
1 145 73
2 145 73
3 145 73
0 146 73
1 146 73
2 146 73
3 146 73
0 147 73
1 147 73
2 147 73
3 147 73
0 148 73
1 148 73
2 148 73
3 148 73
0 149 73
1 149 73
2 149 73
3 149 73
0 150 73
1 150 73
2 150 73
3 150 73
0 151 73
1 151 73
2 151 73
3 151 73
0 152 73
1 152 73
2 152 73
3 152 73
0 153 73
1 153 73
2 153 73
3 153 73
0 154 73
1 154 73
2 154 73
3 154 73
0 155 73
1 155 73
2 155 73
3 155 73
0 156 73
1 156 73
2 156 73
3 156 73
0 157 73
1 157 73
2 157 73
3 157 73
0 158 73
1 158 73
2 158 73
3 158 73
0 159 73
1 159 73
2 159 73
3 159 73
0 160 73
1 160 73
2 160 73
3 160 73
0 161 73
1 161 73
2 161 73
3 161 73
0 162 73
1 162 73
2 162 73
3 162 73
0 163 73
1 163 73
2 163 73
3 163 73
0 164 73
1 164 73
2 164 73
3 164 73
0 165 73
1 165 73
2 165 73
3 165 73
0 166 73
1 166 73
2 166 73
3 166 73
0 167 73
1 167 73
2 167 73
3 167 73
0 168 73
1 168 73
2 168 73
3 168 73
0 169 73
1 169 73
2 169 73
3 169 73
0 170 73
1 170 73
2 170 73
3 170 73
0 171 73
1 171 73
2 171 73
3 171 73
0 172 73
1 172 73
2 172 73
3 172 73
0 173 73
1 173 73
2 173 73
3 173 73
0 174 73
1 174 73
2 174 73
3 174 73
0 175 73
1 175 73
2 175 73
3 175 73
0 176 73
1 176 73
2 176 73
3 176 73
0 177 73
1 177 73
2 177 73
3 177 73
0 178 73
1 178 73
2 178 73
3 178 73
0 179 73
1 179 73
2 179 73
3 179 73
0 180 73
1 180 73
2 180 73
3 180 73
0 181 73
1 181 73
2 181 73
3 181 73
0 182 73
1 182 73
2 182 73
3 182 73
0 183 73
1 183 73
2 183 73
3 183 73
0 184 73
1 184 73
2 184 73
3 184 73
0 185 73
1 185 73
2 185 73
3 185 73
0 186 73
1 186 73
2 186 73
3 186 73
0 187 73
1 187 73
2 187 73
3 187 73
0 188 73
1 188 73
2 188 73
3 188 73
0 189 73
1 189 73
2 189 73
3 189 73
0 190 73
1 190 73
2 190 73
3 190 73
0 191 73
1 191 73
2 191 73
3 191 73
0 192 73
1 192 73
2 192 73
3 192 73
0 193 73
1 193 73
2 193 73
3 193 73
0 194 73
1 194 73
2 194 73
3 194 73
0 195 73
1 195 73
2 195 73
3 195 73
0 196 73
1 196 73
2 196 73
3 196 73
0 197 73
1 197 73
2 197 73
3 197 73
0 198 73
1 198 73
2 198 73
3 198 73
0 199 73
1 199 73
2 199 73
3 199 73
0 132 74
1 132 74
2 132 74
3 132 74
0 133 74
1 133 74
2 133 74
3 133 74
0 134 74
1 134 74
2 134 74
3 134 74
0 135 74
1 135 74
2 135 74
3 135 74
0 136 74
1 136 74
2 136 74
3 136 74
0 137 74
1 137 74
2 137 74
3 137 74
0 138 74
1 138 74
2 138 74
3 138 74
0 139 74
1 139 74
2 139 74
3 139 74
0 140 74
1 140 74
2 140 74
3 140 74
0 141 74
1 141 74
2 141 74
3 141 74
0 142 74
1 142 74
2 142 74
3 142 74
0 143 74
1 143 74
2 143 74
3 143 74
0 144 74
1 144 74
2 144 74
3 144 74
0 145 74
1 145 74
2 145 74
3 145 74
0 146 74
1 146 74
2 146 74
3 146 74
0 147 74
1 147 74
2 147 74
3 147 74
0 148 74
1 148 74
2 148 74
3 148 74
0 149 74
1 149 74
2 149 74
3 149 74
0 150 74
1 150 74
2 150 74
3 150 74
0 151 74
1 151 74
2 151 74
3 151 74
0 152 74
1 152 74
2 152 74
3 152 74
0 153 74
1 153 74
2 153 74
3 153 74
0 154 74
1 154 74
2 154 74
3 154 74
0 155 74
1 155 74
2 155 74
3 155 74
0 156 74
1 156 74
2 156 74
3 156 74
0 157 74
1 157 74
2 157 74
3 157 74
0 158 74
1 158 74
2 158 74
3 158 74
0 159 74
1 159 74
2 159 74
3 159 74
0 160 74
1 160 74
2 160 74
3 160 74
0 161 74
1 161 74
2 161 74
3 161 74
0 162 74
1 162 74
2 162 74
3 162 74
0 163 74
1 163 74
2 163 74
3 163 74
0 164 74
1 164 74
2 164 74
3 164 74
0 165 74
1 165 74
2 165 74
3 165 74
0 166 74
1 166 74
2 166 74
3 166 74
0 167 74
1 167 74
2 167 74
3 167 74
0 168 74
1 168 74
2 168 74
3 168 74
0 169 74
1 169 74
2 169 74
3 169 74
0 170 74
1 170 74
2 170 74
3 170 74
0 171 74
1 171 74
2 171 74
3 171 74
0 172 74
1 172 74
2 172 74
3 172 74
0 173 74
1 173 74
2 173 74
3 173 74
0 174 74
1 174 74
2 174 74
3 174 74
0 175 74
1 175 74
2 175 74
3 175 74
0 176 74
1 176 74
2 176 74
3 176 74
0 177 74
1 177 74
2 177 74
3 177 74
0 178 74
1 178 74
2 178 74
3 178 74
0 179 74
1 179 74
2 179 74
3 179 74
0 180 74
1 180 74
2 180 74
3 180 74
0 181 74
1 181 74
2 181 74
3 181 74
0 182 74
1 182 74
2 182 74
3 182 74
0 183 74
1 183 74
2 183 74
3 183 74
0 184 74
1 184 74
2 184 74
3 184 74
0 185 74
1 185 74
2 185 74
3 185 74
0 186 74
1 186 74
2 186 74
3 186 74
0 187 74
1 187 74
2 187 74
3 187 74
0 188 74
1 188 74
2 188 74
3 188 74
0 189 74
1 189 74
2 189 74
3 189 74
0 190 74
1 190 74
2 190 74
3 190 74
0 191 74
1 191 74
2 191 74
3 191 74
0 192 74
1 192 74
2 192 74
3 192 74
0 193 74
1 193 74
2 193 74
3 193 74
0 194 74
1 194 74
2 194 74
3 194 74
0 195 74
1 195 74
2 195 74
3 195 74
0 196 74
1 196 74
2 196 74
3 196 74
0 197 74
1 197 74
2 197 74
3 197 74
0 198 74
1 198 74
2 198 74
3 198 74
0 199 74
1 199 74
2 199 74
3 199 74
0 132 75
1 132 75
2 132 75
3 132 75
0 133 75
1 133 75
2 133 75
3 133 75
0 134 75
1 134 75
2 134 75
3 134 75
0 135 75
1 135 75
2 135 75
3 135 75
0 136 75
1 136 75
2 136 75
3 136 75
0 137 75
1 137 75
2 137 75
3 137 75
0 138 75
1 138 75
2 138 75
3 138 75
0 139 75
1 139 75
2 139 75
3 139 75
0 140 75
1 140 75
2 140 75
3 140 75
0 141 75
1 141 75
2 141 75
3 141 75
0 142 75
1 142 75
2 142 75
3 142 75
0 143 75
1 143 75
2 143 75
3 143 75
0 144 75
1 144 75
2 144 75
3 144 75
0 145 75
1 145 75
2 145 75
3 145 75
0 146 75
1 146 75
2 146 75
3 146 75
0 147 75
1 147 75
2 147 75
3 147 75
0 148 75
1 148 75
2 148 75
3 148 75
0 149 75
1 149 75
2 149 75
3 149 75
0 150 75
1 150 75
2 150 75
3 150 75
0 151 75
1 151 75
2 151 75
3 151 75
0 152 75
1 152 75
2 152 75
3 152 75
0 153 75
1 153 75
2 153 75
3 153 75
0 154 75
1 154 75
2 154 75
3 154 75
0 155 75
1 155 75
2 155 75
3 155 75
0 156 75
1 156 75
2 156 75
3 156 75
0 157 75
1 157 75
2 157 75
3 157 75
0 158 75
1 158 75
2 158 75
3 158 75
0 159 75
1 159 75
2 159 75
3 159 75
0 160 75
1 160 75
2 160 75
3 160 75
0 161 75
1 161 75
2 161 75
3 161 75
0 162 75
1 162 75
2 162 75
3 162 75
0 163 75
1 163 75
2 163 75
3 163 75
0 164 75
1 164 75
2 164 75
3 164 75
0 165 75
1 165 75
2 165 75
3 165 75
0 166 75
1 166 75
2 166 75
3 166 75
0 167 75
1 167 75
2 167 75
3 167 75
0 168 75
1 168 75
2 168 75
3 168 75
0 169 75
1 169 75
2 169 75
3 169 75
0 170 75
1 170 75
2 170 75
3 170 75
0 171 75
1 171 75
2 171 75
3 171 75
0 172 75
1 172 75
2 172 75
3 172 75
0 173 75
1 173 75
2 173 75
3 173 75
0 174 75
1 174 75
2 174 75
3 174 75
0 175 75
1 175 75
2 175 75
3 175 75
0 176 75
1 176 75
2 176 75
3 176 75
0 177 75
1 177 75
2 177 75
3 177 75
0 178 75
1 178 75
2 178 75
3 178 75
0 179 75
1 179 75
2 179 75
3 179 75
0 180 75
1 180 75
2 180 75
3 180 75
0 181 75
1 181 75
2 181 75
3 181 75
0 182 75
1 182 75
2 182 75
3 182 75
0 183 75
1 183 75
2 183 75
3 183 75
0 184 75
1 184 75
2 184 75
3 184 75
0 185 75
1 185 75
2 185 75
3 185 75
0 186 75
1 186 75
2 186 75
3 186 75
0 187 75
1 187 75
2 187 75
3 187 75
0 188 75
1 188 75
2 188 75
3 188 75
0 189 75
1 189 75
2 189 75
3 189 75
0 190 75
1 190 75
2 190 75
3 190 75
0 191 75
1 191 75
2 191 75
3 191 75
0 192 75
1 192 75
2 192 75
3 192 75
0 193 75
1 193 75
2 193 75
3 193 75
0 194 75
1 194 75
2 194 75
3 194 75
0 195 75
1 195 75
2 195 75
3 195 75
0 196 75
1 196 75
2 196 75
3 196 75
0 197 75
1 197 75
2 197 75
3 197 75
0 198 75
1 198 75
2 198 75
3 198 75
0 199 75
1 199 75
2 199 75
3 199 75
0 132 76
1 132 76
2 132 76
3 132 76
0 133 76
1 133 76
2 133 76
3 133 76
0 134 76
1 134 76
2 134 76
3 134 76
0 135 76
1 135 76
2 135 76
3 135 76
0 136 76
1 136 76
2 136 76
3 136 76
0 137 76
1 137 76
2 137 76
3 137 76
0 138 76
1 138 76
2 138 76
3 138 76
0 139 76
1 139 76
2 139 76
3 139 76
0 140 76
1 140 76
2 140 76
3 140 76
0 141 76
1 141 76
2 141 76
3 141 76
0 142 76
1 142 76
2 142 76
3 142 76
0 143 76
1 143 76
2 143 76
3 143 76
0 144 76
1 144 76
2 144 76
3 144 76
0 145 76
1 145 76
2 145 76
3 145 76
0 146 76
1 146 76
2 146 76
3 146 76
0 147 76
1 147 76
2 147 76
3 147 76
0 148 76
1 148 76
2 148 76
3 148 76
0 149 76
1 149 76
2 149 76
3 149 76
0 150 76
1 150 76
2 150 76
3 150 76
0 151 76
1 151 76
2 151 76
3 151 76
0 152 76
1 152 76
2 152 76
3 152 76
0 153 76
1 153 76
2 153 76
3 153 76
0 154 76
1 154 76
2 154 76
3 154 76
0 155 76
1 155 76
2 155 76
3 155 76
0 156 76
1 156 76
2 156 76
3 156 76
0 157 76
1 157 76
2 157 76
3 157 76
0 158 76
1 158 76
2 158 76
3 158 76
0 159 76
1 159 76
2 159 76
3 159 76
0 160 76
1 160 76
2 160 76
3 160 76
0 161 76
1 161 76
2 161 76
3 161 76
0 162 76
1 162 76
2 162 76
3 162 76
0 163 76
1 163 76
2 163 76
3 163 76
0 164 76
1 164 76
2 164 76
3 164 76
0 165 76
1 165 76
2 165 76
3 165 76
0 166 76
1 166 76
2 166 76
3 166 76
0 167 76
1 167 76
2 167 76
3 167 76
0 168 76
1 168 76
2 168 76
3 168 76
0 169 76
1 169 76
2 169 76
3 169 76
0 170 76
1 170 76
2 170 76
3 170 76
0 171 76
1 171 76
2 171 76
3 171 76
0 172 76
1 172 76
2 172 76
3 172 76
0 173 76
1 173 76
2 173 76
3 173 76
0 174 76
1 174 76
2 174 76
3 174 76
0 175 76
1 175 76
2 175 76
3 175 76
0 176 76
1 176 76
2 176 76
3 176 76
0 177 76
1 177 76
2 177 76
3 177 76
0 178 76
1 178 76
2 178 76
3 178 76
0 179 76
1 179 76
2 179 76
3 179 76
0 180 76
1 180 76
2 180 76
3 180 76
0 181 76
1 181 76
2 181 76
3 181 76
0 182 76
1 182 76
2 182 76
3 182 76
0 183 76
1 183 76
2 183 76
3 183 76
0 184 76
1 184 76
2 184 76
3 184 76
0 185 76
1 185 76
2 185 76
3 185 76
0 186 76
1 186 76
2 186 76
3 186 76
0 187 76
1 187 76
2 187 76
3 187 76
0 188 76
1 188 76
2 188 76
3 188 76
0 189 76
1 189 76
2 189 76
3 189 76
0 190 76
1 190 76
2 190 76
3 190 76
0 191 76
1 191 76
2 191 76
3 191 76
0 192 76
1 192 76
2 192 76
3 192 76
0 193 76
1 193 76
2 193 76
3 193 76
0 194 76
1 194 76
2 194 76
3 194 76
0 195 76
1 195 76
2 195 76
3 195 76
0 196 76
1 196 76
2 196 76
3 196 76
0 197 76
1 197 76
2 197 76
3 197 76
0 198 76
1 198 76
2 198 76
3 198 76
0 199 76
1 199 76
2 199 76
3 199 76
0 132 77
1 132 77
2 132 77
3 132 77
0 133 77
1 133 77
2 133 77
3 133 77
0 134 77
1 134 77
2 134 77
3 134 77
0 135 77
1 135 77
2 135 77
3 135 77
0 136 77
1 136 77
2 136 77
3 136 77
0 137 77
1 137 77
2 137 77
3 137 77
0 138 77
1 138 77
2 138 77
3 138 77
0 139 77
1 139 77
2 139 77
3 139 77
0 140 77
1 140 77
2 140 77
3 140 77
0 141 77
1 141 77
2 141 77
3 141 77
0 142 77
1 142 77
2 142 77
3 142 77
0 143 77
1 143 77
2 143 77
3 143 77
0 144 77
1 144 77
2 144 77
3 144 77
0 145 77
1 145 77
2 145 77
3 145 77
0 146 77
1 146 77
2 146 77
3 146 77
0 147 77
1 147 77
2 147 77
3 147 77
0 148 77
1 148 77
2 148 77
3 148 77
0 149 77
1 149 77
2 149 77
3 149 77
0 150 77
1 150 77
2 150 77
3 150 77
0 151 77
1 151 77
2 151 77
3 151 77
0 152 77
1 152 77
2 152 77
3 152 77
0 153 77
1 153 77
2 153 77
3 153 77
0 154 77
1 154 77
2 154 77
3 154 77
0 155 77
1 155 77
2 155 77
3 155 77
0 156 77
1 156 77
2 156 77
3 156 77
0 157 77
1 157 77
2 157 77
3 157 77
0 158 77
1 158 77
2 158 77
3 158 77
0 159 77
1 159 77
2 159 77
3 159 77
0 160 77
1 160 77
2 160 77
3 160 77
0 161 77
1 161 77
2 161 77
3 161 77
0 162 77
1 162 77
2 162 77
3 162 77
0 163 77
1 163 77
2 163 77
3 163 77
0 164 77
1 164 77
2 164 77
3 164 77
0 165 77
1 165 77
2 165 77
3 165 77
0 166 77
1 166 77
2 166 77
3 166 77
0 167 77
1 167 77
2 167 77
3 167 77
0 168 77
1 168 77
2 168 77
3 168 77
0 169 77
1 169 77
2 169 77
3 169 77
0 170 77
1 170 77
2 170 77
3 170 77
0 171 77
1 171 77
2 171 77
3 171 77
0 172 77
1 172 77
2 172 77
3 172 77
0 173 77
1 173 77
2 173 77
3 173 77
0 174 77
1 174 77
2 174 77
3 174 77
0 175 77
1 175 77
2 175 77
3 175 77
0 176 77
1 176 77
2 176 77
3 176 77
0 177 77
1 177 77
2 177 77
3 177 77
0 178 77
1 178 77
2 178 77
3 178 77
0 179 77
1 179 77
2 179 77
3 179 77
0 180 77
1 180 77
2 180 77
3 180 77
0 181 77
1 181 77
2 181 77
3 181 77
0 182 77
1 182 77
2 182 77
3 182 77
0 183 77
1 183 77
2 183 77
3 183 77
0 184 77
1 184 77
2 184 77
3 184 77
0 185 77
1 185 77
2 185 77
3 185 77
0 186 77
1 186 77
2 186 77
3 186 77
0 187 77
1 187 77
2 187 77
3 187 77
0 188 77
1 188 77
2 188 77
3 188 77
0 189 77
1 189 77
2 189 77
3 189 77
0 190 77
1 190 77
2 190 77
3 190 77
0 191 77
1 191 77
2 191 77
3 191 77
0 192 77
1 192 77
2 192 77
3 192 77
0 193 77
1 193 77
2 193 77
3 193 77
0 194 77
1 194 77
2 194 77
3 194 77
0 195 77
1 195 77
2 195 77
3 195 77
0 196 77
1 196 77
2 196 77
3 196 77
0 197 77
1 197 77
2 197 77
3 197 77
0 198 77
1 198 77
2 198 77
3 198 77
0 199 77
1 199 77
2 199 77
3 199 77
0 132 78
1 132 78
2 132 78
3 132 78
0 133 78
1 133 78
2 133 78
3 133 78
0 134 78
1 134 78
2 134 78
3 134 78
0 135 78
1 135 78
2 135 78
3 135 78
0 136 78
1 136 78
2 136 78
3 136 78
0 137 78
1 137 78
2 137 78
3 137 78
0 138 78
1 138 78
2 138 78
3 138 78
0 139 78
1 139 78
2 139 78
3 139 78
0 140 78
1 140 78
2 140 78
3 140 78
0 141 78
1 141 78
2 141 78
3 141 78
0 142 78
1 142 78
2 142 78
3 142 78
0 143 78
1 143 78
2 143 78
3 143 78
0 144 78
1 144 78
2 144 78
3 144 78
0 145 78
1 145 78
2 145 78
3 145 78
0 146 78
1 146 78
2 146 78
3 146 78
0 147 78
1 147 78
2 147 78
3 147 78
0 148 78
1 148 78
2 148 78
3 148 78
0 149 78
1 149 78
2 149 78
3 149 78
0 150 78
1 150 78
2 150 78
3 150 78
0 151 78
1 151 78
2 151 78
3 151 78
0 152 78
1 152 78
2 152 78
3 152 78
0 153 78
1 153 78
2 153 78
3 153 78
0 154 78
1 154 78
2 154 78
3 154 78
0 155 78
1 155 78
2 155 78
3 155 78
0 156 78
1 156 78
2 156 78
3 156 78
0 157 78
1 157 78
2 157 78
3 157 78
0 158 78
1 158 78
2 158 78
3 158 78
0 159 78
1 159 78
2 159 78
3 159 78
0 160 78
1 160 78
2 160 78
3 160 78
0 161 78
1 161 78
2 161 78
3 161 78
0 162 78
1 162 78
2 162 78
3 162 78
0 163 78
1 163 78
2 163 78
3 163 78
0 164 78
1 164 78
2 164 78
3 164 78
0 165 78
1 165 78
2 165 78
3 165 78
0 166 78
1 166 78
2 166 78
3 166 78
0 167 78
1 167 78
2 167 78
3 167 78
0 168 78
1 168 78
2 168 78
3 168 78
0 169 78
1 169 78
2 169 78
3 169 78
0 170 78
1 170 78
2 170 78
3 170 78
0 171 78
1 171 78
2 171 78
3 171 78
0 172 78
1 172 78
2 172 78
3 172 78
0 173 78
1 173 78
2 173 78
3 173 78
0 174 78
1 174 78
2 174 78
3 174 78
0 175 78
1 175 78
2 175 78
3 175 78
0 176 78
1 176 78
2 176 78
3 176 78
0 177 78
1 177 78
2 177 78
3 177 78
0 178 78
1 178 78
2 178 78
3 178 78
0 179 78
1 179 78
2 179 78
3 179 78
0 180 78
1 180 78
2 180 78
3 180 78
0 181 78
1 181 78
2 181 78
3 181 78
0 182 78
1 182 78
2 182 78
3 182 78
0 183 78
1 183 78
2 183 78
3 183 78
0 184 78
1 184 78
2 184 78
3 184 78
0 185 78
1 185 78
2 185 78
3 185 78
0 186 78
1 186 78
2 186 78
3 186 78
0 187 78
1 187 78
2 187 78
3 187 78
0 188 78
1 188 78
2 188 78
3 188 78
0 189 78
1 189 78
2 189 78
3 189 78
0 190 78
1 190 78
2 190 78
3 190 78
0 191 78
1 191 78
2 191 78
3 191 78
0 192 78
1 192 78
2 192 78
3 192 78
0 193 78
1 193 78
2 193 78
3 193 78
0 194 78
1 194 78
2 194 78
3 194 78
0 195 78
1 195 78
2 195 78
3 195 78
0 196 78
1 196 78
2 196 78
3 196 78
0 197 78
1 197 78
2 197 78
3 197 78
0 198 78
1 198 78
2 198 78
3 198 78
0 199 78
1 199 78
2 199 78
3 199 78
0 132 79
1 132 79
2 132 79
3 132 79
0 133 79
1 133 79
2 133 79
3 133 79
0 134 79
1 134 79
2 134 79
3 134 79
0 135 79
1 135 79
2 135 79
3 135 79
0 136 79
1 136 79
2 136 79
3 136 79
0 137 79
1 137 79
2 137 79
3 137 79
0 138 79
1 138 79
2 138 79
3 138 79
0 139 79
1 139 79
2 139 79
3 139 79
0 140 79
1 140 79
2 140 79
3 140 79
0 141 79
1 141 79
2 141 79
3 141 79
0 142 79
1 142 79
2 142 79
3 142 79
0 143 79
1 143 79
2 143 79
3 143 79
0 144 79
1 144 79
2 144 79
3 144 79
0 145 79
1 145 79
2 145 79
3 145 79
0 146 79
1 146 79
2 146 79
3 146 79
0 147 79
1 147 79
2 147 79
3 147 79
0 148 79
1 148 79
2 148 79
3 148 79
0 149 79
1 149 79
2 149 79
3 149 79
0 150 79
1 150 79
2 150 79
3 150 79
0 151 79
1 151 79
2 151 79
3 151 79
0 152 79
1 152 79
2 152 79
3 152 79
0 153 79
1 153 79
2 153 79
3 153 79
0 154 79
1 154 79
2 154 79
3 154 79
0 155 79
1 155 79
2 155 79
3 155 79
0 156 79
1 156 79
2 156 79
3 156 79
0 157 79
1 157 79
2 157 79
3 157 79
0 158 79
1 158 79
2 158 79
3 158 79
0 159 79
1 159 79
2 159 79
3 159 79
0 160 79
1 160 79
2 160 79
3 160 79
0 161 79
1 161 79
2 161 79
3 161 79
0 162 79
1 162 79
2 162 79
3 162 79
0 163 79
1 163 79
2 163 79
3 163 79
0 164 79
1 164 79
2 164 79
3 164 79
0 165 79
1 165 79
2 165 79
3 165 79
0 166 79
1 166 79
2 166 79
3 166 79
0 167 79
1 167 79
2 167 79
3 167 79
0 168 79
1 168 79
2 168 79
3 168 79
0 169 79
1 169 79
2 169 79
3 169 79
0 170 79
1 170 79
2 170 79
3 170 79
0 171 79
1 171 79
2 171 79
3 171 79
0 172 79
1 172 79
2 172 79
3 172 79
0 173 79
1 173 79
2 173 79
3 173 79
0 174 79
1 174 79
2 174 79
3 174 79
0 175 79
1 175 79
2 175 79
3 175 79
0 176 79
1 176 79
2 176 79
3 176 79
0 177 79
1 177 79
2 177 79
3 177 79
0 178 79
1 178 79
2 178 79
3 178 79
0 179 79
1 179 79
2 179 79
3 179 79
0 180 79
1 180 79
2 180 79
3 180 79
0 181 79
1 181 79
2 181 79
3 181 79
0 182 79
1 182 79
2 182 79
3 182 79
0 183 79
1 183 79
2 183 79
3 183 79
0 184 79
1 184 79
2 184 79
3 184 79
0 185 79
1 185 79
2 185 79
3 185 79
0 186 79
1 186 79
2 186 79
3 186 79
0 187 79
1 187 79
2 187 79
3 187 79
0 188 79
1 188 79
2 188 79
3 188 79
0 189 79
1 189 79
2 189 79
3 189 79
0 190 79
1 190 79
2 190 79
3 190 79
0 191 79
1 191 79
2 191 79
3 191 79
0 192 79
1 192 79
2 192 79
3 192 79
0 193 79
1 193 79
2 193 79
3 193 79
0 194 79
1 194 79
2 194 79
3 194 79
0 195 79
1 195 79
2 195 79
3 195 79
0 196 79
1 196 79
2 196 79
3 196 79
0 197 79
1 197 79
2 197 79
3 197 79
0 198 79
1 198 79
2 198 79
3 198 79
0 199 79
1 199 79
2 199 79
3 199 79
0 132 80
1 132 80
2 132 80
3 132 80
0 133 80
1 133 80
2 133 80
3 133 80
0 134 80
1 134 80
2 134 80
3 134 80
0 135 80
1 135 80
2 135 80
3 135 80
0 136 80
1 136 80
2 136 80
3 136 80
0 137 80
1 137 80
2 137 80
3 137 80
0 138 80
1 138 80
2 138 80
3 138 80
0 139 80
1 139 80
2 139 80
3 139 80
0 140 80
1 140 80
2 140 80
3 140 80
0 141 80
1 141 80
2 141 80
3 141 80
0 142 80
1 142 80
2 142 80
3 142 80
0 143 80
1 143 80
2 143 80
3 143 80
0 144 80
1 144 80
2 144 80
3 144 80
0 145 80
1 145 80
2 145 80
3 145 80
0 146 80
1 146 80
2 146 80
3 146 80
0 147 80
1 147 80
2 147 80
3 147 80
0 148 80
1 148 80
2 148 80
3 148 80
0 149 80
1 149 80
2 149 80
3 149 80
0 150 80
1 150 80
2 150 80
3 150 80
0 151 80
1 151 80
2 151 80
3 151 80
0 152 80
1 152 80
2 152 80
3 152 80
0 153 80
1 153 80
2 153 80
3 153 80
0 154 80
1 154 80
2 154 80
3 154 80
0 155 80
1 155 80
2 155 80
3 155 80
0 156 80
1 156 80
2 156 80
3 156 80
0 157 80
1 157 80
2 157 80
3 157 80
0 158 80
1 158 80
2 158 80
3 158 80
0 159 80
1 159 80
2 159 80
3 159 80
0 160 80
1 160 80
2 160 80
3 160 80
0 161 80
1 161 80
2 161 80
3 161 80
0 162 80
1 162 80
2 162 80
3 162 80
0 163 80
1 163 80
2 163 80
3 163 80
0 164 80
1 164 80
2 164 80
3 164 80
0 165 80
1 165 80
2 165 80
3 165 80
0 166 80
1 166 80
2 166 80
3 166 80
0 167 80
1 167 80
2 167 80
3 167 80
0 168 80
1 168 80
2 168 80
3 168 80
0 169 80
1 169 80
2 169 80
3 169 80
0 170 80
1 170 80
2 170 80
3 170 80
0 171 80
1 171 80
2 171 80
3 171 80
0 172 80
1 172 80
2 172 80
3 172 80
0 173 80
1 173 80
2 173 80
3 173 80
0 174 80
1 174 80
2 174 80
3 174 80
0 175 80
1 175 80
2 175 80
3 175 80
0 176 80
1 176 80
2 176 80
3 176 80
0 177 80
1 177 80
2 177 80
3 177 80
0 178 80
1 178 80
2 178 80
3 178 80
0 179 80
1 179 80
2 179 80
3 179 80
0 180 80
1 180 80
2 180 80
3 180 80
0 181 80
1 181 80
2 181 80
3 181 80
0 182 80
1 182 80
2 182 80
3 182 80
0 183 80
1 183 80
2 183 80
3 183 80
0 184 80
1 184 80
2 184 80
3 184 80
0 185 80
1 185 80
2 185 80
3 185 80
0 186 80
1 186 80
2 186 80
3 186 80
0 187 80
1 187 80
2 187 80
3 187 80
0 188 80
1 188 80
2 188 80
3 188 80
0 189 80
1 189 80
2 189 80
3 189 80
0 190 80
1 190 80
2 190 80
3 190 80
0 191 80
1 191 80
2 191 80
3 191 80
0 192 80
1 192 80
2 192 80
3 192 80
0 193 80
1 193 80
2 193 80
3 193 80
0 194 80
1 194 80
2 194 80
3 194 80
0 195 80
1 195 80
2 195 80
3 195 80
0 196 80
1 196 80
2 196 80
3 196 80
0 197 80
1 197 80
2 197 80
3 197 80
0 198 80
1 198 80
2 198 80
3 198 80
0 199 80
1 199 80
2 199 80
3 199 80
0 132 81
1 132 81
2 132 81
3 132 81
0 133 81
1 133 81
2 133 81
3 133 81
0 134 81
1 134 81
2 134 81
3 134 81
0 135 81
1 135 81
2 135 81
3 135 81
0 136 81
1 136 81
2 136 81
3 136 81
0 137 81
1 137 81
2 137 81
3 137 81
0 138 81
1 138 81
2 138 81
3 138 81
0 139 81
1 139 81
2 139 81
3 139 81
0 140 81
1 140 81
2 140 81
3 140 81
0 141 81
1 141 81
2 141 81
3 141 81
0 142 81
1 142 81
2 142 81
3 142 81
0 143 81
1 143 81
2 143 81
3 143 81
0 144 81
1 144 81
2 144 81
3 144 81
0 145 81
1 145 81
2 145 81
3 145 81
0 146 81
1 146 81
2 146 81
3 146 81
0 147 81
1 147 81
2 147 81
3 147 81
0 148 81
1 148 81
2 148 81
3 148 81
0 149 81
1 149 81
2 149 81
3 149 81
0 150 81
1 150 81
2 150 81
3 150 81
0 151 81
1 151 81
2 151 81
3 151 81
0 152 81
1 152 81
2 152 81
3 152 81
0 153 81
1 153 81
2 153 81
3 153 81
0 154 81
1 154 81
2 154 81
3 154 81
0 155 81
1 155 81
2 155 81
3 155 81
0 156 81
1 156 81
2 156 81
3 156 81
0 157 81
1 157 81
2 157 81
3 157 81
0 158 81
1 158 81
2 158 81
3 158 81
0 159 81
1 159 81
2 159 81
3 159 81
0 160 81
1 160 81
2 160 81
3 160 81
0 161 81
1 161 81
2 161 81
3 161 81
0 162 81
1 162 81
2 162 81
3 162 81
0 163 81
1 163 81
2 163 81
3 163 81
0 164 81
1 164 81
2 164 81
3 164 81
0 165 81
1 165 81
2 165 81
3 165 81
0 166 81
1 166 81
2 166 81
3 166 81
0 167 81
1 167 81
2 167 81
3 167 81
0 168 81
1 168 81
2 168 81
3 168 81
0 169 81
1 169 81
2 169 81
3 169 81
0 170 81
1 170 81
2 170 81
3 170 81
0 171 81
1 171 81
2 171 81
3 171 81
0 172 81
1 172 81
2 172 81
3 172 81
0 173 81
1 173 81
2 173 81
3 173 81
0 174 81
1 174 81
2 174 81
3 174 81
0 175 81
1 175 81
2 175 81
3 175 81
0 176 81
1 176 81
2 176 81
3 176 81
0 177 81
1 177 81
2 177 81
3 177 81
0 178 81
1 178 81
2 178 81
3 178 81
0 179 81
1 179 81
2 179 81
3 179 81
0 180 81
1 180 81
2 180 81
3 180 81
0 181 81
1 181 81
2 181 81
3 181 81
0 182 81
1 182 81
2 182 81
3 182 81
0 183 81
1 183 81
2 183 81
3 183 81
0 184 81
1 184 81
2 184 81
3 184 81
0 185 81
1 185 81
2 185 81
3 185 81
0 186 81
1 186 81
2 186 81
3 186 81
0 187 81
1 187 81
2 187 81
3 187 81
0 188 81
1 188 81
2 188 81
3 188 81
0 189 81
1 189 81
2 189 81
3 189 81
0 190 81
1 190 81
2 190 81
3 190 81
0 191 81
1 191 81
2 191 81
3 191 81
0 192 81
1 192 81
2 192 81
3 192 81
0 193 81
1 193 81
2 193 81
3 193 81
0 194 81
1 194 81
2 194 81
3 194 81
0 195 81
1 195 81
2 195 81
3 195 81
0 196 81
1 196 81
2 196 81
3 196 81
0 197 81
1 197 81
2 197 81
3 197 81
0 198 81
1 198 81
2 198 81
3 198 81
0 199 81
1 199 81
2 199 81
3 199 81
0 132 82
1 132 82
2 132 82
3 132 82
0 133 82
1 133 82
2 133 82
3 133 82
0 134 82
1 134 82
2 134 82
3 134 82
0 135 82
1 135 82
2 135 82
3 135 82
0 136 82
1 136 82
2 136 82
3 136 82
0 137 82
1 137 82
2 137 82
3 137 82
0 138 82
1 138 82
2 138 82
3 138 82
0 139 82
1 139 82
2 139 82
3 139 82
0 140 82
1 140 82
2 140 82
3 140 82
0 141 82
1 141 82
2 141 82
3 141 82
0 142 82
1 142 82
2 142 82
3 142 82
0 143 82
1 143 82
2 143 82
3 143 82
0 144 82
1 144 82
2 144 82
3 144 82
0 145 82
1 145 82
2 145 82
3 145 82
0 146 82
1 146 82
2 146 82
3 146 82
0 147 82
1 147 82
2 147 82
3 147 82
0 148 82
1 148 82
2 148 82
3 148 82
0 149 82
1 149 82
2 149 82
3 149 82
0 150 82
1 150 82
2 150 82
3 150 82
0 151 82
1 151 82
2 151 82
3 151 82
0 152 82
1 152 82
2 152 82
3 152 82
0 153 82
1 153 82
2 153 82
3 153 82
0 154 82
1 154 82
2 154 82
3 154 82
0 155 82
1 155 82
2 155 82
3 155 82
0 156 82
1 156 82
2 156 82
3 156 82
0 157 82
1 157 82
2 157 82
3 157 82
0 158 82
1 158 82
2 158 82
3 158 82
0 159 82
1 159 82
2 159 82
3 159 82
0 160 82
1 160 82
2 160 82
3 160 82
0 161 82
1 161 82
2 161 82
3 161 82
0 162 82
1 162 82
2 162 82
3 162 82
0 163 82
1 163 82
2 163 82
3 163 82
0 164 82
1 164 82
2 164 82
3 164 82
0 165 82
1 165 82
2 165 82
3 165 82
0 166 82
1 166 82
2 166 82
3 166 82
0 167 82
1 167 82
2 167 82
3 167 82
0 168 82
1 168 82
2 168 82
3 168 82
0 169 82
1 169 82
2 169 82
3 169 82
0 170 82
1 170 82
2 170 82
3 170 82
0 171 82
1 171 82
2 171 82
3 171 82
0 172 82
1 172 82
2 172 82
3 172 82
0 173 82
1 173 82
2 173 82
3 173 82
0 174 82
1 174 82
2 174 82
3 174 82
0 175 82
1 175 82
2 175 82
3 175 82
0 176 82
1 176 82
2 176 82
3 176 82
0 177 82
1 177 82
2 177 82
3 177 82
0 178 82
1 178 82
2 178 82
3 178 82
0 179 82
1 179 82
2 179 82
3 179 82
0 180 82
1 180 82
2 180 82
3 180 82
0 181 82
1 181 82
2 181 82
3 181 82
0 182 82
1 182 82
2 182 82
3 182 82
0 183 82
1 183 82
2 183 82
3 183 82
0 184 82
1 184 82
2 184 82
3 184 82
0 185 82
1 185 82
2 185 82
3 185 82
0 186 82
1 186 82
2 186 82
3 186 82
0 187 82
1 187 82
2 187 82
3 187 82
0 188 82
1 188 82
2 188 82
3 188 82
0 189 82
1 189 82
2 189 82
3 189 82
0 190 82
1 190 82
2 190 82
3 190 82
0 191 82
1 191 82
2 191 82
3 191 82
0 192 82
1 192 82
2 192 82
3 192 82
0 193 82
1 193 82
2 193 82
3 193 82
0 194 82
1 194 82
2 194 82
3 194 82
0 195 82
1 195 82
2 195 82
3 195 82
0 196 82
1 196 82
2 196 82
3 196 82
0 197 82
1 197 82
2 197 82
3 197 82
0 198 82
1 198 82
2 198 82
3 198 82
0 199 82
1 199 82
2 199 82
3 199 82
0 132 83
1 132 83
2 132 83
3 132 83
0 133 83
1 133 83
2 133 83
3 133 83
0 134 83
1 134 83
2 134 83
3 134 83
0 135 83
1 135 83
2 135 83
3 135 83
0 136 83
1 136 83
2 136 83
3 136 83
0 137 83
1 137 83
2 137 83
3 137 83
0 138 83
1 138 83
2 138 83
3 138 83
0 139 83
1 139 83
2 139 83
3 139 83
0 140 83
1 140 83
2 140 83
3 140 83
0 141 83
1 141 83
2 141 83
3 141 83
0 142 83
1 142 83
2 142 83
3 142 83
0 143 83
1 143 83
2 143 83
3 143 83
0 144 83
1 144 83
2 144 83
3 144 83
0 145 83
1 145 83
2 145 83
3 145 83
0 146 83
1 146 83
2 146 83
3 146 83
0 147 83
1 147 83
2 147 83
3 147 83
0 148 83
1 148 83
2 148 83
3 148 83
0 149 83
1 149 83
2 149 83
3 149 83
0 150 83
1 150 83
2 150 83
3 150 83
0 151 83
1 151 83
2 151 83
3 151 83
0 152 83
1 152 83
2 152 83
3 152 83
0 153 83
1 153 83
2 153 83
3 153 83
0 154 83
1 154 83
2 154 83
3 154 83
0 155 83
1 155 83
2 155 83
3 155 83
0 156 83
1 156 83
2 156 83
3 156 83
0 157 83
1 157 83
2 157 83
3 157 83
0 158 83
1 158 83
2 158 83
3 158 83
0 159 83
1 159 83
2 159 83
3 159 83
0 160 83
1 160 83
2 160 83
3 160 83
0 161 83
1 161 83
2 161 83
3 161 83
0 162 83
1 162 83
2 162 83
3 162 83
0 163 83
1 163 83
2 163 83
3 163 83
0 164 83
1 164 83
2 164 83
3 164 83
0 165 83
1 165 83
2 165 83
3 165 83
0 166 83
1 166 83
2 166 83
3 166 83
0 167 83
1 167 83
2 167 83
3 167 83
0 168 83
1 168 83
2 168 83
3 168 83
0 169 83
1 169 83
2 169 83
3 169 83
0 170 83
1 170 83
2 170 83
3 170 83
0 171 83
1 171 83
2 171 83
3 171 83
0 172 83
1 172 83
2 172 83
3 172 83
0 173 83
1 173 83
2 173 83
3 173 83
0 174 83
1 174 83
2 174 83
3 174 83
0 175 83
1 175 83
2 175 83
3 175 83
0 176 83
1 176 83
2 176 83
3 176 83
0 177 83
1 177 83
2 177 83
3 177 83
0 178 83
1 178 83
2 178 83
3 178 83
0 179 83
1 179 83
2 179 83
3 179 83
0 180 83
1 180 83
2 180 83
3 180 83
0 181 83
1 181 83
2 181 83
3 181 83
0 182 83
1 182 83
2 182 83
3 182 83
0 183 83
1 183 83
2 183 83
3 183 83
0 184 83
1 184 83
2 184 83
3 184 83
0 185 83
1 185 83
2 185 83
3 185 83
0 186 83
1 186 83
2 186 83
3 186 83
0 187 83
1 187 83
2 187 83
3 187 83
0 188 83
1 188 83
2 188 83
3 188 83
0 189 83
1 189 83
2 189 83
3 189 83
0 190 83
1 190 83
2 190 83
3 190 83
0 191 83
1 191 83
2 191 83
3 191 83
0 192 83
1 192 83
2 192 83
3 192 83
0 193 83
1 193 83
2 193 83
3 193 83
0 194 83
1 194 83
2 194 83
3 194 83
0 195 83
1 195 83
2 195 83
3 195 83
0 196 83
1 196 83
2 196 83
3 196 83
0 197 83
1 197 83
2 197 83
3 197 83
0 198 83
1 198 83
2 198 83
3 198 83
0 199 83
1 199 83
2 199 83
3 199 83
0 132 84
1 132 84
2 132 84
3 132 84
0 133 84
1 133 84
2 133 84
3 133 84
0 134 84
1 134 84
2 134 84
3 134 84
0 135 84
1 135 84
2 135 84
3 135 84
0 136 84
1 136 84
2 136 84
3 136 84
0 137 84
1 137 84
2 137 84
3 137 84
0 138 84
1 138 84
2 138 84
3 138 84
0 139 84
1 139 84
2 139 84
3 139 84
0 140 84
1 140 84
2 140 84
3 140 84
0 141 84
1 141 84
2 141 84
3 141 84
0 142 84
1 142 84
2 142 84
3 142 84
0 143 84
1 143 84
2 143 84
3 143 84
0 144 84
1 144 84
2 144 84
3 144 84
0 145 84
1 145 84
2 145 84
3 145 84
0 146 84
1 146 84
2 146 84
3 146 84
0 147 84
1 147 84
2 147 84
3 147 84
0 148 84
1 148 84
2 148 84
3 148 84
0 149 84
1 149 84
2 149 84
3 149 84
0 150 84
1 150 84
2 150 84
3 150 84
0 151 84
1 151 84
2 151 84
3 151 84
0 152 84
1 152 84
2 152 84
3 152 84
0 153 84
1 153 84
2 153 84
3 153 84
0 154 84
1 154 84
2 154 84
3 154 84
0 155 84
1 155 84
2 155 84
3 155 84
0 156 84
1 156 84
2 156 84
3 156 84
0 157 84
1 157 84
2 157 84
3 157 84
0 158 84
1 158 84
2 158 84
3 158 84
0 159 84
1 159 84
2 159 84
3 159 84
0 160 84
1 160 84
2 160 84
3 160 84
0 161 84
1 161 84
2 161 84
3 161 84
0 162 84
1 162 84
2 162 84
3 162 84
0 163 84
1 163 84
2 163 84
3 163 84
0 164 84
1 164 84
2 164 84
3 164 84
0 165 84
1 165 84
2 165 84
3 165 84
0 166 84
1 166 84
2 166 84
3 166 84
0 167 84
1 167 84
2 167 84
3 167 84
0 168 84
1 168 84
2 168 84
3 168 84
0 169 84
1 169 84
2 169 84
3 169 84
0 170 84
1 170 84
2 170 84
3 170 84
0 171 84
1 171 84
2 171 84
3 171 84
0 172 84
1 172 84
2 172 84
3 172 84
0 173 84
1 173 84
2 173 84
3 173 84
0 174 84
1 174 84
2 174 84
3 174 84
0 175 84
1 175 84
2 175 84
3 175 84
0 176 84
1 176 84
2 176 84
3 176 84
0 177 84
1 177 84
2 177 84
3 177 84
0 178 84
1 178 84
2 178 84
3 178 84
0 179 84
1 179 84
2 179 84
3 179 84
0 180 84
1 180 84
2 180 84
3 180 84
0 181 84
1 181 84
2 181 84
3 181 84
0 182 84
1 182 84
2 182 84
3 182 84
0 183 84
1 183 84
2 183 84
3 183 84
0 184 84
1 184 84
2 184 84
3 184 84
0 185 84
1 185 84
2 185 84
3 185 84
0 186 84
1 186 84
2 186 84
3 186 84
0 187 84
1 187 84
2 187 84
3 187 84
0 188 84
1 188 84
2 188 84
3 188 84
0 189 84
1 189 84
2 189 84
3 189 84
0 190 84
1 190 84
2 190 84
3 190 84
0 191 84
1 191 84
2 191 84
3 191 84
0 192 84
1 192 84
2 192 84
3 192 84
0 193 84
1 193 84
2 193 84
3 193 84
0 194 84
1 194 84
2 194 84
3 194 84
0 195 84
1 195 84
2 195 84
3 195 84
0 196 84
1 196 84
2 196 84
3 196 84
0 197 84
1 197 84
2 197 84
3 197 84
0 198 84
1 198 84
2 198 84
3 198 84
0 199 84
1 199 84
2 199 84
3 199 84
0 132 85
1 132 85
2 132 85
3 132 85
0 133 85
1 133 85
2 133 85
3 133 85
0 134 85
1 134 85
2 134 85
3 134 85
0 135 85
1 135 85
2 135 85
3 135 85
0 136 85
1 136 85
2 136 85
3 136 85
0 137 85
1 137 85
2 137 85
3 137 85
0 138 85
1 138 85
2 138 85
3 138 85
0 139 85
1 139 85
2 139 85
3 139 85
0 140 85
1 140 85
2 140 85
3 140 85
0 141 85
1 141 85
2 141 85
3 141 85
0 142 85
1 142 85
2 142 85
3 142 85
0 143 85
1 143 85
2 143 85
3 143 85
0 144 85
1 144 85
2 144 85
3 144 85
0 145 85
1 145 85
2 145 85
3 145 85
0 146 85
1 146 85
2 146 85
3 146 85
0 147 85
1 147 85
2 147 85
3 147 85
0 148 85
1 148 85
2 148 85
3 148 85
0 149 85
1 149 85
2 149 85
3 149 85
0 150 85
1 150 85
2 150 85
3 150 85
0 151 85
1 151 85
2 151 85
3 151 85
0 152 85
1 152 85
2 152 85
3 152 85
0 153 85
1 153 85
2 153 85
3 153 85
0 154 85
1 154 85
2 154 85
3 154 85
0 155 85
1 155 85
2 155 85
3 155 85
0 156 85
1 156 85
2 156 85
3 156 85
0 157 85
1 157 85
2 157 85
3 157 85
0 158 85
1 158 85
2 158 85
3 158 85
0 159 85
1 159 85
2 159 85
3 159 85
0 160 85
1 160 85
2 160 85
3 160 85
0 161 85
1 161 85
2 161 85
3 161 85
0 162 85
1 162 85
2 162 85
3 162 85
0 163 85
1 163 85
2 163 85
3 163 85
0 164 85
1 164 85
2 164 85
3 164 85
0 165 85
1 165 85
2 165 85
3 165 85
0 166 85
1 166 85
2 166 85
3 166 85
0 167 85
1 167 85
2 167 85
3 167 85
0 168 85
1 168 85
2 168 85
3 168 85
0 169 85
1 169 85
2 169 85
3 169 85
0 170 85
1 170 85
2 170 85
3 170 85
0 171 85
1 171 85
2 171 85
3 171 85
0 172 85
1 172 85
2 172 85
3 172 85
0 173 85
1 173 85
2 173 85
3 173 85
0 174 85
1 174 85
2 174 85
3 174 85
0 175 85
1 175 85
2 175 85
3 175 85
0 176 85
1 176 85
2 176 85
3 176 85
0 177 85
1 177 85
2 177 85
3 177 85
0 178 85
1 178 85
2 178 85
3 178 85
0 179 85
1 179 85
2 179 85
3 179 85
0 180 85
1 180 85
2 180 85
3 180 85
0 181 85
1 181 85
2 181 85
3 181 85
0 182 85
1 182 85
2 182 85
3 182 85
0 183 85
1 183 85
2 183 85
3 183 85
0 184 85
1 184 85
2 184 85
3 184 85
0 185 85
1 185 85
2 185 85
3 185 85
0 186 85
1 186 85
2 186 85
3 186 85
0 187 85
1 187 85
2 187 85
3 187 85
0 188 85
1 188 85
2 188 85
3 188 85
0 189 85
1 189 85
2 189 85
3 189 85
0 190 85
1 190 85
2 190 85
3 190 85
0 191 85
1 191 85
2 191 85
3 191 85
0 192 85
1 192 85
2 192 85
3 192 85
0 193 85
1 193 85
2 193 85
3 193 85
0 194 85
1 194 85
2 194 85
3 194 85
0 195 85
1 195 85
2 195 85
3 195 85
0 196 85
1 196 85
2 196 85
3 196 85
0 197 85
1 197 85
2 197 85
3 197 85
0 198 85
1 198 85
2 198 85
3 198 85
0 199 85
1 199 85
2 199 85
3 199 85
0 132 86
1 132 86
2 132 86
3 132 86
0 133 86
1 133 86
2 133 86
3 133 86
0 134 86
1 134 86
2 134 86
3 134 86
0 135 86
1 135 86
2 135 86
3 135 86
0 136 86
1 136 86
2 136 86
3 136 86
0 137 86
1 137 86
2 137 86
3 137 86
0 138 86
1 138 86
2 138 86
3 138 86
0 139 86
1 139 86
2 139 86
3 139 86
0 140 86
1 140 86
2 140 86
3 140 86
0 141 86
1 141 86
2 141 86
3 141 86
0 142 86
1 142 86
2 142 86
3 142 86
0 143 86
1 143 86
2 143 86
3 143 86
0 144 86
1 144 86
2 144 86
3 144 86
0 145 86
1 145 86
2 145 86
3 145 86
0 146 86
1 146 86
2 146 86
3 146 86
0 147 86
1 147 86
2 147 86
3 147 86
0 148 86
1 148 86
2 148 86
3 148 86
0 149 86
1 149 86
2 149 86
3 149 86
0 150 86
1 150 86
2 150 86
3 150 86
0 151 86
1 151 86
2 151 86
3 151 86
0 152 86
1 152 86
2 152 86
3 152 86
0 153 86
1 153 86
2 153 86
3 153 86
0 154 86
1 154 86
2 154 86
3 154 86
0 155 86
1 155 86
2 155 86
3 155 86
0 156 86
1 156 86
2 156 86
3 156 86
0 157 86
1 157 86
2 157 86
3 157 86
0 158 86
1 158 86
2 158 86
3 158 86
0 159 86
1 159 86
2 159 86
3 159 86
0 160 86
1 160 86
2 160 86
3 160 86
0 161 86
1 161 86
2 161 86
3 161 86
0 162 86
1 162 86
2 162 86
3 162 86
0 163 86
1 163 86
2 163 86
3 163 86
0 164 86
1 164 86
2 164 86
3 164 86
0 165 86
1 165 86
2 165 86
3 165 86
0 166 86
1 166 86
2 166 86
3 166 86
0 167 86
1 167 86
2 167 86
3 167 86
0 168 86
1 168 86
2 168 86
3 168 86
0 169 86
1 169 86
2 169 86
3 169 86
0 170 86
1 170 86
2 170 86
3 170 86
0 171 86
1 171 86
2 171 86
3 171 86
0 172 86
1 172 86
2 172 86
3 172 86
0 173 86
1 173 86
2 173 86
3 173 86
0 174 86
1 174 86
2 174 86
3 174 86
0 175 86
1 175 86
2 175 86
3 175 86
0 176 86
1 176 86
2 176 86
3 176 86
0 177 86
1 177 86
2 177 86
3 177 86
0 178 86
1 178 86
2 178 86
3 178 86
0 179 86
1 179 86
2 179 86
3 179 86
0 180 86
1 180 86
2 180 86
3 180 86
0 181 86
1 181 86
2 181 86
3 181 86
0 182 86
1 182 86
2 182 86
3 182 86
0 183 86
1 183 86
2 183 86
3 183 86
0 184 86
1 184 86
2 184 86
3 184 86
0 185 86
1 185 86
2 185 86
3 185 86
0 186 86
1 186 86
2 186 86
3 186 86
0 187 86
1 187 86
2 187 86
3 187 86
0 188 86
1 188 86
2 188 86
3 188 86
0 189 86
1 189 86
2 189 86
3 189 86
0 190 86
1 190 86
2 190 86
3 190 86
0 191 86
1 191 86
2 191 86
3 191 86
0 192 86
1 192 86
2 192 86
3 192 86
0 193 86
1 193 86
2 193 86
3 193 86
0 194 86
1 194 86
2 194 86
3 194 86
0 195 86
1 195 86
2 195 86
3 195 86
0 196 86
1 196 86
2 196 86
3 196 86
0 197 86
1 197 86
2 197 86
3 197 86
0 198 86
1 198 86
2 198 86
3 198 86
0 199 86
1 199 86
2 199 86
3 199 86
0 132 87
1 132 87
2 132 87
3 132 87
0 133 87
1 133 87
2 133 87
3 133 87
0 134 87
1 134 87
2 134 87
3 134 87
0 135 87
1 135 87
2 135 87
3 135 87
0 136 87
1 136 87
2 136 87
3 136 87
0 137 87
1 137 87
2 137 87
3 137 87
0 138 87
1 138 87
2 138 87
3 138 87
0 139 87
1 139 87
2 139 87
3 139 87
0 140 87
1 140 87
2 140 87
3 140 87
0 141 87
1 141 87
2 141 87
3 141 87
0 142 87
1 142 87
2 142 87
3 142 87
0 143 87
1 143 87
2 143 87
3 143 87
0 144 87
1 144 87
2 144 87
3 144 87
0 145 87
1 145 87
2 145 87
3 145 87
0 146 87
1 146 87
2 146 87
3 146 87
0 147 87
1 147 87
2 147 87
3 147 87
0 148 87
1 148 87
2 148 87
3 148 87
0 149 87
1 149 87
2 149 87
3 149 87
0 150 87
1 150 87
2 150 87
3 150 87
0 151 87
1 151 87
2 151 87
3 151 87
0 152 87
1 152 87
2 152 87
3 152 87
0 153 87
1 153 87
2 153 87
3 153 87
0 154 87
1 154 87
2 154 87
3 154 87
0 155 87
1 155 87
2 155 87
3 155 87
0 156 87
1 156 87
2 156 87
3 156 87
0 157 87
1 157 87
2 157 87
3 157 87
0 158 87
1 158 87
2 158 87
3 158 87
0 159 87
1 159 87
2 159 87
3 159 87
0 160 87
1 160 87
2 160 87
3 160 87
0 161 87
1 161 87
2 161 87
3 161 87
0 162 87
1 162 87
2 162 87
3 162 87
0 163 87
1 163 87
2 163 87
3 163 87
0 164 87
1 164 87
2 164 87
3 164 87
0 165 87
1 165 87
2 165 87
3 165 87
0 166 87
1 166 87
2 166 87
3 166 87
0 167 87
1 167 87
2 167 87
3 167 87
0 168 87
1 168 87
2 168 87
3 168 87
0 169 87
1 169 87
2 169 87
3 169 87
0 170 87
1 170 87
2 170 87
3 170 87
0 171 87
1 171 87
2 171 87
3 171 87
0 172 87
1 172 87
2 172 87
3 172 87
0 173 87
1 173 87
2 173 87
3 173 87
0 174 87
1 174 87
2 174 87
3 174 87
0 175 87
1 175 87
2 175 87
3 175 87
0 176 87
1 176 87
2 176 87
3 176 87
0 177 87
1 177 87
2 177 87
3 177 87
0 178 87
1 178 87
2 178 87
3 178 87
0 179 87
1 179 87
2 179 87
3 179 87
0 180 87
1 180 87
2 180 87
3 180 87
0 181 87
1 181 87
2 181 87
3 181 87
0 182 87
1 182 87
2 182 87
3 182 87
0 183 87
1 183 87
2 183 87
3 183 87
0 184 87
1 184 87
2 184 87
3 184 87
0 185 87
1 185 87
2 185 87
3 185 87
0 186 87
1 186 87
2 186 87
3 186 87
0 187 87
1 187 87
2 187 87
3 187 87
0 188 87
1 188 87
2 188 87
3 188 87
0 189 87
1 189 87
2 189 87
3 189 87
0 190 87
1 190 87
2 190 87
3 190 87
0 191 87
1 191 87
2 191 87
3 191 87
0 192 87
1 192 87
2 192 87
3 192 87
0 193 87
1 193 87
2 193 87
3 193 87
0 194 87
1 194 87
2 194 87
3 194 87
0 195 87
1 195 87
2 195 87
3 195 87
0 196 87
1 196 87
2 196 87
3 196 87
0 197 87
1 197 87
2 197 87
3 197 87
0 198 87
1 198 87
2 198 87
3 198 87
0 199 87
1 199 87
2 199 87
3 199 87
0 132 88
1 132 88
2 132 88
3 132 88
0 133 88
1 133 88
2 133 88
3 133 88
0 134 88
1 134 88
2 134 88
3 134 88
0 135 88
1 135 88
2 135 88
3 135 88
0 136 88
1 136 88
2 136 88
3 136 88
0 137 88
1 137 88
2 137 88
3 137 88
0 138 88
1 138 88
2 138 88
3 138 88
0 139 88
1 139 88
2 139 88
3 139 88
0 140 88
1 140 88
2 140 88
3 140 88
0 141 88
1 141 88
2 141 88
3 141 88
0 142 88
1 142 88
2 142 88
3 142 88
0 143 88
1 143 88
2 143 88
3 143 88
0 144 88
1 144 88
2 144 88
3 144 88
0 145 88
1 145 88
2 145 88
3 145 88
0 146 88
1 146 88
2 146 88
3 146 88
0 147 88
1 147 88
2 147 88
3 147 88
0 148 88
1 148 88
2 148 88
3 148 88
0 149 88
1 149 88
2 149 88
3 149 88
0 150 88
1 150 88
2 150 88
3 150 88
0 151 88
1 151 88
2 151 88
3 151 88
0 152 88
1 152 88
2 152 88
3 152 88
0 153 88
1 153 88
2 153 88
3 153 88
0 154 88
1 154 88
2 154 88
3 154 88
0 155 88
1 155 88
2 155 88
3 155 88
0 156 88
1 156 88
2 156 88
3 156 88
0 157 88
1 157 88
2 157 88
3 157 88
0 158 88
1 158 88
2 158 88
3 158 88
0 159 88
1 159 88
2 159 88
3 159 88
0 160 88
1 160 88
2 160 88
3 160 88
0 161 88
1 161 88
2 161 88
3 161 88
0 162 88
1 162 88
2 162 88
3 162 88
0 163 88
1 163 88
2 163 88
3 163 88
0 164 88
1 164 88
2 164 88
3 164 88
0 165 88
1 165 88
2 165 88
3 165 88
0 166 88
1 166 88
2 166 88
3 166 88
0 167 88
1 167 88
2 167 88
3 167 88
0 168 88
1 168 88
2 168 88
3 168 88
0 169 88
1 169 88
2 169 88
3 169 88
0 170 88
1 170 88
2 170 88
3 170 88
0 171 88
1 171 88
2 171 88
3 171 88
0 172 88
1 172 88
2 172 88
3 172 88
0 173 88
1 173 88
2 173 88
3 173 88
0 174 88
1 174 88
2 174 88
3 174 88
0 175 88
1 175 88
2 175 88
3 175 88
0 176 88
1 176 88
2 176 88
3 176 88
0 177 88
1 177 88
2 177 88
3 177 88
0 178 88
1 178 88
2 178 88
3 178 88
0 179 88
1 179 88
2 179 88
3 179 88
0 180 88
1 180 88
2 180 88
3 180 88
0 181 88
1 181 88
2 181 88
3 181 88
0 182 88
1 182 88
2 182 88
3 182 88
0 183 88
1 183 88
2 183 88
3 183 88
0 184 88
1 184 88
2 184 88
3 184 88
0 185 88
1 185 88
2 185 88
3 185 88
0 186 88
1 186 88
2 186 88
3 186 88
0 187 88
1 187 88
2 187 88
3 187 88
0 188 88
1 188 88
2 188 88
3 188 88
0 189 88
1 189 88
2 189 88
3 189 88
0 190 88
1 190 88
2 190 88
3 190 88
0 191 88
1 191 88
2 191 88
3 191 88
0 192 88
1 192 88
2 192 88
3 192 88
0 193 88
1 193 88
2 193 88
3 193 88
0 194 88
1 194 88
2 194 88
3 194 88
0 195 88
1 195 88
2 195 88
3 195 88
0 196 88
1 196 88
2 196 88
3 196 88
0 197 88
1 197 88
2 197 88
3 197 88
0 198 88
1 198 88
2 198 88
3 198 88
0 199 88
1 199 88
2 199 88
3 199 88
0 132 89
1 132 89
2 132 89
3 132 89
0 133 89
1 133 89
2 133 89
3 133 89
0 134 89
1 134 89
2 134 89
3 134 89
0 135 89
1 135 89
2 135 89
3 135 89
0 136 89
1 136 89
2 136 89
3 136 89
0 137 89
1 137 89
2 137 89
3 137 89
0 138 89
1 138 89
2 138 89
3 138 89
0 139 89
1 139 89
2 139 89
3 139 89
0 140 89
1 140 89
2 140 89
3 140 89
0 141 89
1 141 89
2 141 89
3 141 89
0 142 89
1 142 89
2 142 89
3 142 89
0 143 89
1 143 89
2 143 89
3 143 89
0 144 89
1 144 89
2 144 89
3 144 89
0 145 89
1 145 89
2 145 89
3 145 89
0 146 89
1 146 89
2 146 89
3 146 89
0 147 89
1 147 89
2 147 89
3 147 89
0 148 89
1 148 89
2 148 89
3 148 89
0 149 89
1 149 89
2 149 89
3 149 89
0 150 89
1 150 89
2 150 89
3 150 89
0 151 89
1 151 89
2 151 89
3 151 89
0 152 89
1 152 89
2 152 89
3 152 89
0 153 89
1 153 89
2 153 89
3 153 89
0 154 89
1 154 89
2 154 89
3 154 89
0 155 89
1 155 89
2 155 89
3 155 89
0 156 89
1 156 89
2 156 89
3 156 89
0 157 89
1 157 89
2 157 89
3 157 89
0 158 89
1 158 89
2 158 89
3 158 89
0 159 89
1 159 89
2 159 89
3 159 89
0 160 89
1 160 89
2 160 89
3 160 89
0 161 89
1 161 89
2 161 89
3 161 89
0 162 89
1 162 89
2 162 89
3 162 89
0 163 89
1 163 89
2 163 89
3 163 89
0 164 89
1 164 89
2 164 89
3 164 89
0 165 89
1 165 89
2 165 89
3 165 89
0 166 89
1 166 89
2 166 89
3 166 89
0 167 89
1 167 89
2 167 89
3 167 89
0 168 89
1 168 89
2 168 89
3 168 89
0 169 89
1 169 89
2 169 89
3 169 89
0 170 89
1 170 89
2 170 89
3 170 89
0 171 89
1 171 89
2 171 89
3 171 89
0 172 89
1 172 89
2 172 89
3 172 89
0 173 89
1 173 89
2 173 89
3 173 89
0 174 89
1 174 89
2 174 89
3 174 89
0 175 89
1 175 89
2 175 89
3 175 89
0 176 89
1 176 89
2 176 89
3 176 89
0 177 89
1 177 89
2 177 89
3 177 89
0 178 89
1 178 89
2 178 89
3 178 89
0 179 89
1 179 89
2 179 89
3 179 89
0 180 89
1 180 89
2 180 89
3 180 89
0 181 89
1 181 89
2 181 89
3 181 89
0 182 89
1 182 89
2 182 89
3 182 89
0 183 89
1 183 89
2 183 89
3 183 89
0 184 89
1 184 89
2 184 89
3 184 89
0 185 89
1 185 89
2 185 89
3 185 89
0 186 89
1 186 89
2 186 89
3 186 89
0 187 89
1 187 89
2 187 89
3 187 89
0 188 89
1 188 89
2 188 89
3 188 89
0 189 89
1 189 89
2 189 89
3 189 89
0 190 89
1 190 89
2 190 89
3 190 89
0 191 89
1 191 89
2 191 89
3 191 89
0 192 89
1 192 89
2 192 89
3 192 89
0 193 89
1 193 89
2 193 89
3 193 89
0 194 89
1 194 89
2 194 89
3 194 89
0 195 89
1 195 89
2 195 89
3 195 89
0 196 89
1 196 89
2 196 89
3 196 89
0 197 89
1 197 89
2 197 89
3 197 89
0 198 89
1 198 89
2 198 89
3 198 89
0 199 89
1 199 89
2 199 89
3 199 89
0 132 90
1 132 90
2 132 90
3 132 90
0 133 90
1 133 90
2 133 90
3 133 90
0 134 90
1 134 90
2 134 90
3 134 90
0 135 90
1 135 90
2 135 90
3 135 90
0 136 90
1 136 90
2 136 90
3 136 90
0 137 90
1 137 90
2 137 90
3 137 90
0 138 90
1 138 90
2 138 90
3 138 90
0 139 90
1 139 90
2 139 90
3 139 90
0 140 90
1 140 90
2 140 90
3 140 90
0 141 90
1 141 90
2 141 90
3 141 90
0 142 90
1 142 90
2 142 90
3 142 90
0 143 90
1 143 90
2 143 90
3 143 90
0 144 90
1 144 90
2 144 90
3 144 90
0 145 90
1 145 90
2 145 90
3 145 90
0 146 90
1 146 90
2 146 90
3 146 90
0 147 90
1 147 90
2 147 90
3 147 90
0 148 90
1 148 90
2 148 90
3 148 90
0 149 90
1 149 90
2 149 90
3 149 90
0 150 90
1 150 90
2 150 90
3 150 90
0 151 90
1 151 90
2 151 90
3 151 90
0 152 90
1 152 90
2 152 90
3 152 90
0 153 90
1 153 90
2 153 90
3 153 90
0 154 90
1 154 90
2 154 90
3 154 90
0 155 90
1 155 90
2 155 90
3 155 90
0 156 90
1 156 90
2 156 90
3 156 90
0 157 90
1 157 90
2 157 90
3 157 90
0 158 90
1 158 90
2 158 90
3 158 90
0 159 90
1 159 90
2 159 90
3 159 90
0 160 90
1 160 90
2 160 90
3 160 90
0 161 90
1 161 90
2 161 90
3 161 90
0 162 90
1 162 90
2 162 90
3 162 90
0 163 90
1 163 90
2 163 90
3 163 90
0 164 90
1 164 90
2 164 90
3 164 90
0 165 90
1 165 90
2 165 90
3 165 90
0 166 90
1 166 90
2 166 90
3 166 90
0 167 90
1 167 90
2 167 90
3 167 90
0 168 90
1 168 90
2 168 90
3 168 90
0 169 90
1 169 90
2 169 90
3 169 90
0 170 90
1 170 90
2 170 90
3 170 90
0 171 90
1 171 90
2 171 90
3 171 90
0 172 90
1 172 90
2 172 90
3 172 90
0 173 90
1 173 90
2 173 90
3 173 90
0 174 90
1 174 90
2 174 90
3 174 90
0 175 90
1 175 90
2 175 90
3 175 90
0 176 90
1 176 90
2 176 90
3 176 90
0 177 90
1 177 90
2 177 90
3 177 90
0 178 90
1 178 90
2 178 90
3 178 90
0 179 90
1 179 90
2 179 90
3 179 90
0 180 90
1 180 90
2 180 90
3 180 90
0 181 90
1 181 90
2 181 90
3 181 90
0 182 90
1 182 90
2 182 90
3 182 90
0 183 90
1 183 90
2 183 90
3 183 90
0 184 90
1 184 90
2 184 90
3 184 90
0 185 90
1 185 90
2 185 90
3 185 90
0 186 90
1 186 90
2 186 90
3 186 90
0 187 90
1 187 90
2 187 90
3 187 90
0 188 90
1 188 90
2 188 90
3 188 90
0 189 90
1 189 90
2 189 90
3 189 90
0 190 90
1 190 90
2 190 90
3 190 90
0 191 90
1 191 90
2 191 90
3 191 90
0 192 90
1 192 90
2 192 90
3 192 90
0 193 90
1 193 90
2 193 90
3 193 90
0 194 90
1 194 90
2 194 90
3 194 90
0 195 90
1 195 90
2 195 90
3 195 90
0 196 90
1 196 90
2 196 90
3 196 90
0 197 90
1 197 90
2 197 90
3 197 90
0 198 90
1 198 90
2 198 90
3 198 90
0 199 90
1 199 90
2 199 90
3 199 90
0 132 91
1 132 91
2 132 91
3 132 91
0 133 91
1 133 91
2 133 91
3 133 91
0 134 91
1 134 91
2 134 91
3 134 91
0 135 91
1 135 91
2 135 91
3 135 91
0 136 91
1 136 91
2 136 91
3 136 91
0 137 91
1 137 91
2 137 91
3 137 91
0 138 91
1 138 91
2 138 91
3 138 91
0 139 91
1 139 91
2 139 91
3 139 91
0 140 91
1 140 91
2 140 91
3 140 91
0 141 91
1 141 91
2 141 91
3 141 91
0 142 91
1 142 91
2 142 91
3 142 91
0 143 91
1 143 91
2 143 91
3 143 91
0 144 91
1 144 91
2 144 91
3 144 91
0 145 91
1 145 91
2 145 91
3 145 91
0 146 91
1 146 91
2 146 91
3 146 91
0 147 91
1 147 91
2 147 91
3 147 91
0 148 91
1 148 91
2 148 91
3 148 91
0 149 91
1 149 91
2 149 91
3 149 91
0 150 91
1 150 91
2 150 91
3 150 91
0 151 91
1 151 91
2 151 91
3 151 91
0 152 91
1 152 91
2 152 91
3 152 91
0 153 91
1 153 91
2 153 91
3 153 91
0 154 91
1 154 91
2 154 91
3 154 91
0 155 91
1 155 91
2 155 91
3 155 91
0 156 91
1 156 91
2 156 91
3 156 91
0 157 91
1 157 91
2 157 91
3 157 91
0 158 91
1 158 91
2 158 91
3 158 91
0 159 91
1 159 91
2 159 91
3 159 91
0 160 91
1 160 91
2 160 91
3 160 91
0 161 91
1 161 91
2 161 91
3 161 91
0 162 91
1 162 91
2 162 91
3 162 91
0 163 91
1 163 91
2 163 91
3 163 91
0 164 91
1 164 91
2 164 91
3 164 91
0 165 91
1 165 91
2 165 91
3 165 91
0 166 91
1 166 91
2 166 91
3 166 91
0 167 91
1 167 91
2 167 91
3 167 91
0 168 91
1 168 91
2 168 91
3 168 91
0 169 91
1 169 91
2 169 91
3 169 91
0 170 91
1 170 91
2 170 91
3 170 91
0 171 91
1 171 91
2 171 91
3 171 91
0 172 91
1 172 91
2 172 91
3 172 91
0 173 91
1 173 91
2 173 91
3 173 91
0 174 91
1 174 91
2 174 91
3 174 91
0 175 91
1 175 91
2 175 91
3 175 91
0 176 91
1 176 91
2 176 91
3 176 91
0 177 91
1 177 91
2 177 91
3 177 91
0 178 91
1 178 91
2 178 91
3 178 91
0 179 91
1 179 91
2 179 91
3 179 91
0 180 91
1 180 91
2 180 91
3 180 91
0 181 91
1 181 91
2 181 91
3 181 91
0 182 91
1 182 91
2 182 91
3 182 91
0 183 91
1 183 91
2 183 91
3 183 91
0 184 91
1 184 91
2 184 91
3 184 91
0 185 91
1 185 91
2 185 91
3 185 91
0 186 91
1 186 91
2 186 91
3 186 91
0 187 91
1 187 91
2 187 91
3 187 91
0 188 91
1 188 91
2 188 91
3 188 91
0 189 91
1 189 91
2 189 91
3 189 91
0 190 91
1 190 91
2 190 91
3 190 91
0 191 91
1 191 91
2 191 91
3 191 91
0 192 91
1 192 91
2 192 91
3 192 91
0 193 91
1 193 91
2 193 91
3 193 91
0 194 91
1 194 91
2 194 91
3 194 91
0 195 91
1 195 91
2 195 91
3 195 91
0 196 91
1 196 91
2 196 91
3 196 91
0 197 91
1 197 91
2 197 91
3 197 91
0 198 91
1 198 91
2 198 91
3 198 91
0 199 91
1 199 91
2 199 91
3 199 91
0 132 92
1 132 92
2 132 92
3 132 92
0 133 92
1 133 92
2 133 92
3 133 92
0 134 92
1 134 92
2 134 92
3 134 92
0 135 92
1 135 92
2 135 92
3 135 92
0 136 92
1 136 92
2 136 92
3 136 92
0 137 92
1 137 92
2 137 92
3 137 92
0 138 92
1 138 92
2 138 92
3 138 92
0 139 92
1 139 92
2 139 92
3 139 92
0 140 92
1 140 92
2 140 92
3 140 92
0 141 92
1 141 92
2 141 92
3 141 92
0 142 92
1 142 92
2 142 92
3 142 92
0 143 92
1 143 92
2 143 92
3 143 92
0 144 92
1 144 92
2 144 92
3 144 92
0 145 92
1 145 92
2 145 92
3 145 92
0 146 92
1 146 92
2 146 92
3 146 92
0 147 92
1 147 92
2 147 92
3 147 92
0 148 92
1 148 92
2 148 92
3 148 92
0 149 92
1 149 92
2 149 92
3 149 92
0 150 92
1 150 92
2 150 92
3 150 92
0 151 92
1 151 92
2 151 92
3 151 92
0 152 92
1 152 92
2 152 92
3 152 92
0 153 92
1 153 92
2 153 92
3 153 92
0 154 92
1 154 92
2 154 92
3 154 92
0 155 92
1 155 92
2 155 92
3 155 92
0 156 92
1 156 92
2 156 92
3 156 92
0 157 92
1 157 92
2 157 92
3 157 92
0 158 92
1 158 92
2 158 92
3 158 92
0 159 92
1 159 92
2 159 92
3 159 92
0 160 92
1 160 92
2 160 92
3 160 92
0 161 92
1 161 92
2 161 92
3 161 92
0 162 92
1 162 92
2 162 92
3 162 92
0 163 92
1 163 92
2 163 92
3 163 92
0 164 92
1 164 92
2 164 92
3 164 92
0 165 92
1 165 92
2 165 92
3 165 92
0 166 92
1 166 92
2 166 92
3 166 92
0 167 92
1 167 92
2 167 92
3 167 92
0 168 92
1 168 92
2 168 92
3 168 92
0 169 92
1 169 92
2 169 92
3 169 92
0 170 92
1 170 92
2 170 92
3 170 92
0 171 92
1 171 92
2 171 92
3 171 92
0 172 92
1 172 92
2 172 92
3 172 92
0 173 92
1 173 92
2 173 92
3 173 92
0 174 92
1 174 92
2 174 92
3 174 92
0 175 92
1 175 92
2 175 92
3 175 92
0 176 92
1 176 92
2 176 92
3 176 92
0 177 92
1 177 92
2 177 92
3 177 92
0 178 92
1 178 92
2 178 92
3 178 92
0 179 92
1 179 92
2 179 92
3 179 92
0 180 92
1 180 92
2 180 92
3 180 92
0 181 92
1 181 92
2 181 92
3 181 92
0 182 92
1 182 92
2 182 92
3 182 92
0 183 92
1 183 92
2 183 92
3 183 92
0 184 92
1 184 92
2 184 92
3 184 92
0 185 92
1 185 92
2 185 92
3 185 92
0 186 92
1 186 92
2 186 92
3 186 92
0 187 92
1 187 92
2 187 92
3 187 92
0 188 92
1 188 92
2 188 92
3 188 92
0 189 92
1 189 92
2 189 92
3 189 92
0 190 92
1 190 92
2 190 92
3 190 92
0 191 92
1 191 92
2 191 92
3 191 92
0 192 92
1 192 92
2 192 92
3 192 92
0 193 92
1 193 92
2 193 92
3 193 92
0 194 92
1 194 92
2 194 92
3 194 92
0 195 92
1 195 92
2 195 92
3 195 92
0 196 92
1 196 92
2 196 92
3 196 92
0 197 92
1 197 92
2 197 92
3 197 92
0 198 92
1 198 92
2 198 92
3 198 92
0 199 92
1 199 92
2 199 92
3 199 92
0 132 93
1 132 93
2 132 93
3 132 93
0 133 93
1 133 93
2 133 93
3 133 93
0 134 93
1 134 93
2 134 93
3 134 93
0 135 93
1 135 93
2 135 93
3 135 93
0 136 93
1 136 93
2 136 93
3 136 93
0 137 93
1 137 93
2 137 93
3 137 93
0 138 93
1 138 93
2 138 93
3 138 93
0 139 93
1 139 93
2 139 93
3 139 93
0 140 93
1 140 93
2 140 93
3 140 93
0 141 93
1 141 93
2 141 93
3 141 93
0 142 93
1 142 93
2 142 93
3 142 93
0 143 93
1 143 93
2 143 93
3 143 93
0 144 93
1 144 93
2 144 93
3 144 93
0 145 93
1 145 93
2 145 93
3 145 93
0 146 93
1 146 93
2 146 93
3 146 93
0 147 93
1 147 93
2 147 93
3 147 93
0 148 93
1 148 93
2 148 93
3 148 93
0 149 93
1 149 93
2 149 93
3 149 93
0 150 93
1 150 93
2 150 93
3 150 93
0 151 93
1 151 93
2 151 93
3 151 93
0 152 93
1 152 93
2 152 93
3 152 93
0 153 93
1 153 93
2 153 93
3 153 93
0 154 93
1 154 93
2 154 93
3 154 93
0 155 93
1 155 93
2 155 93
3 155 93
0 156 93
1 156 93
2 156 93
3 156 93
0 157 93
1 157 93
2 157 93
3 157 93
0 158 93
1 158 93
2 158 93
3 158 93
0 159 93
1 159 93
2 159 93
3 159 93
0 160 93
1 160 93
2 160 93
3 160 93
0 161 93
1 161 93
2 161 93
3 161 93
0 162 93
1 162 93
2 162 93
3 162 93
0 163 93
1 163 93
2 163 93
3 163 93
0 164 93
1 164 93
2 164 93
3 164 93
0 165 93
1 165 93
2 165 93
3 165 93
0 166 93
1 166 93
2 166 93
3 166 93
0 167 93
1 167 93
2 167 93
3 167 93
0 168 93
1 168 93
2 168 93
3 168 93
0 169 93
1 169 93
2 169 93
3 169 93
0 170 93
1 170 93
2 170 93
3 170 93
0 171 93
1 171 93
2 171 93
3 171 93
0 172 93
1 172 93
2 172 93
3 172 93
0 173 93
1 173 93
2 173 93
3 173 93
0 174 93
1 174 93
2 174 93
3 174 93
0 175 93
1 175 93
2 175 93
3 175 93
0 176 93
1 176 93
2 176 93
3 176 93
0 177 93
1 177 93
2 177 93
3 177 93
0 178 93
1 178 93
2 178 93
3 178 93
0 179 93
1 179 93
2 179 93
3 179 93
0 180 93
1 180 93
2 180 93
3 180 93
0 181 93
1 181 93
2 181 93
3 181 93
0 182 93
1 182 93
2 182 93
3 182 93
0 183 93
1 183 93
2 183 93
3 183 93
0 184 93
1 184 93
2 184 93
3 184 93
0 185 93
1 185 93
2 185 93
3 185 93
0 186 93
1 186 93
2 186 93
3 186 93
0 187 93
1 187 93
2 187 93
3 187 93
0 188 93
1 188 93
2 188 93
3 188 93
0 189 93
1 189 93
2 189 93
3 189 93
0 190 93
1 190 93
2 190 93
3 190 93
0 191 93
1 191 93
2 191 93
3 191 93
0 192 93
1 192 93
2 192 93
3 192 93
0 193 93
1 193 93
2 193 93
3 193 93
0 194 93
1 194 93
2 194 93
3 194 93
0 195 93
1 195 93
2 195 93
3 195 93
0 196 93
1 196 93
2 196 93
3 196 93
0 197 93
1 197 93
2 197 93
3 197 93
0 198 93
1 198 93
2 198 93
3 198 93
0 199 93
1 199 93
2 199 93
3 199 93
0 132 94
1 132 94
2 132 94
3 132 94
0 133 94
1 133 94
2 133 94
3 133 94
0 134 94
1 134 94
2 134 94
3 134 94
0 135 94
1 135 94
2 135 94
3 135 94
0 136 94
1 136 94
2 136 94
3 136 94
0 137 94
1 137 94
2 137 94
3 137 94
0 138 94
1 138 94
2 138 94
3 138 94
0 139 94
1 139 94
2 139 94
3 139 94
0 140 94
1 140 94
2 140 94
3 140 94
0 141 94
1 141 94
2 141 94
3 141 94
0 142 94
1 142 94
2 142 94
3 142 94
0 143 94
1 143 94
2 143 94
3 143 94
0 144 94
1 144 94
2 144 94
3 144 94
0 145 94
1 145 94
2 145 94
3 145 94
0 146 94
1 146 94
2 146 94
3 146 94
0 147 94
1 147 94
2 147 94
3 147 94
0 148 94
1 148 94
2 148 94
3 148 94
0 149 94
1 149 94
2 149 94
3 149 94
0 150 94
1 150 94
2 150 94
3 150 94
0 151 94
1 151 94
2 151 94
3 151 94
0 152 94
1 152 94
2 152 94
3 152 94
0 153 94
1 153 94
2 153 94
3 153 94
0 154 94
1 154 94
2 154 94
3 154 94
0 155 94
1 155 94
2 155 94
3 155 94
0 156 94
1 156 94
2 156 94
3 156 94
0 157 94
1 157 94
2 157 94
3 157 94
0 158 94
1 158 94
2 158 94
3 158 94
0 159 94
1 159 94
2 159 94
3 159 94
0 160 94
1 160 94
2 160 94
3 160 94
0 161 94
1 161 94
2 161 94
3 161 94
0 162 94
1 162 94
2 162 94
3 162 94
0 163 94
1 163 94
2 163 94
3 163 94
0 164 94
1 164 94
2 164 94
3 164 94
0 165 94
1 165 94
2 165 94
3 165 94
0 166 94
1 166 94
2 166 94
3 166 94
0 167 94
1 167 94
2 167 94
3 167 94
0 168 94
1 168 94
2 168 94
3 168 94
0 169 94
1 169 94
2 169 94
3 169 94
0 170 94
1 170 94
2 170 94
3 170 94
0 171 94
1 171 94
2 171 94
3 171 94
0 172 94
1 172 94
2 172 94
3 172 94
0 173 94
1 173 94
2 173 94
3 173 94
0 174 94
1 174 94
2 174 94
3 174 94
0 175 94
1 175 94
2 175 94
3 175 94
0 176 94
1 176 94
2 176 94
3 176 94
0 177 94
1 177 94
2 177 94
3 177 94
0 178 94
1 178 94
2 178 94
3 178 94
0 179 94
1 179 94
2 179 94
3 179 94
0 180 94
1 180 94
2 180 94
3 180 94
0 181 94
1 181 94
2 181 94
3 181 94
0 182 94
1 182 94
2 182 94
3 182 94
0 183 94
1 183 94
2 183 94
3 183 94
0 184 94
1 184 94
2 184 94
3 184 94
0 185 94
1 185 94
2 185 94
3 185 94
0 186 94
1 186 94
2 186 94
3 186 94
0 187 94
1 187 94
2 187 94
3 187 94
0 188 94
1 188 94
2 188 94
3 188 94
0 189 94
1 189 94
2 189 94
3 189 94
0 190 94
1 190 94
2 190 94
3 190 94
0 191 94
1 191 94
2 191 94
3 191 94
0 192 94
1 192 94
2 192 94
3 192 94
0 193 94
1 193 94
2 193 94
3 193 94
0 194 94
1 194 94
2 194 94
3 194 94
0 195 94
1 195 94
2 195 94
3 195 94
0 196 94
1 196 94
2 196 94
3 196 94
0 197 94
1 197 94
2 197 94
3 197 94
0 198 94
1 198 94
2 198 94
3 198 94
0 199 94
1 199 94
2 199 94
3 199 94
0 132 95
1 132 95
2 132 95
3 132 95
0 133 95
1 133 95
2 133 95
3 133 95
0 134 95
1 134 95
2 134 95
3 134 95
0 135 95
1 135 95
2 135 95
3 135 95
0 136 95
1 136 95
2 136 95
3 136 95
0 137 95
1 137 95
2 137 95
3 137 95
0 138 95
1 138 95
2 138 95
3 138 95
0 139 95
1 139 95
2 139 95
3 139 95
0 140 95
1 140 95
2 140 95
3 140 95
0 141 95
1 141 95
2 141 95
3 141 95
0 142 95
1 142 95
2 142 95
3 142 95
0 143 95
1 143 95
2 143 95
3 143 95
0 144 95
1 144 95
2 144 95
3 144 95
0 145 95
1 145 95
2 145 95
3 145 95
0 146 95
1 146 95
2 146 95
3 146 95
0 147 95
1 147 95
2 147 95
3 147 95
0 148 95
1 148 95
2 148 95
3 148 95
0 149 95
1 149 95
2 149 95
3 149 95
0 150 95
1 150 95
2 150 95
3 150 95
0 151 95
1 151 95
2 151 95
3 151 95
0 152 95
1 152 95
2 152 95
3 152 95
0 153 95
1 153 95
2 153 95
3 153 95
0 154 95
1 154 95
2 154 95
3 154 95
0 155 95
1 155 95
2 155 95
3 155 95
0 156 95
1 156 95
2 156 95
3 156 95
0 157 95
1 157 95
2 157 95
3 157 95
0 158 95
1 158 95
2 158 95
3 158 95
0 159 95
1 159 95
2 159 95
3 159 95
0 160 95
1 160 95
2 160 95
3 160 95
0 161 95
1 161 95
2 161 95
3 161 95
0 162 95
1 162 95
2 162 95
3 162 95
0 163 95
1 163 95
2 163 95
3 163 95
0 164 95
1 164 95
2 164 95
3 164 95
0 165 95
1 165 95
2 165 95
3 165 95
0 166 95
1 166 95
2 166 95
3 166 95
0 167 95
1 167 95
2 167 95
3 167 95
0 168 95
1 168 95
2 168 95
3 168 95
0 169 95
1 169 95
2 169 95
3 169 95
0 170 95
1 170 95
2 170 95
3 170 95
0 171 95
1 171 95
2 171 95
3 171 95
0 172 95
1 172 95
2 172 95
3 172 95
0 173 95
1 173 95
2 173 95
3 173 95
0 174 95
1 174 95
2 174 95
3 174 95
0 175 95
1 175 95
2 175 95
3 175 95
0 176 95
1 176 95
2 176 95
3 176 95
0 177 95
1 177 95
2 177 95
3 177 95
0 178 95
1 178 95
2 178 95
3 178 95
0 179 95
1 179 95
2 179 95
3 179 95
0 180 95
1 180 95
2 180 95
3 180 95
0 181 95
1 181 95
2 181 95
3 181 95
0 182 95
1 182 95
2 182 95
3 182 95
0 183 95
1 183 95
2 183 95
3 183 95
0 184 95
1 184 95
2 184 95
3 184 95
0 185 95
1 185 95
2 185 95
3 185 95
0 186 95
1 186 95
2 186 95
3 186 95
0 187 95
1 187 95
2 187 95
3 187 95
0 188 95
1 188 95
2 188 95
3 188 95
0 189 95
1 189 95
2 189 95
3 189 95
0 190 95
1 190 95
2 190 95
3 190 95
0 191 95
1 191 95
2 191 95
3 191 95
0 192 95
1 192 95
2 192 95
3 192 95
0 193 95
1 193 95
2 193 95
3 193 95
0 194 95
1 194 95
2 194 95
3 194 95
0 195 95
1 195 95
2 195 95
3 195 95
0 196 95
1 196 95
2 196 95
3 196 95
0 197 95
1 197 95
2 197 95
3 197 95
0 198 95
1 198 95
2 198 95
3 198 95
0 199 95
1 199 95
2 199 95
3 199 95
0 132 96
1 132 96
2 132 96
3 132 96
0 133 96
1 133 96
2 133 96
3 133 96
0 134 96
1 134 96
2 134 96
3 134 96
0 135 96
1 135 96
2 135 96
3 135 96
0 136 96
1 136 96
2 136 96
3 136 96
0 137 96
1 137 96
2 137 96
3 137 96
0 138 96
1 138 96
2 138 96
3 138 96
0 139 96
1 139 96
2 139 96
3 139 96
0 140 96
1 140 96
2 140 96
3 140 96
0 141 96
1 141 96
2 141 96
3 141 96
0 142 96
1 142 96
2 142 96
3 142 96
0 143 96
1 143 96
2 143 96
3 143 96
0 144 96
1 144 96
2 144 96
3 144 96
0 145 96
1 145 96
2 145 96
3 145 96
0 146 96
1 146 96
2 146 96
3 146 96
0 147 96
1 147 96
2 147 96
3 147 96
0 148 96
1 148 96
2 148 96
3 148 96
0 149 96
1 149 96
2 149 96
3 149 96
0 150 96
1 150 96
2 150 96
3 150 96
0 151 96
1 151 96
2 151 96
3 151 96
0 152 96
1 152 96
2 152 96
3 152 96
0 153 96
1 153 96
2 153 96
3 153 96
0 154 96
1 154 96
2 154 96
3 154 96
0 155 96
1 155 96
2 155 96
3 155 96
0 156 96
1 156 96
2 156 96
3 156 96
0 157 96
1 157 96
2 157 96
3 157 96
0 158 96
1 158 96
2 158 96
3 158 96
0 159 96
1 159 96
2 159 96
3 159 96
0 160 96
1 160 96
2 160 96
3 160 96
0 161 96
1 161 96
2 161 96
3 161 96
0 162 96
1 162 96
2 162 96
3 162 96
0 163 96
1 163 96
2 163 96
3 163 96
0 164 96
1 164 96
2 164 96
3 164 96
0 165 96
1 165 96
2 165 96
3 165 96
0 166 96
1 166 96
2 166 96
3 166 96
0 167 96
1 167 96
2 167 96
3 167 96
0 168 96
1 168 96
2 168 96
3 168 96
0 169 96
1 169 96
2 169 96
3 169 96
0 170 96
1 170 96
2 170 96
3 170 96
0 171 96
1 171 96
2 171 96
3 171 96
0 172 96
1 172 96
2 172 96
3 172 96
0 173 96
1 173 96
2 173 96
3 173 96
0 174 96
1 174 96
2 174 96
3 174 96
0 175 96
1 175 96
2 175 96
3 175 96
0 176 96
1 176 96
2 176 96
3 176 96
0 177 96
1 177 96
2 177 96
3 177 96
0 178 96
1 178 96
2 178 96
3 178 96
0 179 96
1 179 96
2 179 96
3 179 96
0 180 96
1 180 96
2 180 96
3 180 96
0 181 96
1 181 96
2 181 96
3 181 96
0 182 96
1 182 96
2 182 96
3 182 96
0 183 96
1 183 96
2 183 96
3 183 96
0 184 96
1 184 96
2 184 96
3 184 96
0 185 96
1 185 96
2 185 96
3 185 96
0 186 96
1 186 96
2 186 96
3 186 96
0 187 96
1 187 96
2 187 96
3 187 96
0 188 96
1 188 96
2 188 96
3 188 96
0 189 96
1 189 96
2 189 96
3 189 96
0 190 96
1 190 96
2 190 96
3 190 96
0 191 96
1 191 96
2 191 96
3 191 96
0 192 96
1 192 96
2 192 96
3 192 96
0 193 96
1 193 96
2 193 96
3 193 96
0 194 96
1 194 96
2 194 96
3 194 96
0 195 96
1 195 96
2 195 96
3 195 96
0 196 96
1 196 96
2 196 96
3 196 96
0 197 96
1 197 96
2 197 96
3 197 96
0 198 96
1 198 96
2 198 96
3 198 96
0 199 96
1 199 96
2 199 96
3 199 96
0 132 97
1 132 97
2 132 97
3 132 97
0 133 97
1 133 97
2 133 97
3 133 97
0 134 97
1 134 97
2 134 97
3 134 97
0 135 97
1 135 97
2 135 97
3 135 97
0 136 97
1 136 97
2 136 97
3 136 97
0 137 97
1 137 97
2 137 97
3 137 97
0 138 97
1 138 97
2 138 97
3 138 97
0 139 97
1 139 97
2 139 97
3 139 97
0 140 97
1 140 97
2 140 97
3 140 97
0 141 97
1 141 97
2 141 97
3 141 97
0 142 97
1 142 97
2 142 97
3 142 97
0 143 97
1 143 97
2 143 97
3 143 97
0 144 97
1 144 97
2 144 97
3 144 97
0 145 97
1 145 97
2 145 97
3 145 97
0 146 97
1 146 97
2 146 97
3 146 97
0 147 97
1 147 97
2 147 97
3 147 97
0 148 97
1 148 97
2 148 97
3 148 97
0 149 97
1 149 97
2 149 97
3 149 97
0 150 97
1 150 97
2 150 97
3 150 97
0 151 97
1 151 97
2 151 97
3 151 97
0 152 97
1 152 97
2 152 97
3 152 97
0 153 97
1 153 97
2 153 97
3 153 97
0 154 97
1 154 97
2 154 97
3 154 97
0 155 97
1 155 97
2 155 97
3 155 97
0 156 97
1 156 97
2 156 97
3 156 97
0 157 97
1 157 97
2 157 97
3 157 97
0 158 97
1 158 97
2 158 97
3 158 97
0 159 97
1 159 97
2 159 97
3 159 97
0 160 97
1 160 97
2 160 97
3 160 97
0 161 97
1 161 97
2 161 97
3 161 97
0 162 97
1 162 97
2 162 97
3 162 97
0 163 97
1 163 97
2 163 97
3 163 97
0 164 97
1 164 97
2 164 97
3 164 97
0 165 97
1 165 97
2 165 97
3 165 97
0 166 97
1 166 97
2 166 97
3 166 97
0 167 97
1 167 97
2 167 97
3 167 97
0 168 97
1 168 97
2 168 97
3 168 97
0 169 97
1 169 97
2 169 97
3 169 97
0 170 97
1 170 97
2 170 97
3 170 97
0 171 97
1 171 97
2 171 97
3 171 97
0 172 97
1 172 97
2 172 97
3 172 97
0 173 97
1 173 97
2 173 97
3 173 97
0 174 97
1 174 97
2 174 97
3 174 97
0 175 97
1 175 97
2 175 97
3 175 97
0 176 97
1 176 97
2 176 97
3 176 97
0 177 97
1 177 97
2 177 97
3 177 97
0 178 97
1 178 97
2 178 97
3 178 97
0 179 97
1 179 97
2 179 97
3 179 97
0 180 97
1 180 97
2 180 97
3 180 97
0 181 97
1 181 97
2 181 97
3 181 97
0 182 97
1 182 97
2 182 97
3 182 97
0 183 97
1 183 97
2 183 97
3 183 97
0 184 97
1 184 97
2 184 97
3 184 97
0 185 97
1 185 97
2 185 97
3 185 97
0 186 97
1 186 97
2 186 97
3 186 97
0 187 97
1 187 97
2 187 97
3 187 97
0 188 97
1 188 97
2 188 97
3 188 97
0 189 97
1 189 97
2 189 97
3 189 97
0 190 97
1 190 97
2 190 97
3 190 97
0 191 97
1 191 97
2 191 97
3 191 97
0 192 97
1 192 97
2 192 97
3 192 97
0 193 97
1 193 97
2 193 97
3 193 97
0 194 97
1 194 97
2 194 97
3 194 97
0 195 97
1 195 97
2 195 97
3 195 97
0 196 97
1 196 97
2 196 97
3 196 97
0 197 97
1 197 97
2 197 97
3 197 97
0 198 97
1 198 97
2 198 97
3 198 97
0 199 97
1 199 97
2 199 97
3 199 97
0 132 98
1 132 98
2 132 98
3 132 98
0 133 98
1 133 98
2 133 98
3 133 98
0 134 98
1 134 98
2 134 98
3 134 98
0 135 98
1 135 98
2 135 98
3 135 98
0 136 98
1 136 98
2 136 98
3 136 98
0 137 98
1 137 98
2 137 98
3 137 98
0 138 98
1 138 98
2 138 98
3 138 98
0 139 98
1 139 98
2 139 98
3 139 98
0 140 98
1 140 98
2 140 98
3 140 98
0 141 98
1 141 98
2 141 98
3 141 98
0 142 98
1 142 98
2 142 98
3 142 98
0 143 98
1 143 98
2 143 98
3 143 98
0 144 98
1 144 98
2 144 98
3 144 98
0 145 98
1 145 98
2 145 98
3 145 98
0 146 98
1 146 98
2 146 98
3 146 98
0 147 98
1 147 98
2 147 98
3 147 98
0 148 98
1 148 98
2 148 98
3 148 98
0 149 98
1 149 98
2 149 98
3 149 98
0 150 98
1 150 98
2 150 98
3 150 98
0 151 98
1 151 98
2 151 98
3 151 98
0 152 98
1 152 98
2 152 98
3 152 98
0 153 98
1 153 98
2 153 98
3 153 98
0 154 98
1 154 98
2 154 98
3 154 98
0 155 98
1 155 98
2 155 98
3 155 98
0 156 98
1 156 98
2 156 98
3 156 98
0 157 98
1 157 98
2 157 98
3 157 98
0 158 98
1 158 98
2 158 98
3 158 98
0 159 98
1 159 98
2 159 98
3 159 98
0 160 98
1 160 98
2 160 98
3 160 98
0 161 98
1 161 98
2 161 98
3 161 98
0 162 98
1 162 98
2 162 98
3 162 98
0 163 98
1 163 98
2 163 98
3 163 98
0 164 98
1 164 98
2 164 98
3 164 98
0 165 98
1 165 98
2 165 98
3 165 98
0 166 98
1 166 98
2 166 98
3 166 98
0 167 98
1 167 98
2 167 98
3 167 98
0 168 98
1 168 98
2 168 98
3 168 98
0 169 98
1 169 98
2 169 98
3 169 98
0 170 98
1 170 98
2 170 98
3 170 98
0 171 98
1 171 98
2 171 98
3 171 98
0 172 98
1 172 98
2 172 98
3 172 98
0 173 98
1 173 98
2 173 98
3 173 98
0 174 98
1 174 98
2 174 98
3 174 98
0 175 98
1 175 98
2 175 98
3 175 98
0 176 98
1 176 98
2 176 98
3 176 98
0 177 98
1 177 98
2 177 98
3 177 98
0 178 98
1 178 98
2 178 98
3 178 98
0 179 98
1 179 98
2 179 98
3 179 98
0 180 98
1 180 98
2 180 98
3 180 98
0 181 98
1 181 98
2 181 98
3 181 98
0 182 98
1 182 98
2 182 98
3 182 98
0 183 98
1 183 98
2 183 98
3 183 98
0 184 98
1 184 98
2 184 98
3 184 98
0 185 98
1 185 98
2 185 98
3 185 98
0 186 98
1 186 98
2 186 98
3 186 98
0 187 98
1 187 98
2 187 98
3 187 98
0 188 98
1 188 98
2 188 98
3 188 98
0 189 98
1 189 98
2 189 98
3 189 98
0 190 98
1 190 98
2 190 98
3 190 98
0 191 98
1 191 98
2 191 98
3 191 98
0 192 98
1 192 98
2 192 98
3 192 98
0 193 98
1 193 98
2 193 98
3 193 98
0 194 98
1 194 98
2 194 98
3 194 98
0 195 98
1 195 98
2 195 98
3 195 98
0 196 98
1 196 98
2 196 98
3 196 98
0 197 98
1 197 98
2 197 98
3 197 98
0 198 98
1 198 98
2 198 98
3 198 98
0 199 98
1 199 98
2 199 98
3 199 98
0 132 99
1 132 99
2 132 99
3 132 99
0 133 99
1 133 99
2 133 99
3 133 99
0 134 99
1 134 99
2 134 99
3 134 99
0 135 99
1 135 99
2 135 99
3 135 99
0 136 99
1 136 99
2 136 99
3 136 99
0 137 99
1 137 99
2 137 99
3 137 99
0 138 99
1 138 99
2 138 99
3 138 99
0 139 99
1 139 99
2 139 99
3 139 99
0 140 99
1 140 99
2 140 99
3 140 99
0 141 99
1 141 99
2 141 99
3 141 99
0 142 99
1 142 99
2 142 99
3 142 99
0 143 99
1 143 99
2 143 99
3 143 99
0 144 99
1 144 99
2 144 99
3 144 99
0 145 99
1 145 99
2 145 99
3 145 99
0 146 99
1 146 99
2 146 99
3 146 99
0 147 99
1 147 99
2 147 99
3 147 99
0 148 99
1 148 99
2 148 99
3 148 99
0 149 99
1 149 99
2 149 99
3 149 99
0 150 99
1 150 99
2 150 99
3 150 99
0 151 99
1 151 99
2 151 99
3 151 99
0 152 99
1 152 99
2 152 99
3 152 99
0 153 99
1 153 99
2 153 99
3 153 99
0 154 99
1 154 99
2 154 99
3 154 99
0 155 99
1 155 99
2 155 99
3 155 99
0 156 99
1 156 99
2 156 99
3 156 99
0 157 99
1 157 99
2 157 99
3 157 99
0 158 99
1 158 99
2 158 99
3 158 99
0 159 99
1 159 99
2 159 99
3 159 99
0 160 99
1 160 99
2 160 99
3 160 99
0 161 99
1 161 99
2 161 99
3 161 99
0 162 99
1 162 99
2 162 99
3 162 99
0 163 99
1 163 99
2 163 99
3 163 99
0 164 99
1 164 99
2 164 99
3 164 99
0 165 99
1 165 99
2 165 99
3 165 99
0 166 99
1 166 99
2 166 99
3 166 99
0 167 99
1 167 99
2 167 99
3 167 99
0 168 99
1 168 99
2 168 99
3 168 99
0 169 99
1 169 99
2 169 99
3 169 99
0 170 99
1 170 99
2 170 99
3 170 99
0 171 99
1 171 99
2 171 99
3 171 99
0 172 99
1 172 99
2 172 99
3 172 99
0 173 99
1 173 99
2 173 99
3 173 99
0 174 99
1 174 99
2 174 99
3 174 99
0 175 99
1 175 99
2 175 99
3 175 99
0 176 99
1 176 99
2 176 99
3 176 99
0 177 99
1 177 99
2 177 99
3 177 99
0 178 99
1 178 99
2 178 99
3 178 99
0 179 99
1 179 99
2 179 99
3 179 99
0 180 99
1 180 99
2 180 99
3 180 99
0 181 99
1 181 99
2 181 99
3 181 99
0 182 99
1 182 99
2 182 99
3 182 99
0 183 99
1 183 99
2 183 99
3 183 99
0 184 99
1 184 99
2 184 99
3 184 99
0 185 99
1 185 99
2 185 99
3 185 99
0 186 99
1 186 99
2 186 99
3 186 99
0 187 99
1 187 99
2 187 99
3 187 99
0 188 99
1 188 99
2 188 99
3 188 99
0 189 99
1 189 99
2 189 99
3 189 99
0 190 99
1 190 99
2 190 99
3 190 99
0 191 99
1 191 99
2 191 99
3 191 99
0 192 99
1 192 99
2 192 99
3 192 99
0 193 99
1 193 99
2 193 99
3 193 99
0 194 99
1 194 99
2 194 99
3 194 99
0 195 99
1 195 99
2 195 99
3 195 99
0 196 99
1 196 99
2 196 99
3 196 99
0 197 99
1 197 99
2 197 99
3 197 99
0 198 99
1 198 99
2 198 99
3 198 99
0 199 99
1 199 99
2 199 99
3 199 99
0 132 100
1 132 100
2 132 100
3 132 100
0 133 100
1 133 100
2 133 100
3 133 100
0 134 100
1 134 100
2 134 100
3 134 100
0 135 100
1 135 100
2 135 100
3 135 100
0 136 100
1 136 100
2 136 100
3 136 100
0 137 100
1 137 100
2 137 100
3 137 100
0 138 100
1 138 100
2 138 100
3 138 100
0 139 100
1 139 100
2 139 100
3 139 100
0 140 100
1 140 100
2 140 100
3 140 100
0 141 100
1 141 100
2 141 100
3 141 100
0 142 100
1 142 100
2 142 100
3 142 100
0 143 100
1 143 100
2 143 100
3 143 100
0 144 100
1 144 100
2 144 100
3 144 100
0 145 100
1 145 100
2 145 100
3 145 100
0 146 100
1 146 100
2 146 100
3 146 100
0 147 100
1 147 100
2 147 100
3 147 100
0 148 100
1 148 100
2 148 100
3 148 100
0 149 100
1 149 100
2 149 100
3 149 100
0 150 100
1 150 100
2 150 100
3 150 100
0 151 100
1 151 100
2 151 100
3 151 100
0 152 100
1 152 100
2 152 100
3 152 100
0 153 100
1 153 100
2 153 100
3 153 100
0 154 100
1 154 100
2 154 100
3 154 100
0 155 100
1 155 100
2 155 100
3 155 100
0 156 100
1 156 100
2 156 100
3 156 100
0 157 100
1 157 100
2 157 100
3 157 100
0 158 100
1 158 100
2 158 100
3 158 100
0 159 100
1 159 100
2 159 100
3 159 100
0 160 100
1 160 100
2 160 100
3 160 100
0 161 100
1 161 100
2 161 100
3 161 100
0 162 100
1 162 100
2 162 100
3 162 100
0 163 100
1 163 100
2 163 100
3 163 100
0 164 100
1 164 100
2 164 100
3 164 100
0 165 100
1 165 100
2 165 100
3 165 100
0 166 100
1 166 100
2 166 100
3 166 100
0 167 100
1 167 100
2 167 100
3 167 100
0 168 100
1 168 100
2 168 100
3 168 100
0 169 100
1 169 100
2 169 100
3 169 100
0 170 100
1 170 100
2 170 100
3 170 100
0 171 100
1 171 100
2 171 100
3 171 100
0 172 100
1 172 100
2 172 100
3 172 100
0 173 100
1 173 100
2 173 100
3 173 100
0 174 100
1 174 100
2 174 100
3 174 100
0 175 100
1 175 100
2 175 100
3 175 100
0 176 100
1 176 100
2 176 100
3 176 100
0 177 100
1 177 100
2 177 100
3 177 100
0 178 100
1 178 100
2 178 100
3 178 100
0 179 100
1 179 100
2 179 100
3 179 100
0 180 100
1 180 100
2 180 100
3 180 100
0 181 100
1 181 100
2 181 100
3 181 100
0 182 100
1 182 100
2 182 100
3 182 100
0 183 100
1 183 100
2 183 100
3 183 100
0 184 100
1 184 100
2 184 100
3 184 100
0 185 100
1 185 100
2 185 100
3 185 100
0 186 100
1 186 100
2 186 100
3 186 100
0 187 100
1 187 100
2 187 100
3 187 100
0 188 100
1 188 100
2 188 100
3 188 100
0 189 100
1 189 100
2 189 100
3 189 100
0 190 100
1 190 100
2 190 100
3 190 100
0 191 100
1 191 100
2 191 100
3 191 100
0 192 100
1 192 100
2 192 100
3 192 100
0 193 100
1 193 100
2 193 100
3 193 100
0 194 100
1 194 100
2 194 100
3 194 100
0 195 100
1 195 100
2 195 100
3 195 100
0 196 100
1 196 100
2 196 100
3 196 100
0 197 100
1 197 100
2 197 100
3 197 100
0 198 100
1 198 100
2 198 100
3 198 100
0 199 100
1 199 100
2 199 100
3 199 100
        </DataArray>
      </Points>
      <PointData Scalars="scalar">
        <DataArray Name="scalar" type="Float32" format="ascii">
4
4
4
4
4
4
4
4
4
4
4
4
4
4
4
4
4
4
4
4
4
4
4
4
4
4
4
4
4
4
4
4
4
4
4
4
4
4
4
4
4
4
4
4
4
4
4
4
4
4
4
4
4
4
4
4
4
4
4
4
4
4
4
4
4
4
4
4
4
4
4
4
4
4
4
4
4
4
4
4
4
4
4
4
4
4
4
4
4
4
4
4
4
4
4
4
4
4
4
4
4
4
4
4
4
4
4
4
4
4
4
4
4
4
4
4
4
4
4
4
4
4
4
4
4
4
4
4
4
4
4
4
4
4
4
4
4
4
4
4
4
4
4
4
4
4
4
4
4
4
4
4
4
4
4
4
4
4
4
4
4
4
4
4
4
4
4
4
4
4
4
4
4
4
4
4
4
4
4
4
4
4
4
4
4
4
4
4
4
4
4
4
4
4
4
4
4
4
4
4
4
4
4
4
4
4
4
4
4
4
4
4
4
4
4
4
4
4
4
4
4
4
4
4
4
4
4
4
4
4
4
4
4
4
4
4
4
4
4
4
4
4
4
4
4
4
4
4
4
4
4
4
4
4
4
4
4
4
4
4
4
4
4
4
4
4
4
4
4
4
4
4
4
4
4
4
4
4
4
4
4
4
4
4
4
4
4
4
4
4
4
4
4
4
4
4
4
4
4
4
4
4
4
4
4
4
4
4
4
4
4
4
4
4
4
4
4
4
4
4
4
4
4
4
4
4
4
4
4
4
4
4
4
4
4
4
4
4
4
4
4
4
4
4
4
4
4
4
4
4
4
4
4
4
4
4
4
4
4
4
4
4
4
4
4
4
4
4
4
4
4
4
4
4
4
4
4
4
4
4
4
4
4
4
4
4
4
4
4
4
4
4
4
4
4
4
4
4
4
4
4
4
4
4
4
4
4
4
4
4
4
4
4
4
4
4
4
4
4
4
4
4
4
4
4
4
4
4
4
4
4
4
4
4
4
4
4
4
4
4
4
4
4
4
4
4
4
4
4
4
4
4
4
4
4
4
4
4
4
4
4
4
4
4
4
4
4
4
4
4
4
4
4
4
4
4
4
4
4
4
4
4
4
4
4
4
4
4
4
4
4
4
4
4
4
4
4
4
4
4
4
4
4
4
4
4
4
4
4
4
4
4
4
4
4
4
4
4
4
4
4
4
4
4
4
4
4
4
4
4
4
4
4
4
4
4
4
4
4
4
2
2
2
2
4
4
4
4
4
4
4
4
4
4
4
4
4
4
4
4
4
4
4
4
4
4
4
4
4
4
4
4
4
4
4
4
4
4
4
4
4
4
4
4
4
4
4
4
4
4
4
4
4
4
4
4
4
4
4
4
4
4
4
4
4
4
4
4
4
4
4
4
4
4
4
4
4
4
4
4
4
4
4
4
4
4
4
4
4
4
4
4
4
4
4
4
4
4
4
4
4
4
4
4
4
4
4
4
4
4
4
4
4
4
4
4
4
4
4
4
4
4
4
4
4
4
4
4
4
4
4
4
4
4
4
4
4
4
4
4
4
4
4
4
4
4
4
4
4
4
4
4
4
4
4
4
4
4
4
4
4
4
4
4
4
4
4
4
4
4
4
4
4
4
4
4
4
4
4
4
4
4
4
4
4
4
4
4
4
4
4
4
4
4
4
4
4
4
4
4
4
4
4
4
4
4
4
4
4
4
4
4
4
4
4
4
4
4
4
4
4
4
4
4
4
4
4
4
4
4
4
4
4
4
4
4
4
4
4
4
4
4
4
4
4
4
4
4
4
4
4
4
4
4
4
4
4
4
4
4
4
4
4
4
4
4
4
4
4
4
4
4
2
2
2
2
4
4
4
4
4
4
4
4
4
4
4
4
4
4
4
4
4
4
4
4
4
4
4
4
4
4
4
4
4
4
4
4
4
4
4
4
4
4
4
4
4
4
4
4
4
4
4
4
4
4
4
4
4
4
4
4
4
4
4
4
4
4
4
4
4
4
4
4
4
4
4
4
4
4
4
4
4
4
4
4
4
4
4
4
4
4
4
4
4
4
4
4
4
4
4
4
4
4
4
4
4
4
4
4
4
4
4
4
4
4
4
4
4
4
4
4
4
4
4
4
4
4
4
4
4
4
4
4
4
4
4
4
4
4
4
4
4
4
4
4
4
4
4
4
4
4
4
4
4
4
4
4
4
4
4
4
4
4
4
4
4
4
4
4
4
4
4
4
4
4
4
4
4
4
4
4
4
4
4
4
4
4
4
4
4
4
4
4
4
4
4
4
4
4
4
4
4
4
4
4
4
4
4
4
4
4
4
4
4
4
4
4
4
4
4
4
4
4
4
4
4
4
4
4
4
4
4
4
4
4
4
4
4
4
4
4
4
4
4
4
4
4
4
4
4
4
4
4
4
4
4
4
4
4
4
4
4
4
4
4
4
4
4
4
4
4
4
4
2
2
2
2
4
4
4
4
4
4
4
4
4
4
4
4
4
4
4
4
4
4
4
4
4
4
4
4
4
4
4
4
4
4
4
4
4
4
4
4
4
4
4
4
4
4
4
4
4
4
4
4
4
4
4
4
4
4
4
4
4
4
4
4
4
4
4
4
4
4
4
4
4
4
4
4
4
4
4
4
4
4
4
4
4
4
4
4
4
4
4
4
4
4
4
4
4
4
4
4
4
4
4
4
4
4
4
4
4
4
4
4
4
4
4
4
4
4
4
4
4
4
4
4
4
4
4
4
4
4
4
4
4
4
4
4
4
4
4
4
4
4
4
4
4
4
4
4
4
4
4
4
4
4
4
4
4
4
4
4
4
4
4
4
4
4
4
4
4
4
4
4
4
4
4
4
4
4
4
4
4
4
4
4
4
4
4
4
4
4
4
4
4
4
4
4
4
4
4
4
4
4
4
4
4
4
4
4
4
4
4
4
4
4
4
4
4
4
4
4
4
4
4
4
4
4
4
4
4
4
4
4
4
4
4
4
4
4
4
4
4
4
4
4
4
4
4
4
4
4
4
4
4
4
4
4
4
4
4
4
4
4
4
4
4
4
4
4
4
4
4
4
2
2
2
2
4
4
4
4
4
4
4
4
4
4
4
4
4
4
4
4
4
4
4
4
4
4
4
4
4
4
4
4
4
4
4
4
4
4
4
4
4
4
4
4
4
4
4
4
4
4
4
4
4
4
4
4
4
4
4
4
4
4
4
4
4
4
4
4
4
4
4
4
4
4
4
4
4
4
4
4
4
4
4
4
4
4
4
4
4
4
4
4
4
4
4
4
4
4
4
4
4
4
4
4
4
4
4
4
4
4
4
4
4
4
4
4
4
4
4
4
4
4
4
4
4
4
4
4
4
4
4
4
4
4
4
4
4
4
4
4
4
4
4
4
4
4
4
4
4
4
4
4
4
4
4
4
4
4
4
4
4
4
4
4
4
4
4
4
4
4
4
4
4
4
4
4
4
4
4
4
4
4
4
4
4
4
4
4
4
4
4
4
4
4
4
4
4
4
4
4
4
4
4
4
4
4
4
4
4
4
4
4
4
4
4
4
4
4
4
4
4
4
4
4
4
4
4
4
4
4
4
4
4
4
4
4
4
4
4
4
4
4
4
4
4
4
4
4
4
4
4
4
4
4
4
4
4
4
4
4
4
4
4
4
4
4
4
4
4
4
4
4
2
2
2
2
4
4
4
4
4
4
4
4
4
4
4
4
4
4
4
4
4
4
4
4
4
4
4
4
4
4
4
4
4
4
4
4
4
4
4
4
4
4
4
4
4
4
4
4
4
4
4
4
4
4
4
4
4
4
4
4
4
4
4
4
4
4
4
4
4
4
4
4
4
4
4
4
4
4
4
4
4
4
4
4
4
4
4
4
4
4
4
4
4
4
4
4
4
4
4
4
4
4
4
4
4
4
4
4
4
4
4
4
4
4
4
4
4
4
4
4
4
4
4
4
4
4
4
4
4
4
4
4
4
4
4
4
4
4
4
4
4
4
4
4
4
4
4
4
4
4
4
4
4
4
4
4
4
4
4
4
4
4
4
4
4
4
4
4
4
4
4
4
4
4
4
4
4
4
4
4
4
4
4
4
4
4
4
4
4
4
4
4
4
4
4
4
4
4
4
4
4
4
4
4
4
4
4
4
4
4
4
4
4
4
4
4
4
4
4
4
4
4
4
4
4
4
4
4
4
4
4
4
4
4
4
4
4
4
4
4
4
4
4
4
4
4
4
4
4
4
4
4
4
4
4
4
4
4
4
4
4
4
4
4
4
4
4
4
4
4
4
4
2
2
2
2
4
4
4
4
4
4
4
4
4
4
4
4
4
4
4
4
4
4
4
4
4
4
4
4
4
4
4
4
4
4
4
4
4
4
4
4
4
4
4
4
4
4
4
4
4
4
4
4
4
4
4
4
4
4
4
4
4
4
4
4
4
4
4
4
4
4
4
4
4
4
4
4
4
4
4
4
4
4
4
4
4
4
4
4
4
4
4
4
4
4
4
4
4
4
4
4
4
4
4
4
4
4
4
4
4
4
4
4
4
4
4
4
4
4
4
4
4
4
4
4
4
4
4
4
4
4
4
4
4
4
4
4
4
4
4
4
4
4
4
4
4
4
4
4
4
4
4
4
4
4
4
4
4
4
4
4
4
4
4
4
4
4
4
4
4
4
4
4
4
4
4
4
4
4
4
4
4
4
4
4
4
4
4
4
4
4
4
4
4
4
4
4
4
4
4
4
4
4
4
4
4
4
4
4
4
4
4
4
4
4
4
4
4
4
4
4
4
4
4
4
4
4
4
4
4
4
4
4
4
4
4
4
4
4
4
4
4
4
4
4
4
4
4
4
4
4
4
4
4
4
4
4
4
4
4
4
4
4
4
4
4
4
4
4
4
4
4
4
2
2
2
2
4
4
4
4
4
4
4
4
4
4
4
4
4
4
4
4
4
4
4
4
4
4
4
4
4
4
4
4
4
4
4
4
4
4
4
4
4
4
4
4
4
4
4
4
4
4
4
4
4
4
4
4
4
4
4
4
4
4
4
4
4
4
4
4
4
4
4
4
4
4
4
4
4
4
4
4
4
4
4
4
4
4
4
4
4
4
4
4
4
4
4
4
4
4
4
4
4
4
4
4
4
4
4
4
4
4
4
4
4
4
4
4
4
4
4
4
4
4
4
4
4
4
4
4
4
4
4
4
4
4
4
4
4
4
4
4
4
4
4
4
4
4
4
4
4
4
4
4
4
4
4
4
4
4
4
4
4
4
4
4
4
4
4
4
4
4
4
4
4
4
4
4
4
4
4
4
4
4
4
4
4
4
4
4
4
4
4
4
4
4
4
4
4
4
4
4
4
4
4
4
4
4
4
4
4
4
4
4
4
4
4
4
4
4
4
4
4
4
4
4
4
4
4
4
4
4
4
4
4
4
4
4
4
4
4
4
4
4
4
4
4
4
4
4
4
4
4
4
4
4
4
4
4
4
4
4
4
4
4
4
4
4
4
4
4
4
4
4
2
2
2
2
4
4
4
4
4
4
4
4
4
4
4
4
4
4
4
4
4
4
4
4
4
4
4
4
4
4
4
4
4
4
4
4
4
4
4
4
4
4
4
4
4
4
4
4
4
4
4
4
4
4
4
4
4
4
4
4
4
4
4
4
4
4
4
4
4
4
4
4
4
4
4
4
4
4
4
4
4
4
4
4
4
4
4
4
4
4
4
4
4
4
4
4
4
4
4
4
4
4
4
4
4
4
4
4
4
4
4
4
4
4
4
4
4
4
4
4
4
4
4
4
4
4
4
4
4
4
4
4
4
4
4
4
4
4
4
4
4
4
4
4
4
4
4
4
4
4
4
4
4
4
4
4
4
4
4
4
4
4
4
4
4
4
4
4
4
4
4
4
4
4
4
4
4
4
4
4
4
4
4
4
4
4
4
4
4
4
4
4
4
4
4
4
4
4
4
4
4
4
4
4
4
4
4
4
4
4
4
4
4
4
4
4
4
4
4
4
4
4
4
4
4
4
4
4
4
4
4
4
4
4
4
4
4
4
4
4
4
4
4
4
4
4
4
4
4
4
4
4
4
4
4
4
4
4
4
4
4
4
4
4
4
4
4
4
4
4
4
4
2
2
2
2
4
4
4
4
4
4
4
4
4
4
4
4
4
4
4
4
4
4
4
4
4
4
4
4
4
4
4
4
4
4
4
4
4
4
4
4
4
4
4
4
4
4
4
4
4
4
4
4
4
4
4
4
4
4
4
4
4
4
4
4
4
4
4
4
4
4
4
4
4
4
4
4
4
4
4
4
4
4
4
4
4
4
4
4
4
4
4
4
4
4
4
4
4
4
4
4
4
4
4
4
4
4
4
4
4
4
4
4
4
4
4
4
4
4
4
4
4
4
4
4
4
4
4
4
4
4
4
4
4
4
4
4
4
4
4
4
4
4
4
4
4
4
4
4
4
4
4
4
4
4
4
4
4
4
4
4
4
4
4
4
4
4
4
4
4
4
4
4
4
4
4
4
4
4
4
4
4
4
4
4
4
4
4
4
4
4
4
4
4
4
4
4
4
4
4
4
4
4
4
4
4
4
4
4
4
4
4
4
4
4
4
4
4
4
4
4
4
4
4
4
4
4
4
4
4
4
4
4
4
4
4
4
4
4
4
4
4
4
4
4
4
4
4
4
4
4
4
4
4
4
4
4
4
4
4
4
4
4
4
4
4
4
4
4
4
4
4
4
2
2
2
2
4
4
4
4
4
4
4
4
4
4
4
4
4
4
4
4
4
4
4
4
4
4
4
4
4
4
4
4
4
4
4
4
4
4
4
4
4
4
4
4
4
4
4
4
4
4
4
4
4
4
4
4
4
4
4
4
4
4
4
4
4
4
4
4
4
4
4
4
4
4
4
4
4
4
4
4
4
4
4
4
4
4
4
4
4
4
4
4
4
4
4
4
4
4
4
4
4
4
4
4
4
4
4
4
4
4
4
4
4
4
4
4
4
4
4
4
4
4
4
4
4
4
4
4
4
4
4
4
4
4
4
4
4
4
4
4
4
4
4
4
4
4
4
4
4
4
4
4
4
4
4
4
4
4
4
4
4
4
4
4
4
4
4
4
4
4
4
4
4
4
4
4
4
4
4
4
4
4
4
4
4
4
4
4
4
4
4
4
4
4
4
4
4
4
4
4
4
4
4
4
4
4
4
4
4
4
4
4
4
4
4
4
4
4
4
4
4
4
4
4
4
4
4
4
4
4
4
4
4
4
4
4
4
4
4
4
4
4
4
4
4
4
4
4
4
4
4
4
4
4
4
4
4
4
4
4
4
4
4
4
4
4
4
4
4
4
4
4
2
2
2
2
4
4
4
4
4
4
4
4
4
4
4
4
4
4
4
4
4
4
4
4
4
4
4
4
4
4
4
4
4
4
4
4
4
4
4
4
4
4
4
4
4
4
4
4
4
4
4
4
4
4
4
4
4
4
4
4
4
4
4
4
4
4
4
4
4
4
4
4
4
4
4
4
4
4
4
4
4
4
4
4
4
4
4
4
4
4
4
4
4
4
4
4
4
4
4
4
4
4
4
4
4
4
4
4
4
4
4
4
4
4
4
4
4
4
4
4
4
4
4
4
4
4
4
4
4
4
4
4
4
4
4
4
4
4
4
4
4
4
4
4
4
4
4
4
4
4
4
4
4
4
4
4
4
4
4
4
4
4
4
4
4
4
4
4
4
4
4
4
4
4
4
4
4
4
4
4
4
4
4
4
4
4
4
4
4
4
4
4
4
4
4
4
4
4
4
4
4
4
4
4
4
4
4
4
4
4
4
4
4
4
4
4
4
4
4
4
4
4
4
4
4
4
4
4
4
4
4
4
4
4
4
4
4
4
4
4
4
4
4
4
4
4
4
4
4
4
4
4
4
4
4
4
4
4
4
4
4
4
4
4
4
4
4
4
4
4
4
4
2
2
2
2
4
4
4
4
4
4
4
4
4
4
4
4
4
4
4
4
4
4
4
4
4
4
4
4
4
4
4
4
4
4
4
4
4
4
4
4
4
4
4
4
4
4
4
4
4
4
4
4
4
4
4
4
4
4
4
4
4
4
4
4
4
4
4
4
4
4
4
4
4
4
4
4
4
4
4
4
4
4
4
4
4
4
4
4
4
4
4
4
4
4
4
4
4
4
4
4
4
4
4
4
4
4
4
4
4
4
4
4
4
4
4
4
4
4
4
4
4
4
4
4
4
4
4
4
4
4
4
4
4
4
4
4
4
4
4
4
4
4
4
4
4
4
4
4
4
4
4
4
4
4
4
4
4
4
4
4
4
4
4
4
4
4
4
4
4
4
4
4
4
4
4
4
4
4
4
4
4
4
4
4
4
4
4
4
4
4
4
4
4
4
4
4
4
4
4
4
4
4
4
4
4
4
4
4
4
4
4
4
4
4
4
4
4
4
4
4
4
4
4
4
4
4
4
4
4
4
4
4
4
4
4
4
4
4
4
4
4
4
4
4
4
4
4
4
4
4
4
4
4
4
4
4
4
4
4
4
4
4
4
4
4
4
4
4
4
4
4
4
2
2
2
2
4
4
4
4
4
4
4
4
4
4
4
4
4
4
4
4
4
4
4
4
4
4
4
4
4
4
4
4
4
4
4
4
4
4
4
4
4
4
4
4
4
4
4
4
4
4
4
4
4
4
4
4
4
4
4
4
4
4
4
4
4
4
4
4
4
4
4
4
4
4
4
4
4
4
4
4
4
4
4
4
4
4
4
4
4
4
4
4
4
4
4
4
4
4
4
4
4
4
4
4
4
4
4
4
4
4
4
4
4
4
4
4
4
4
4
4
4
4
4
4
4
4
4
4
4
4
4
4
4
4
4
4
4
4
4
4
4
4
4
4
4
4
4
4
4
4
4
4
4
4
4
4
4
4
4
4
4
4
4
4
4
4
4
4
4
4
4
4
4
4
4
4
4
4
4
4
4
4
4
4
4
4
4
4
4
4
4
4
4
4
4
4
4
4
4
4
4
4
4
4
4
4
4
4
4
4
4
4
4
4
4
4
4
4
4
4
4
4
4
4
4
4
4
4
4
4
4
4
4
4
4
4
4
4
4
4
4
4
4
4
4
4
4
4
4
4
4
4
4
4
4
4
4
4
4
4
4
4
4
4
4
4
4
4
4
4
4
4
2
2
2
2
4
4
4
4
4
4
4
4
4
4
4
4
4
4
4
4
4
4
4
4
4
4
4
4
4
4
4
4
4
4
4
4
4
4
4
4
4
4
4
4
4
4
4
4
4
4
4
4
4
4
4
4
4
4
4
4
4
4
4
4
4
4
4
4
4
4
4
4
4
4
4
4
4
4
4
4
4
4
4
4
4
4
4
4
4
4
4
4
4
4
4
4
4
4
4
4
4
4
4
4
4
4
4
4
4
4
4
4
4
4
4
4
4
4
4
4
4
4
4
4
4
4
4
4
4
4
4
4
4
4
4
4
4
4
4
4
4
4
4
4
4
4
4
4
4
4
4
4
4
4
4
4
4
4
4
4
4
4
4
4
4
4
4
4
4
4
4
4
4
4
4
4
4
4
4
4
4
4
4
4
4
4
4
4
4
4
4
4
4
4
4
4
4
4
4
4
4
4
4
4
4
4
4
4
4
4
4
4
4
4
4
4
4
4
4
4
4
4
4
4
4
4
4
4
4
4
4
4
4
4
4
4
4
4
4
4
4
4
4
4
4
4
4
4
4
4
4
4
4
4
4
4
4
4
4
4
4
4
4
4
4
4
4
4
4
4
4
4
2
2
2
2
4
4
4
4
4
4
4
4
4
4
4
4
4
4
4
4
4
4
4
4
4
4
4
4
4
4
4
4
4
4
4
4
4
4
4
4
4
4
4
4
4
4
4
4
4
4
4
4
4
4
4
4
4
4
4
4
4
4
4
4
4
4
4
4
4
4
4
4
4
4
4
4
4
4
4
4
4
4
4
4
4
4
4
4
4
4
4
4
4
4
4
4
4
4
4
4
4
4
4
4
4
4
4
4
4
4
4
4
4
4
4
4
4
4
4
4
4
4
4
4
4
4
4
4
4
4
4
4
4
4
4
4
4
4
4
4
4
4
4
4
4
4
4
4
4
4
4
4
4
4
4
4
4
4
4
4
4
4
4
4
4
4
4
4
4
4
4
4
4
4
4
4
4
4
4
4
4
4
4
4
4
4
4
4
4
4
4
4
4
4
4
4
4
4
4
4
4
4
4
4
4
4
4
4
4
4
4
4
4
4
4
4
4
4
4
4
4
4
4
4
4
4
4
4
4
4
4
4
4
4
4
4
4
4
4
4
4
4
4
4
4
4
4
4
4
4
4
4
4
4
4
4
4
4
4
4
4
4
4
4
4
4
4
4
4
4
4
4
2
2
2
2
4
4
4
4
4
4
4
4
4
4
4
4
4
4
4
4
4
4
4
4
4
4
4
4
4
4
4
4
4
4
4
4
4
4
4
4
4
4
4
4
4
4
4
4
4
4
4
4
4
4
4
4
4
4
4
4
4
4
4
4
4
4
4
4
4
4
4
4
4
4
4
4
4
4
4
4
4
4
4
4
4
4
4
4
4
4
4
4
4
4
4
4
4
4
4
4
4
4
4
4
4
4
4
4
4
4
4
4
4
4
4
4
4
4
4
4
4
4
4
4
4
4
4
4
4
4
4
4
4
4
4
4
4
4
4
4
4
4
4
4
4
4
4
4
4
4
4
4
4
4
4
4
4
4
4
4
4
4
4
4
4
4
4
4
4
4
4
4
4
4
4
4
4
4
4
4
4
4
4
4
4
4
4
4
4
4
4
4
4
4
4
4
4
4
4
4
4
4
4
4
4
4
4
4
4
4
4
4
4
4
4
4
4
4
4
4
4
4
4
4
4
4
4
4
4
4
4
4
4
4
4
4
4
4
4
4
4
4
4
4
4
4
4
4
4
4
4
4
4
4
4
4
4
4
4
4
4
4
4
4
4
4
4
4
4
4
4
4
2
2
2
2
4
4
4
4
4
4
4
4
4
4
4
4
4
4
4
4
4
4
4
4
4
4
4
4
4
4
4
4
4
4
4
4
4
4
4
4
4
4
4
4
4
4
4
4
4
4
4
4
4
4
4
4
4
4
4
4
4
4
4
4
4
4
4
4
4
4
4
4
4
4
4
4
4
4
4
4
4
4
4
4
4
4
4
4
4
4
4
4
4
4
4
4
4
4
4
4
4
4
4
4
4
4
4
4
4
4
4
4
4
4
4
4
4
4
4
4
4
4
4
4
4
4
4
4
4
4
4
4
4
4
4
4
4
4
4
4
4
4
4
4
4
4
4
4
4
4
4
4
4
4
4
4
4
4
4
4
4
4
4
4
4
4
4
4
4
4
4
4
4
4
4
4
4
4
4
4
4
4
4
4
4
4
4
4
4
4
4
4
4
4
4
4
4
4
4
4
4
4
4
4
4
4
4
4
4
4
4
4
4
4
4
4
4
4
4
4
4
4
4
4
4
4
4
4
4
4
4
4
4
4
4
4
4
4
4
4
4
4
4
4
4
4
4
4
4
4
4
4
4
4
4
4
4
4
4
4
4
4
4
4
4
4
4
4
4
4
4
4
2
2
2
2
4
4
4
4
4
4
4
4
4
4
4
4
4
4
4
4
4
4
4
4
4
4
4
4
4
4
4
4
4
4
4
4
4
4
4
4
4
4
4
4
4
4
4
4
4
4
4
4
4
4
4
4
4
4
4
4
4
4
4
4
4
4
4
4
4
4
4
4
4
4
4
4
4
4
4
4
4
4
4
4
4
4
4
4
4
4
4
4
4
4
4
4
4
4
4
4
4
4
4
4
4
4
4
4
4
4
4
4
4
4
4
4
4
4
4
4
4
4
4
4
4
4
4
4
4
4
4
4
4
4
4
4
4
4
4
4
4
4
4
4
4
4
4
4
4
4
4
4
4
4
4
4
4
4
4
4
4
4
4
4
4
4
4
4
4
4
4
4
4
4
4
4
4
4
4
4
4
4
4
4
4
4
4
4
4
4
4
4
4
4
4
4
4
4
4
4
4
4
4
4
4
4
4
4
4
4
4
4
4
4
4
4
4
4
4
4
4
4
4
4
4
4
4
4
4
4
4
4
4
4
4
4
4
4
4
4
4
4
4
4
4
4
4
4
4
4
4
4
4
4
4
4
4
4
4
4
4
4
4
4
4
4
4
4
4
4
4
4
2
2
2
2
4
4
4
4
4
4
4
4
4
4
4
4
4
4
4
4
4
4
4
4
4
4
4
4
4
4
4
4
4
4
4
4
4
4
4
4
4
4
4
4
4
4
4
4
4
4
4
4
4
4
4
4
4
4
4
4
4
4
4
4
4
4
4
4
4
4
4
4
4
4
4
4
4
4
4
4
4
4
4
4
4
4
4
4
4
4
4
4
4
4
4
4
4
4
4
4
4
4
4
4
4
4
4
4
4
4
4
4
4
4
4
4
4
4
4
4
4
4
4
4
4
4
4
4
4
4
4
4
4
4
4
4
4
4
4
4
4
4
4
4
4
4
4
4
4
4
4
4
4
4
4
4
4
4
4
4
4
4
4
4
4
4
4
4
4
4
4
4
4
4
4
4
4
4
4
4
4
4
4
4
4
4
4
4
4
4
4
4
4
4
4
4
4
4
4
4
4
4
4
4
4
4
4
4
4
4
4
4
4
4
4
4
4
4
4
4
4
4
4
4
4
4
4
4
4
4
4
4
4
4
4
4
4
4
4
4
4
4
4
4
4
4
4
4
4
4
4
4
4
4
4
4
4
4
4
4
4
4
4
4
4
4
4
4
4
4
4
4
2
2
2
2
4
4
4
4
4
4
4
4
4
4
4
4
4
4
4
4
4
4
4
4
4
4
4
4
4
4
4
4
4
4
4
4
4
4
4
4
4
4
4
4
4
4
4
4
4
4
4
4
4
4
4
4
4
4
4
4
4
4
4
4
4
4
4
4
4
4
4
4
4
4
4
4
4
4
4
4
4
4
4
4
4
4
4
4
4
4
4
4
4
4
4
4
4
4
4
4
4
4
4
4
4
4
4
4
4
4
4
4
4
4
4
4
4
4
4
4
4
4
4
4
4
4
4
4
4
4
4
4
4
4
4
4
4
4
4
4
4
4
4
4
4
4
4
4
4
4
4
4
4
4
4
4
4
4
4
4
4
4
4
4
4
4
4
4
4
4
4
4
4
4
4
4
4
4
4
4
4
4
4
4
4
4
4
4
4
4
4
4
4
4
4
4
4
4
4
4
4
4
4
4
4
4
4
4
4
4
4
4
4
4
4
4
4
4
4
4
4
4
4
4
4
4
4
4
4
4
4
4
4
4
4
4
4
4
4
4
4
4
4
4
4
4
4
4
4
4
4
4
4
4
4
4
4
4
4
4
4
4
4
4
4
4
4
4
4
4
4
4
2
2
2
2
4
4
4
4
4
4
4
4
4
4
4
4
4
4
4
4
4
4
4
4
4
4
4
4
4
4
4
4
4
4
4
4
4
4
4
4
4
4
4
4
4
4
4
4
4
4
4
4
4
4
4
4
4
4
4
4
4
4
4
4
4
4
4
4
4
4
4
4
4
4
4
4
4
4
4
4
4
4
4
4
4
4
4
4
4
4
4
4
4
4
4
4
4
4
4
4
4
4
4
4
4
4
4
4
4
4
4
4
4
4
4
4
4
4
4
4
4
4
4
4
4
4
4
4
4
4
4
4
4
4
4
4
4
4
4
4
4
4
4
4
4
4
4
4
4
4
4
4
4
4
4
4
4
4
4
4
4
4
4
4
4
4
4
4
4
4
4
4
4
4
4
4
4
4
4
4
4
4
4
4
4
4
4
4
4
4
4
4
4
4
4
4
4
4
4
4
4
4
4
4
4
4
4
4
4
4
4
4
4
4
4
4
4
4
4
4
4
4
4
4
4
4
4
4
4
4
4
4
4
4
4
4
4
4
4
4
4
4
4
4
4
4
4
4
4
4
4
4
4
4
4
4
4
4
4
4
4
4
4
4
4
4
4
4
4
4
4
4
2
2
2
2
4
4
4
4
4
4
4
4
4
4
4
4
4
4
4
4
4
4
4
4
4
4
4
4
4
4
4
4
4
4
4
4
4
4
4
4
4
4
4
4
4
4
4
4
4
4
4
4
4
4
4
4
4
4
4
4
4
4
4
4
4
4
4
4
4
4
4
4
4
4
4
4
4
4
4
4
4
4
4
4
4
4
4
4
4
4
4
4
4
4
4
4
4
4
4
4
4
4
4
4
4
4
4
4
4
4
4
4
4
4
4
4
4
4
4
4
4
4
4
4
4
4
4
4
4
4
4
4
4
4
4
4
4
4
4
4
4
4
4
4
4
4
4
4
4
4
4
4
4
4
4
4
4
4
4
4
4
4
4
4
4
4
4
4
4
4
4
4
4
4
4
4
4
4
4
4
4
4
4
4
4
4
4
4
4
4
4
4
4
4
4
4
4
4
4
4
4
4
4
4
4
4
4
4
4
4
4
4
4
4
4
4
4
4
4
4
4
4
4
4
4
4
4
4
4
4
4
4
4
4
4
4
4
4
4
4
4
4
4
4
4
4
4
4
4
4
4
4
4
4
4
4
4
4
4
4
4
4
4
4
4
4
4
4
4
4
4
4
2
2
2
2
4
4
4
4
4
4
4
4
4
4
4
4
4
4
4
4
4
4
4
4
4
4
4
4
4
4
4
4
4
4
4
4
4
4
4
4
4
4
4
4
4
4
4
4
4
4
4
4
4
4
4
4
4
4
4
4
4
4
4
4
4
4
4
4
4
4
4
4
4
4
4
4
4
4
4
4
4
4
4
4
4
4
4
4
4
4
4
4
4
4
4
4
4
4
4
4
4
4
4
4
4
4
4
4
4
4
4
4
4
4
4
4
4
4
4
4
4
4
4
4
4
4
4
4
4
4
4
4
4
4
4
4
4
4
4
4
4
4
4
4
4
4
4
4
4
4
4
4
4
4
4
4
4
4
4
4
4
4
4
4
4
4
4
4
4
4
4
4
4
4
4
4
4
4
4
4
4
4
4
4
4
4
4
4
4
4
4
4
4
4
4
4
4
4
4
4
4
4
4
4
4
4
4
4
4
4
4
4
4
4
4
4
4
4
4
4
4
4
4
4
4
4
4
4
4
4
4
4
4
4
4
4
4
4
4
4
4
4
4
4
4
4
4
4
4
4
4
4
4
4
4
4
4
4
4
4
4
4
4
4
4
4
4
4
4
4
4
4
2
2
2
2
4
4
4
4
4
4
4
4
4
4
4
4
4
4
4
4
4
4
4
4
4
4
4
4
4
4
4
4
4
4
4
4
4
4
4
4
4
4
4
4
4
4
4
4
4
4
4
4
4
4
4
4
4
4
4
4
4
4
4
4
4
4
4
4
4
4
4
4
4
4
4
4
4
4
4
4
4
4
4
4
4
4
4
4
4
4
4
4
4
4
4
4
4
4
4
4
4
4
4
4
4
4
4
4
4
4
4
4
4
4
4
4
4
4
4
4
4
4
4
4
4
4
4
4
4
4
4
4
4
4
4
4
4
4
4
4
4
4
4
4
4
4
4
4
4
4
4
4
4
4
4
4
4
4
4
4
4
4
4
4
4
4
4
4
4
4
4
4
4
4
4
4
4
4
4
4
4
4
4
4
4
4
4
4
4
4
4
4
4
4
4
4
4
4
4
4
4
4
4
4
4
4
4
4
4
4
4
4
4
4
4
4
4
4
4
4
4
4
4
4
4
4
4
4
4
4
4
4
4
4
4
4
4
4
4
4
4
4
4
4
4
4
4
4
4
4
4
4
4
4
4
4
4
4
4
4
4
4
4
4
4
4
4
4
4
4
4
4
2
2
2
2
4
4
4
4
4
4
4
4
4
4
4
4
4
4
4
4
4
4
4
4
4
4
4
4
4
4
4
4
4
4
4
4
4
4
4
4
4
4
4
4
4
4
4
4
4
4
4
4
4
4
4
4
4
4
4
4
4
4
4
4
4
4
4
4
4
4
4
4
4
4
4
4
4
4
4
4
4
4
4
4
4
4
4
4
4
4
4
4
4
4
4
4
4
4
4
4
4
4
4
4
4
4
4
4
4
4
4
4
4
4
4
4
4
4
4
4
4
4
4
4
4
4
4
4
4
4
4
4
4
4
4
4
4
4
4
4
4
4
4
4
4
4
4
4
4
4
4
4
4
4
4
4
4
4
4
4
4
4
4
4
4
4
4
4
4
4
4
4
4
4
4
4
4
4
4
4
4
4
4
4
4
4
4
4
4
4
4
4
4
4
4
4
4
4
4
4
4
4
4
4
4
4
4
4
4
4
4
4
4
4
4
4
4
4
4
4
4
4
4
4
4
4
4
4
4
4
4
4
4
4
4
4
4
4
4
4
4
4
4
4
4
4
4
4
4
4
4
4
4
4
4
4
4
4
4
4
4
4
4
4
4
4
4
4
4
4
4
4
2
2
2
2
4
4
4
4
4
4
4
4
4
4
4
4
4
4
4
4
4
4
4
4
4
4
4
4
4
4
4
4
4
4
4
4
4
4
4
4
4
4
4
4
4
4
4
4
4
4
4
4
4
4
4
4
4
4
4
4
4
4
4
4
4
4
4
4
4
4
4
4
4
4
4
4
4
4
4
4
4
4
4
4
4
4
4
4
4
4
4
4
4
4
4
4
4
4
4
4
4
4
4
4
4
4
4
4
4
4
4
4
4
4
4
4
4
4
4
4
4
4
4
4
4
4
4
4
4
4
4
4
4
4
4
4
4
4
4
4
4
4
4
4
4
4
4
4
4
4
4
4
4
4
4
4
4
4
4
4
4
4
4
4
4
4
4
4
4
4
4
4
4
4
4
4
4
4
4
4
4
4
4
4
4
4
4
4
4
4
4
4
4
4
4
4
4
4
4
4
4
4
4
4
4
4
4
4
4
4
4
4
4
4
4
4
4
4
4
4
4
4
4
4
4
4
4
4
4
4
4
4
4
4
4
4
4
4
4
4
4
4
4
4
4
4
4
4
4
4
4
4
4
4
4
4
4
4
4
4
4
4
4
4
4
4
4
4
4
4
4
4
2
2
2
2
4
4
4
4
4
4
4
4
4
4
4
4
4
4
4
4
4
4
4
4
4
4
4
4
4
4
4
4
4
4
4
4
4
4
4
4
4
4
4
4
4
4
4
4
4
4
4
4
4
4
4
4
4
4
4
4
4
4
4
4
4
4
4
4
4
4
4
4
4
4
4
4
4
4
4
4
4
4
4
4
4
4
4
4
4
4
4
4
4
4
4
4
4
4
4
4
4
4
4
4
4
4
4
4
4
4
4
4
4
4
4
4
4
4
4
4
4
4
4
4
4
4
4
4
4
4
4
4
4
4
4
4
4
4
4
4
4
4
4
4
4
4
4
4
4
4
4
4
4
4
4
4
4
4
4
4
4
4
4
4
4
4
4
4
4
4
4
4
4
4
4
4
4
4
4
4
4
4
4
4
4
4
4
4
4
4
4
4
4
4
4
4
4
4
4
4
4
4
4
4
4
4
4
4
4
4
4
4
4
4
4
4
4
4
4
4
4
4
4
4
4
4
4
4
4
4
4
4
4
4
4
4
4
4
4
4
4
4
4
4
4
4
4
4
4
4
4
4
4
4
4
4
4
4
4
4
4
4
4
4
4
4
4
4
4
4
4
4
2
2
2
2
4
4
4
4
4
4
4
4
4
4
4
4
4
4
4
4
4
4
4
4
4
4
4
4
4
4
4
4
4
4
4
4
4
4
4
4
4
4
4
4
4
4
4
4
4
4
4
4
4
4
4
4
4
4
4
4
4
4
4
4
4
4
4
4
4
4
4
4
4
4
4
4
4
4
4
4
4
4
4
4
4
4
4
4
4
4
4
4
4
4
4
4
4
4
4
4
4
4
4
4
4
4
4
4
4
4
4
4
4
4
4
4
4
4
4
4
4
4
4
4
4
4
4
4
4
4
4
4
4
4
4
4
4
4
4
4
4
4
4
4
4
4
4
4
4
4
4
4
4
4
4
4
4
4
4
4
4
4
4
4
4
4
4
4
4
4
4
4
4
4
4
4
4
4
4
4
4
4
4
4
4
4
4
4
4
4
4
4
4
4
4
4
4
4
4
4
4
4
4
4
4
4
4
4
4
4
4
4
4
4
4
4
4
4
4
4
4
4
4
4
4
4
4
4
4
4
4
4
4
4
4
4
4
4
4
4
4
4
4
4
4
4
4
4
4
4
4
4
4
4
4
4
4
4
4
4
4
4
4
4
4
4
4
4
4
4
4
4
2
2
2
2
4
4
4
4
4
4
4
4
4
4
4
4
4
4
4
4
4
4
4
4
4
4
4
4
4
4
4
4
4
4
4
4
4
4
4
4
4
4
4
4
4
4
4
4
4
4
4
4
4
4
4
4
4
4
4
4
4
4
4
4
4
4
4
4
4
4
4
4
4
4
4
4
4
4
4
4
4
4
4
4
4
4
4
4
4
4
4
4
4
4
4
4
4
4
4
4
4
4
4
4
4
4
4
4
4
4
4
4
4
4
4
4
4
4
4
4
4
4
4
4
4
4
4
4
4
4
4
4
4
4
4
4
4
4
4
4
4
4
4
4
4
4
4
4
4
4
4
4
4
4
4
4
4
4
4
4
4
4
4
4
4
4
4
4
4
4
4
4
4
4
4
4
4
4
4
4
4
4
4
4
4
4
4
4
4
4
4
4
4
4
4
4
4
4
4
4
4
4
4
4
4
4
4
4
4
4
4
4
4
4
4
4
4
4
4
4
4
4
4
4
4
4
4
4
4
4
4
4
4
4
4
4
4
4
4
4
4
4
4
4
4
4
4
4
4
4
4
4
4
4
4
4
4
4
4
4
4
4
4
4
4
4
4
4
4
4
4
4
2
2
2
2
4
4
4
4
4
4
4
4
4
4
4
4
4
4
4
4
4
4
4
4
4
4
4
4
4
4
4
4
4
4
4
4
4
4
4
4
4
4
4
4
4
4
4
4
4
4
4
4
4
4
4
4
4
4
4
4
4
4
4
4
4
4
4
4
4
4
4
4
4
4
4
4
4
4
4
4
4
4
4
4
4
4
4
4
4
4
4
4
4
4
4
4
4
4
4
4
4
4
4
4
4
4
4
4
4
4
4
4
4
4
4
4
4
4
4
4
4
4
4
4
4
4
4
4
4
4
4
4
4
4
4
4
4
4
4
4
4
4
4
4
4
4
4
4
4
4
4
4
4
4
4
4
4
4
4
4
4
4
4
4
4
4
4
4
4
4
4
4
4
4
4
4
4
4
4
4
4
4
4
4
4
4
4
4
4
4
4
4
4
4
4
4
4
4
4
4
4
4
4
4
4
4
4
4
4
4
4
4
4
4
4
4
4
4
4
4
4
4
4
4
4
4
4
4
4
4
4
4
4
4
4
4
4
4
4
4
4
4
4
4
4
4
4
4
4
4
4
4
4
4
4
4
4
4
4
4
4
4
4
4
4
4
4
4
4
4
4
4
2
2
2
2
4
4
4
4
4
4
4
4
4
4
4
4
4
4
4
4
4
4
4
4
4
4
4
4
4
4
4
4
4
4
4
4
4
4
4
4
4
4
4
4
4
4
4
4
4
4
4
4
4
4
4
4
4
4
4
4
4
4
4
4
4
4
4
4
4
4
4
4
4
4
4
4
4
4
4
4
4
4
4
4
4
4
4
4
4
4
4
4
4
4
4
4
4
4
4
4
4
4
4
4
4
4
4
4
4
4
4
4
4
4
4
4
4
4
4
4
4
4
4
4
4
4
4
4
4
4
4
4
4
4
4
4
4
4
4
4
4
4
4
4
4
4
4
4
4
4
4
4
4
4
4
4
4
4
4
4
4
4
4
4
4
4
4
4
4
4
4
4
4
4
4
4
4
4
4
4
4
4
4
4
4
4
4
4
4
4
4
4
4
4
4
4
4
4
4
4
4
4
4
4
4
4
4
4
4
4
4
4
4
4
4
4
4
4
4
4
4
4
4
4
4
4
4
4
4
4
4
4
4
4
4
4
4
4
4
4
4
4
4
4
4
4
4
4
4
4
4
4
4
4
4
4
4
4
4
4
4
4
4
4
4
4
4
4
4
4
4
4
2
2
2
2
4
4
4
4
4
4
4
4
4
4
4
4
4
4
4
4
4
4
4
4
4
4
4
4
4
4
4
4
4
4
4
4
4
4
4
4
4
4
4
4
4
4
4
4
4
4
4
4
4
4
4
4
4
4
4
4
4
4
4
4
4
4
4
4
4
4
4
4
4
4
4
4
4
4
4
4
4
4
4
4
4
4
4
4
4
4
4
4
4
4
4
4
4
4
4
4
4
4
4
4
4
4
4
4
4
4
4
4
4
4
4
4
4
4
4
4
4
4
4
4
4
4
4
4
4
4
4
4
4
4
4
4
4
4
4
4
4
4
4
4
4
4
4
4
4
4
4
4
4
4
4
4
4
4
4
4
4
4
4
4
4
4
4
4
4
4
4
4
4
4
4
4
4
4
4
4
4
4
4
4
4
4
4
4
4
4
4
4
4
4
4
4
4
4
4
4
4
4
4
4
4
4
4
4
4
4
4
4
4
4
4
4
4
4
4
4
4
4
4
4
4
4
4
4
4
4
4
4
4
4
4
4
4
4
4
4
4
4
4
4
4
4
4
4
4
4
4
4
4
4
4
4
4
4
4
4
4
4
4
4
4
4
4
4
4
4
4
4
2
2
2
2
4
4
4
4
4
4
4
4
4
4
4
4
4
4
4
4
4
4
4
4
4
4
4
4
4
4
4
4
4
4
4
4
4
4
4
4
4
4
4
4
4
4
4
4
4
4
4
4
4
4
4
4
4
4
4
4
4
4
4
4
4
4
4
4
4
4
4
4
4
4
4
4
4
4
4
4
4
4
4
4
4
4
4
4
4
4
4
4
4
4
4
4
4
4
4
4
4
4
4
4
4
4
4
4
4
4
4
4
4
4
4
4
4
4
4
4
4
4
4
4
4
4
4
4
4
4
4
4
4
4
4
4
4
4
4
4
4
4
4
4
4
4
4
4
4
4
4
4
4
4
4
4
4
4
4
4
4
4
4
4
4
4
4
4
4
4
4
4
4
4
4
4
4
4
4
4
4
4
4
4
4
4
4
4
4
4
4
4
4
4
4
4
4
4
4
4
4
4
4
4
4
4
4
4
4
4
4
4
4
4
4
4
4
4
4
4
4
4
4
4
4
4
4
4
4
4
4
4
4
4
4
4
4
4
4
4
4
4
4
4
4
4
4
4
4
4
4
4
4
4
4
4
4
4
4
4
4
4
4
4
4
4
4
4
4
4
4
4
2
2
2
2
4
4
4
4
4
4
4
4
4
4
4
4
4
4
4
4
4
4
4
4
4
4
4
4
4
4
4
4
4
4
4
4
4
4
4
4
4
4
4
4
4
4
4
4
4
4
4
4
4
4
4
4
4
4
4
4
4
4
4
4
4
4
4
4
4
4
4
4
4
4
4
4
4
4
4
4
4
4
4
4
4
4
4
4
4
4
4
4
4
4
4
4
4
4
4
4
4
4
4
4
4
4
4
4
4
4
4
4
4
4
4
4
4
4
4
4
4
4
4
4
4
4
4
4
4
4
4
4
4
4
4
4
4
4
4
4
4
4
4
4
4
4
4
4
4
4
4
4
4
4
4
4
4
4
4
4
4
4
4
4
4
4
4
4
4
4
4
4
4
4
4
4
4
4
4
4
4
4
4
4
4
4
4
4
4
4
4
4
4
4
4
4
4
4
4
4
4
4
4
4
4
4
4
4
4
4
4
4
4
4
4
4
4
4
4
4
4
4
4
4
4
4
4
4
4
4
4
4
4
4
4
4
4
4
4
4
4
4
4
4
4
4
4
4
4
4
4
4
4
4
4
4
4
4
4
4
4
4
4
4
4
4
4
4
4
4
4
4
2
2
2
2
4
4
4
4
4
4
4
4
4
4
4
4
4
4
4
4
4
4
4
4
4
4
4
4
4
4
4
4
4
4
4
4
4
4
4
4
4
4
4
4
4
4
4
4
4
4
4
4
4
4
4
4
4
4
4
4
4
4
4
4
4
4
4
4
4
4
4
4
4
4
4
4
4
4
4
4
4
4
4
4
4
4
4
4
4
4
4
4
4
4
4
4
4
4
4
4
4
4
4
4
4
4
4
4
4
4
4
4
4
4
4
4
4
4
4
4
4
4
4
4
4
4
4
4
4
4
4
4
4
4
4
4
4
4
4
4
4
4
4
4
4
4
4
4
4
4
4
4
4
4
4
4
4
4
4
4
4
4
4
4
4
4
4
4
4
4
4
4
4
4
4
4
4
4
4
4
4
4
4
4
4
4
4
4
4
4
4
4
4
4
4
4
4
4
4
4
4
4
4
4
4
4
4
4
4
4
4
4
4
4
4
4
4
4
4
4
4
4
4
4
4
4
4
4
4
4
4
4
4
4
4
4
4
4
4
4
4
4
4
4
4
4
4
4
4
4
4
4
4
4
4
4
4
4
4
4
4
4
4
4
4
4
4
4
4
4
4
4
2
2
2
2
4
4
4
4
4
4
4
4
4
4
4
4
4
4
4
4
4
4
4
4
4
4
4
4
4
4
4
4
4
4
4
4
4
4
4
4
4
4
4
4
4
4
4
4
4
4
4
4
4
4
4
4
4
4
4
4
4
4
4
4
4
4
4
4
4
4
4
4
4
4
4
4
4
4
4
4
4
4
4
4
4
4
4
4
4
4
4
4
4
4
4
4
4
4
4
4
4
4
4
4
4
4
4
4
4
4
4
4
4
4
4
4
4
4
4
4
4
4
4
4
4
4
4
4
4
4
4
4
4
4
4
4
4
4
4
4
4
4
4
4
4
4
4
4
4
4
4
4
4
4
4
4
4
4
4
4
4
4
4
4
4
4
4
4
4
4
4
4
4
4
4
4
4
4
4
4
4
4
4
4
4
4
4
4
4
4
4
4
4
4
4
4
4
4
4
4
4
4
4
4
4
4
4
4
4
4
4
4
4
4
4
4
4
4
4
4
4
4
4
4
4
4
4
4
4
4
4
4
4
4
4
4
4
4
4
4
4
4
4
4
4
4
4
4
4
4
4
4
4
4
4
4
4
4
4
4
4
4
4
4
4
4
4
4
4
4
4
4
2
2
2
2
4
4
4
4
4
4
4
4
4
4
4
4
4
4
4
4
4
4
4
4
4
4
4
4
4
4
4
4
4
4
4
4
4
4
4
4
4
4
4
4
4
4
4
4
4
4
4
4
4
4
4
4
4
4
4
4
4
4
4
4
4
4
4
4
4
4
4
4
4
4
4
4
4
4
4
4
4
4
4
4
4
4
4
4
4
4
4
4
4
4
4
4
4
4
4
4
4
4
4
4
4
4
4
4
4
4
4
4
4
4
4
4
4
4
4
4
4
4
4
4
4
4
4
4
4
4
4
4
4
4
4
4
4
4
4
4
4
4
4
4
4
4
4
4
4
4
4
4
4
4
4
4
4
4
4
4
4
4
4
4
4
4
4
4
4
4
4
4
4
4
4
4
4
4
4
4
4
4
4
4
4
4
4
4
4
4
4
4
4
4
4
4
4
4
4
4
4
4
4
4
4
4
4
4
4
4
4
4
4
4
4
4
4
4
4
4
4
4
4
4
4
4
4
4
4
4
4
4
4
4
4
4
4
4
4
4
4
4
4
4
4
4
4
4
4
4
4
4
4
4
4
4
4
4
4
4
4
4
4
4
4
4
4
4
4
4
4
4
2
2
2
2
4
4
4
4
4
4
4
4
4
4
4
4
4
4
4
4
4
4
4
4
4
4
4
4
4
4
4
4
4
4
4
4
4
4
4
4
4
4
4
4
4
4
4
4
4
4
4
4
4
4
4
4
4
4
4
4
4
4
4
4
4
4
4
4
4
4
4
4
4
4
4
4
4
4
4
4
4
4
4
4
4
4
4
4
4
4
4
4
4
4
4
4
4
4
4
4
4
4
4
4
4
4
4
4
4
4
4
4
4
4
4
4
4
4
4
4
4
4
4
4
4
4
4
4
4
4
4
4
4
4
4
4
4
4
4
4
4
4
4
4
4
4
4
4
4
4
4
4
4
4
4
4
4
4
4
4
4
4
4
4
4
4
4
4
4
4
4
4
4
4
4
4
4
4
4
4
4
4
4
4
4
4
4
4
4
4
4
4
4
4
4
4
4
4
4
4
4
4
4
4
4
4
4
4
4
4
4
4
4
4
4
4
4
4
4
4
4
4
4
4
4
4
4
4
4
4
4
4
4
4
4
4
4
4
4
4
4
4
4
4
4
4
4
4
4
4
4
4
4
4
4
4
4
4
4
4
4
4
4
4
4
4
4
4
4
4
4
4
2
2
2
2
4
4
4
4
4
4
4
4
4
4
4
4
4
4
4
4
4
4
4
4
4
4
4
4
4
4
4
4
4
4
4
4
4
4
4
4
4
4
4
4
4
4
4
4
4
4
4
4
4
4
4
4
4
4
4
4
4
4
4
4
4
4
4
4
4
4
4
4
4
4
4
4
4
4
4
4
4
4
4
4
4
4
4
4
4
4
4
4
4
4
4
4
4
4
4
4
4
4
4
4
4
4
4
4
4
4
4
4
4
4
4
4
4
4
4
4
4
4
4
4
4
4
4
4
4
4
4
4
4
4
4
4
4
4
4
4
4
4
4
4
4
4
4
4
4
4
4
4
4
4
4
4
4
4
4
4
4
4
4
4
4
4
4
4
4
4
4
4
4
4
4
4
4
4
4
4
4
4
4
4
4
4
4
4
4
4
4
4
4
4
4
4
4
4
4
4
4
4
4
4
4
4
4
4
4
4
4
4
4
4
4
4
4
4
4
4
4
4
4
4
4
4
4
4
4
4
4
4
4
4
4
4
4
4
4
4
4
4
4
4
4
4
4
4
4
4
4
4
4
4
4
4
4
4
4
4
4
4
4
4
4
4
4
4
4
4
4
4
2
2
2
2
4
4
4
4
4
4
4
4
4
4
4
4
4
4
4
4
4
4
4
4
4
4
4
4
4
4
4
4
4
4
4
4
4
4
4
4
4
4
4
4
4
4
4
4
4
4
4
4
4
4
4
4
4
4
4
4
4
4
4
4
4
4
4
4
4
4
4
4
4
4
4
4
4
4
4
4
4
4
4
4
4
4
4
4
4
4
4
4
4
4
4
4
4
4
4
4
4
4
4
4
4
4
4
4
4
4
4
4
4
4
4
4
4
4
4
4
4
4
4
4
4
4
4
4
4
4
4
4
4
4
4
4
4
4
4
4
4
4
4
4
4
4
4
4
4
4
4
4
4
4
4
4
4
4
4
4
4
4
4
4
4
4
4
4
4
4
4
4
4
4
4
4
4
4
4
4
4
4
4
4
4
4
4
4
4
4
4
4
4
4
4
4
4
4
4
4
4
4
4
4
4
4
4
4
4
4
4
4
4
4
4
4
4
4
4
4
4
4
4
4
4
4
4
4
4
4
4
4
4
4
4
4
4
4
4
4
4
4
4
4
4
4
4
4
4
4
4
4
4
4
4
4
4
4
4
4
4
4
4
4
4
4
4
4
4
4
4
4
2
2
2
2
4
4
4
4
4
4
4
4
4
4
4
4
4
4
4
4
4
4
4
4
4
4
4
4
4
4
4
4
4
4
4
4
4
4
4
4
4
4
4
4
4
4
4
4
4
4
4
4
4
4
4
4
4
4
4
4
4
4
4
4
4
4
4
4
4
4
4
4
4
4
4
4
4
4
4
4
4
4
4
4
4
4
4
4
4
4
4
4
4
4
4
4
4
4
4
4
4
4
4
4
4
4
4
4
4
4
4
4
4
4
4
4
4
4
4
4
4
4
4
4
4
4
4
4
4
4
4
4
4
4
4
4
4
4
4
4
4
4
4
4
4
4
4
4
4
4
4
4
4
4
4
4
4
4
4
4
4
4
4
4
4
4
4
4
4
4
4
4
4
4
4
4
4
4
4
4
4
4
4
4
4
4
4
4
4
4
4
4
4
4
4
4
4
4
4
4
4
4
4
4
4
4
4
4
4
4
4
4
4
4
4
4
4
4
4
4
4
4
4
4
4
4
4
4
4
4
4
4
4
4
4
4
4
4
4
4
4
4
4
4
4
4
4
4
4
4
4
4
4
4
4
4
4
4
4
4
4
4
4
4
4
4
4
4
4
4
4
4
2
2
2
2
4
4
4
4
4
4
4
4
4
4
4
4
4
4
4
4
4
4
4
4
4
4
4
4
4
4
4
4
4
4
4
4
4
4
4
4
4
4
4
4
4
4
4
4
4
4
4
4
4
4
4
4
4
4
4
4
4
4
4
4
4
4
4
4
4
4
4
4
4
4
4
4
4
4
4
4
4
4
4
4
4
4
4
4
4
4
4
4
4
4
4
4
4
4
4
4
4
4
4
4
4
4
4
4
4
4
4
4
4
4
4
4
4
4
4
4
4
4
4
4
4
4
4
4
4
4
4
4
4
4
4
4
4
4
4
4
4
4
4
4
4
4
4
4
4
4
4
4
4
4
4
4
4
4
4
4
4
4
4
4
4
4
4
4
4
4
4
4
4
4
4
4
4
4
4
4
4
4
4
4
4
4
4
4
4
4
4
4
4
4
4
4
4
4
4
4
4
4
4
4
4
4
4
4
4
4
4
4
4
4
4
4
4
4
4
4
4
4
4
4
4
4
4
4
4
4
4
4
4
4
4
4
4
4
4
4
4
4
4
4
4
4
4
4
4
4
4
4
4
4
4
4
4
4
4
4
4
4
4
4
4
4
4
4
4
4
4
4
2
2
2
2
4
4
4
4
4
4
4
4
4
4
4
4
4
4
4
4
4
4
4
4
4
4
4
4
4
4
4
4
4
4
4
4
4
4
4
4
4
4
4
4
4
4
4
4
4
4
4
4
4
4
4
4
4
4
4
4
4
4
4
4
4
4
4
4
4
4
4
4
4
4
4
4
4
4
4
4
4
4
4
4
4
4
4
4
4
4
4
4
4
4
4
4
4
4
4
4
4
4
4
4
4
4
4
4
4
4
4
4
4
4
4
4
4
4
4
4
4
4
4
4
4
4
4
4
4
4
4
4
4
4
4
4
4
4
4
4
4
4
4
4
4
4
4
4
4
4
4
4
4
4
4
4
4
4
4
4
4
4
4
4
4
4
4
4
4
4
4
4
4
4
4
4
4
4
4
4
4
4
4
4
4
4
4
4
4
4
4
4
4
4
4
4
4
4
4
4
4
4
4
4
4
4
4
4
4
4
4
4
4
4
4
4
4
4
4
4
4
4
4
4
4
4
4
4
4
4
4
4
4
4
4
4
4
4
4
4
4
4
4
4
4
4
4
4
4
4
4
4
4
4
4
4
4
4
4
4
4
4
4
4
4
4
4
4
4
4
4
4
2
2
2
2
4
4
4
4
4
4
4
4
4
4
4
4
4
4
4
4
4
4
4
4
4
4
4
4
4
4
4
4
4
4
4
4
4
4
4
4
4
4
4
4
4
4
4
4
4
4
4
4
4
4
4
4
4
4
4
4
4
4
4
4
4
4
4
4
4
4
4
4
4
4
4
4
4
4
4
4
4
4
4
4
4
4
4
4
4
4
4
4
4
4
4
4
4
4
4
4
4
4
4
4
4
4
4
4
4
4
4
4
4
4
4
4
4
4
4
4
4
4
4
4
4
4
4
4
4
4
4
4
4
4
4
4
4
4
4
4
4
4
4
4
4
4
4
4
4
4
4
4
4
4
4
4
4
4
4
4
4
4
4
4
4
4
4
4
4
4
4
4
4
4
4
4
4
4
4
4
4
4
4
4
4
4
4
4
4
4
4
4
4
4
4
4
4
4
4
4
4
4
4
4
4
4
4
4
4
4
4
4
4
4
4
4
4
4
4
4
4
4
4
4
4
4
4
4
4
4
4
4
4
4
4
4
4
4
4
4
4
4
4
4
4
4
4
4
4
4
4
4
4
4
4
4
4
4
4
4
4
4
4
4
4
4
4
4
4
4
4
4
2
2
2
2
4
4
4
4
4
4
4
4
4
4
4
4
4
4
4
4
4
4
4
4
4
4
4
4
4
4
4
4
4
4
4
4
4
4
4
4
4
4
4
4
4
4
4
4
4
4
4
4
4
4
4
4
4
4
4
4
4
4
4
4
4
4
4
4
4
4
4
4
4
4
4
4
4
4
4
4
4
4
4
4
4
4
4
4
4
4
4
4
4
4
4
4
4
4
4
4
4
4
4
4
4
4
4
4
4
4
4
4
4
4
4
4
4
4
4
4
4
4
4
4
4
4
4
4
4
4
4
4
4
4
4
4
4
4
4
4
4
4
4
4
4
4
4
4
4
4
4
4
4
4
4
4
4
4
4
4
4
4
4
4
4
4
4
4
4
4
4
4
4
4
4
4
4
4
4
4
4
4
4
4
4
4
4
4
4
4
4
4
4
4
4
4
4
4
4
4
4
4
4
4
4
4
4
4
4
4
4
4
4
4
4
4
4
4
4
4
4
4
4
4
4
4
4
4
4
4
4
4
4
4
4
4
4
4
4
4
4
4
4
4
4
4
4
4
4
4
4
4
4
4
4
4
4
4
4
4
4
4
4
4
4
4
4
4
4
4
4
4
2
2
2
2
4
4
4
4
4
4
4
4
4
4
4
4
4
4
4
4
4
4
4
4
4
4
4
4
4
4
4
4
4
4
4
4
4
4
4
4
4
4
4
4
4
4
4
4
4
4
4
4
4
4
4
4
4
4
4
4
4
4
4
4
4
4
4
4
4
4
4
4
4
4
4
4
4
4
4
4
4
4
4
4
4
4
4
4
4
4
4
4
4
4
4
4
4
4
4
4
4
4
4
4
4
4
4
4
4
4
4
4
4
4
4
4
4
4
4
4
4
4
4
4
4
4
4
4
4
4
4
4
4
4
4
4
4
4
4
4
4
4
4
4
4
4
4
4
4
4
4
4
4
4
4
4
4
4
4
4
4
4
4
4
4
4
4
4
4
4
4
4
4
4
4
4
4
4
4
4
4
4
4
4
4
4
4
4
4
4
4
4
4
4
4
4
4
4
4
4
4
4
4
4
4
4
4
4
4
4
4
4
4
4
4
4
4
4
4
4
4
4
4
4
4
4
4
4
4
4
4
4
4
4
4
4
4
4
4
4
4
4
4
4
4
4
4
4
4
4
4
4
4
4
4
4
4
4
4
4
4
4
4
4
4
4
4
4
4
4
4
4
2
2
2
2
4
4
4
4
4
4
4
4
4
4
4
4
4
4
4
4
4
4
4
4
4
4
4
4
4
4
4
4
4
4
4
4
4
4
4
4
4
4
4
4
4
4
4
4
4
4
4
4
4
4
4
4
4
4
4
4
4
4
4
4
4
4
4
4
4
4
4
4
4
4
4
4
4
4
4
4
4
4
4
4
4
4
4
4
4
4
4
4
4
4
4
4
4
4
4
4
4
4
4
4
4
4
4
4
4
4
4
4
4
4
4
4
4
4
4
4
4
4
4
4
4
4
4
4
4
4
4
4
4
4
4
4
4
4
4
4
4
4
4
4
4
4
4
4
4
4
4
4
4
4
4
4
4
4
4
4
4
4
4
4
4
4
4
4
4
4
4
4
4
4
4
4
4
4
4
4
4
4
4
4
4
4
4
4
4
4
4
4
4
4
4
4
4
4
4
4
4
4
4
4
4
4
4
4
4
4
4
4
4
4
4
4
4
4
4
4
4
4
4
4
4
4
4
4
4
4
4
4
4
4
4
4
4
4
4
4
4
4
4
4
4
4
4
4
4
4
4
4
4
4
4
4
4
4
4
4
4
4
4
4
4
4
4
4
4
4
4
4
2
2
2
2
4
4
4
4
4
4
4
4
4
4
4
4
4
4
4
4
4
4
4
4
4
4
4
4
4
4
4
4
4
4
4
4
4
4
4
4
4
4
4
4
4
4
4
4
4
4
4
4
4
4
4
4
4
4
4
4
4
4
4
4
4
4
4
4
4
4
4
4
4
4
4
4
4
4
4
4
4
4
4
4
4
4
4
4
4
4
4
4
4
4
4
4
4
4
4
4
4
4
4
4
4
4
4
4
4
4
4
4
4
4
4
4
4
4
4
4
4
4
4
4
4
4
4
4
4
4
4
4
4
4
4
4
4
4
4
4
4
4
4
4
4
4
4
4
4
4
4
4
4
4
4
4
4
4
4
4
4
4
4
4
4
4
4
4
4
4
4
4
4
4
4
4
4
4
4
4
4
4
4
4
4
4
4
4
4
4
4
4
4
4
4
4
4
4
4
4
4
4
4
4
4
4
4
4
4
4
4
4
4
4
4
4
4
4
4
4
4
4
4
4
4
4
4
4
4
4
4
4
4
4
4
4
4
4
4
4
4
4
4
4
4
4
4
4
4
4
4
4
4
4
4
4
4
4
4
4
4
4
4
4
4
4
4
4
4
4
4
4
2
2
2
2
4
4
4
4
4
4
4
4
4
4
4
4
4
4
4
4
4
4
4
4
4
4
4
4
4
4
4
4
4
4
4
4
4
4
4
4
4
4
4
4
4
4
4
4
4
4
4
4
4
4
4
4
4
4
4
4
4
4
4
4
4
4
4
4
4
4
4
4
4
4
4
4
4
4
4
4
4
4
4
4
4
4
4
4
4
4
4
4
4
4
4
4
4
4
4
4
4
4
4
4
4
4
4
4
4
4
4
4
4
4
4
4
4
4
4
4
4
4
4
4
4
4
4
4
4
4
4
4
4
4
4
4
4
4
4
4
4
4
4
4
4
4
4
4
4
4
4
4
4
4
4
4
4
4
4
4
4
4
4
4
4
4
4
4
4
4
4
4
4
4
4
4
4
4
4
4
4
4
4
4
4
4
4
4
4
4
4
4
4
4
4
4
4
4
4
4
4
4
4
4
4
4
4
4
4
4
4
4
4
4
4
4
4
4
4
4
4
4
4
4
4
4
4
4
4
4
4
4
4
4
4
4
4
4
4
4
4
4
4
4
4
4
4
4
4
4
4
4
4
4
4
4
4
4
4
4
4
4
4
4
4
4
4
4
4
4
4
4
2
2
2
2
4
4
4
4
4
4
4
4
4
4
4
4
4
4
4
4
4
4
4
4
4
4
4
4
4
4
4
4
4
4
4
4
4
4
4
4
4
4
4
4
4
4
4
4
4
4
4
4
4
4
4
4
4
4
4
4
4
4
4
4
4
4
4
4
4
4
4
4
4
4
4
4
4
4
4
4
4
4
4
4
4
4
4
4
4
4
4
4
4
4
4
4
4
4
4
4
4
4
4
4
4
4
4
4
4
4
4
4
4
4
4
4
4
4
4
4
4
4
4
4
4
4
4
4
4
4
4
4
4
4
4
4
4
4
4
4
4
4
4
4
4
4
4
4
4
4
4
4
4
4
4
4
4
4
4
4
4
4
4
4
4
4
4
4
4
4
4
4
4
4
4
4
4
4
4
4
4
4
4
4
4
4
4
4
4
4
4
4
4
4
4
4
4
4
4
4
4
4
4
4
4
4
4
4
4
4
4
4
4
4
4
4
4
4
4
4
4
4
4
4
4
4
4
4
4
4
4
4
4
4
4
4
4
4
4
4
4
4
4
4
4
4
4
4
4
4
4
4
4
4
4
4
4
4
4
4
4
4
4
4
4
4
4
4
4
4
4
4
2
2
2
2
4
4
4
4
4
4
4
4
4
4
4
4
4
4
4
4
4
4
4
4
4
4
4
4
4
4
4
4
4
4
4
4
4
4
4
4
4
4
4
4
4
4
4
4
4
4
4
4
4
4
4
4
4
4
4
4
4
4
4
4
4
4
4
4
4
4
4
4
4
4
4
4
4
4
4
4
4
4
4
4
4
4
4
4
4
4
4
4
4
4
4
4
4
4
4
4
4
4
4
4
4
4
4
4
4
4
4
4
4
4
4
4
4
4
4
4
4
4
4
4
4
4
4
4
4
4
4
4
4
4
4
4
4
4
4
4
4
4
4
4
4
4
4
4
4
4
4
4
4
4
4
4
4
4
4
4
4
4
4
4
4
4
4
4
4
4
4
4
4
4
4
4
4
4
4
4
4
4
4
4
4
4
4
4
4
4
4
4
4
4
4
4
4
4
4
4
4
4
4
4
4
4
4
4
4
4
4
4
4
4
4
4
4
4
4
4
4
4
4
4
4
4
4
4
4
4
4
4
4
4
4
4
4
4
4
4
4
4
4
4
4
4
4
4
4
4
4
4
4
4
4
4
4
4
4
4
4
4
4
4
4
4
4
4
4
4
4
4
2
2
2
2
4
4
4
4
4
4
4
4
4
4
4
4
4
4
4
4
4
4
4
4
4
4
4
4
4
4
4
4
4
4
4
4
4
4
4
4
4
4
4
4
4
4
4
4
4
4
4
4
4
4
4
4
4
4
4
4
4
4
4
4
4
4
4
4
4
4
4
4
4
4
4
4
4
4
4
4
4
4
4
4
4
4
4
4
4
4
4
4
4
4
4
4
4
4
4
4
4
4
4
4
4
4
4
4
4
4
4
4
4
4
4
4
4
4
4
4
4
4
4
4
4
4
4
4
4
4
4
4
4
4
4
4
4
4
4
4
4
4
4
4
4
4
4
4
4
4
4
4
4
4
4
4
4
4
4
4
4
4
4
4
4
4
4
4
4
4
4
4
4
4
4
4
4
4
4
4
4
4
4
4
4
4
4
4
4
4
4
4
4
4
4
4
4
4
4
4
4
4
4
4
4
4
4
4
4
4
4
4
4
4
4
4
4
4
4
4
4
4
4
4
4
4
4
4
4
4
4
4
4
4
4
4
4
4
4
4
4
4
4
4
4
4
4
4
4
4
4
4
4
4
4
4
4
4
4
4
4
4
4
4
4
4
4
4
4
4
4
4
2
2
2
2
4
4
4
4
4
4
4
4
4
4
4
4
4
4
4
4
4
4
4
4
4
4
4
4
4
4
4
4
4
4
4
4
4
4
4
4
4
4
4
4
4
4
4
4
4
4
4
4
4
4
4
4
4
4
4
4
4
4
4
4
4
4
4
4
4
4
4
4
4
4
4
4
4
4
4
4
4
4
4
4
4
4
4
4
4
4
4
4
4
4
4
4
4
4
4
4
4
4
4
4
4
4
4
4
4
4
4
4
4
4
4
4
4
4
4
4
4
4
4
4
4
4
4
4
4
4
4
4
4
4
4
4
4
4
4
4
4
4
4
4
4
4
4
4
4
4
4
4
4
4
4
4
4
4
4
4
4
4
4
4
4
4
4
4
4
4
4
4
4
4
4
4
4
4
4
4
4
4
4
4
4
4
4
4
4
4
4
4
4
4
4
4
4
4
4
4
4
4
4
4
4
4
4
4
4
4
4
4
4
4
4
4
4
4
4
4
4
4
4
4
4
4
4
4
4
4
4
4
4
4
4
4
4
4
4
4
4
4
4
4
4
4
4
4
4
4
4
4
4
4
4
4
4
4
4
4
4
4
4
4
4
4
4
4
4
4
4
4
2
2
2
2
4
4
4
4
4
4
4
4
4
4
4
4
4
4
4
4
4
4
4
4
4
4
4
4
4
4
4
4
4
4
4
4
4
4
4
4
4
4
4
4
4
4
4
4
4
4
4
4
4
4
4
4
4
4
4
4
4
4
4
4
4
4
4
4
4
4
4
4
4
4
4
4
4
4
4
4
4
4
4
4
4
4
4
4
4
4
4
4
4
4
4
4
4
4
4
4
4
4
4
4
4
4
4
4
4
4
4
4
4
4
4
4
4
4
4
4
4
4
4
4
4
4
4
4
4
4
4
4
4
4
4
4
4
4
4
4
4
4
4
4
4
4
4
4
4
4
4
4
4
4
4
4
4
4
4
4
4
4
4
4
4
4
4
4
4
4
4
4
4
4
4
4
4
4
4
4
4
4
4
4
4
4
4
4
4
4
4
4
4
4
4
4
4
4
4
4
4
4
4
4
4
4
4
4
4
4
4
4
4
4
4
4
4
4
4
4
4
4
4
4
4
4
4
4
4
4
4
4
4
4
4
4
4
4
4
4
4
4
4
4
4
4
4
4
4
4
4
4
4
4
4
4
4
4
4
4
4
4
4
4
4
4
4
4
4
4
4
4
2
2
2
2
4
4
4
4
4
4
4
4
4
4
4
4
4
4
4
4
4
4
4
4
4
4
4
4
4
4
4
4
4
4
4
4
4
4
4
4
4
4
4
4
4
4
4
4
4
4
4
4
4
4
4
4
4
4
4
4
4
4
4
4
4
4
4
4
4
4
4
4
4
4
4
4
4
4
4
4
4
4
4
4
4
4
4
4
4
4
4
4
4
4
4
4
4
4
4
4
4
4
4
4
4
4
4
4
4
4
4
4
4
4
4
4
4
4
4
4
4
4
4
4
4
4
4
4
4
4
4
4
4
4
4
4
4
4
4
4
4
4
4
4
4
4
4
4
4
4
4
4
4
4
4
4
4
4
4
4
4
4
4
4
4
4
4
4
4
4
4
4
4
4
4
4
4
4
4
4
4
4
4
4
4
4
4
4
4
4
4
4
4
4
4
4
4
4
4
4
4
4
4
4
4
4
4
4
4
4
4
4
4
4
4
4
4
4
4
4
4
4
4
4
4
4
4
4
4
4
4
4
4
4
4
4
4
4
4
4
4
4
4
4
4
4
4
4
4
4
4
4
4
4
4
4
4
4
4
4
4
4
4
4
4
4
4
4
4
4
4
4
2
2
2
2
4
4
4
4
4
4
4
4
4
4
4
4
4
4
4
4
4
4
4
4
4
4
4
4
4
4
4
4
4
4
4
4
4
4
4
4
4
4
4
4
4
4
4
4
4
4
4
4
4
4
4
4
4
4
4
4
4
4
4
4
4
4
4
4
4
4
4
4
4
4
4
4
4
4
4
4
4
4
4
4
4
4
4
4
4
4
4
4
4
4
4
4
4
4
4
4
4
4
4
4
4
4
4
4
4
4
4
4
4
4
4
4
4
4
4
4
4
4
4
4
4
4
4
4
4
4
4
4
4
4
4
4
4
4
4
4
4
4
4
4
4
4
4
4
4
4
4
4
4
4
4
4
4
4
4
4
4
4
4
4
4
4
4
4
4
4
4
4
4
4
4
4
4
4
4
4
4
4
4
4
4
4
4
4
4
4
4
4
4
4
4
4
4
4
4
4
4
4
4
4
4
4
4
4
4
4
4
4
4
4
4
4
4
4
4
4
4
4
4
4
4
4
4
4
4
4
4
4
4
4
4
4
4
4
4
4
4
4
4
4
4
4
4
4
4
4
4
4
4
4
4
4
4
4
4
4
4
4
4
4
4
4
4
4
4
4
4
4
2
2
2
2
4
4
4
4
4
4
4
4
4
4
4
4
4
4
4
4
4
4
4
4
4
4
4
4
4
4
4
4
4
4
4
4
4
4
4
4
4
4
4
4
4
4
4
4
4
4
4
4
4
4
4
4
4
4
4
4
4
4
4
4
4
4
4
4
4
4
4
4
4
4
4
4
4
4
4
4
4
4
4
4
4
4
4
4
4
4
4
4
4
4
4
4
4
4
4
4
4
4
4
4
4
4
4
4
4
4
4
4
4
4
4
4
4
4
4
4
4
4
4
4
4
4
4
4
4
4
4
4
4
4
4
4
4
4
4
4
4
4
4
4
4
4
4
4
4
4
4
4
4
4
4
4
4
4
4
4
4
4
4
4
4
4
4
4
4
4
4
4
4
4
4
4
4
4
4
4
4
4
4
4
4
4
4
4
4
4
4
4
4
4
4
4
4
4
4
4
4
4
4
4
4
4
4
4
4
4
4
4
4
4
4
4
4
4
4
4
4
4
4
4
4
4
4
4
4
4
4
4
4
4
4
4
4
4
4
4
4
4
4
4
4
4
4
4
4
4
4
4
4
4
4
4
4
4
4
4
4
4
4
4
4
4
4
4
4
4
4
4
2
2
2
2
4
4
4
4
4
4
4
4
4
4
4
4
4
4
4
4
4
4
4
4
4
4
4
4
4
4
4
4
4
4
4
4
4
4
4
4
4
4
4
4
4
4
4
4
4
4
4
4
4
4
4
4
4
4
4
4
4
4
4
4
4
4
4
4
4
4
4
4
4
4
4
4
4
4
4
4
4
4
4
4
4
4
4
4
4
4
4
4
4
4
4
4
4
4
4
4
4
4
4
4
4
4
4
4
4
4
4
4
4
4
4
4
4
4
4
4
4
4
4
4
4
4
4
4
4
4
4
4
4
4
4
4
4
4
4
4
4
4
4
4
4
4
4
4
4
4
4
4
4
4
4
4
4
4
4
4
4
4
4
4
4
4
4
4
4
4
4
4
4
4
4
4
4
4
4
4
4
4
4
4
4
4
4
4
4
4
4
4
4
4
4
4
4
4
4
4
4
4
4
4
4
4
4
4
4
4
4
4
4
4
4
4
4
4
4
4
4
4
4
4
4
4
4
4
4
4
4
4
4
4
4
4
4
4
4
4
4
4
4
4
4
4
4
4
4
4
4
4
4
4
4
4
4
4
4
4
4
4
4
4
4
4
4
4
4
4
4
4
2
2
2
2
4
4
4
4
4
4
4
4
4
4
4
4
4
4
4
4
4
4
4
4
4
4
4
4
4
4
4
4
4
4
4
4
4
4
4
4
4
4
4
4
4
4
4
4
4
4
4
4
4
4
4
4
4
4
4
4
4
4
4
4
4
4
4
4
4
4
4
4
4
4
4
4
4
4
4
4
4
4
4
4
4
4
4
4
4
4
4
4
4
4
4
4
4
4
4
4
4
4
4
4
4
4
4
4
4
4
4
4
4
4
4
4
4
4
4
4
4
4
4
4
4
4
4
4
4
4
4
4
4
4
4
4
4
4
4
4
4
4
4
4
4
4
4
4
4
4
4
4
4
4
4
4
4
4
4
4
4
4
4
4
4
4
4
4
4
4
4
4
4
4
4
4
4
4
4
4
4
4
4
4
4
4
4
4
4
4
4
4
4
4
4
4
4
4
4
4
4
4
4
4
4
4
4
4
4
4
4
4
4
4
4
4
4
4
4
4
4
4
4
4
4
4
4
4
4
4
4
4
4
4
4
4
4
4
4
4
4
4
4
4
4
4
4
4
4
4
4
4
4
4
4
4
4
4
4
4
4
4
4
4
4
4
4
4
4
4
4
4
2
2
2
2
4
4
4
4
4
4
4
4
4
4
4
4
4
4
4
4
4
4
4
4
4
4
4
4
4
4
4
4
4
4
4
4
4
4
4
4
4
4
4
4
4
4
4
4
4
4
4
4
4
4
4
4
4
4
4
4
4
4
4
4
4
4
4
4
4
4
4
4
4
4
4
4
4
4
4
4
4
4
4
4
4
4
4
4
4
4
4
4
4
4
4
4
4
4
4
4
4
4
4
4
4
4
4
4
4
4
4
4
4
4
4
4
4
4
4
4
4
4
4
4
4
4
4
4
4
4
4
4
4
4
4
4
4
4
4
4
4
4
4
4
4
4
4
4
4
4
4
4
4
4
4
4
4
4
4
4
4
4
4
4
4
4
4
4
4
4
4
4
4
4
4
4
4
4
4
4
4
4
4
4
4
4
4
4
4
4
4
4
4
4
4
4
4
4
4
4
4
4
4
4
4
4
4
4
4
4
4
4
4
4
4
4
4
4
4
4
4
4
4
4
4
4
4
4
4
4
4
4
4
4
4
4
4
4
4
4
4
4
4
4
4
4
4
4
4
4
4
4
4
4
4
4
4
4
4
4
4
4
4
4
4
4
4
4
4
4
4
4
2
2
2
2
4
4
4
4
4
4
4
4
4
4
4
4
4
4
4
4
4
4
4
4
4
4
4
4
4
4
4
4
4
4
4
4
4
4
4
4
4
4
4
4
4
4
4
4
4
4
4
4
4
4
4
4
4
4
4
4
4
4
4
4
4
4
4
4
4
4
4
4
4
4
4
4
4
4
4
4
4
4
4
4
4
4
4
4
4
4
4
4
4
4
4
4
4
4
4
4
4
4
4
4
4
4
4
4
4
4
4
4
4
4
4
4
4
4
4
4
4
4
4
4
4
4
4
4
4
4
4
4
4
4
4
4
4
4
4
4
4
4
4
4
4
4
4
4
4
4
4
4
4
4
4
4
4
4
4
4
4
4
4
4
4
4
4
4
4
4
4
4
4
4
4
4
4
4
4
4
4
4
4
4
4
4
4
4
4
4
4
4
4
4
4
4
4
4
4
4
4
4
4
4
4
4
4
4
4
4
4
4
4
4
4
4
4
4
4
4
4
4
4
4
4
4
4
4
4
4
4
4
4
4
4
4
4
4
4
4
4
4
4
4
4
4
4
4
4
4
4
4
4
4
4
4
4
4
4
4
4
4
4
4
4
4
4
4
4
4
4
4
2
2
2
2
4
4
4
4
4
4
4
4
4
4
4
4
4
4
4
4
4
4
4
4
4
4
4
4
4
4
4
4
4
4
4
4
4
4
4
4
4
4
4
4
4
4
4
4
4
4
4
4
4
4
4
4
4
4
4
4
4
4
4
4
4
4
4
4
4
4
4
4
4
4
4
4
4
4
4
4
4
4
4
4
4
4
4
4
4
4
4
4
4
4
4
4
4
4
4
4
4
4
4
4
4
4
4
4
4
4
4
4
4
4
4
4
4
4
4
4
4
4
4
4
4
4
4
4
4
4
4
4
4
4
4
4
4
4
4
4
4
4
4
4
4
4
4
4
4
4
4
4
4
4
4
4
4
4
4
4
4
4
4
4
4
4
4
4
4
4
4
4
4
4
4
4
4
4
4
4
4
4
4
4
4
4
4
4
4
4
4
4
4
4
4
4
4
4
4
4
4
4
4
4
4
4
4
4
4
4
4
4
4
4
4
4
4
4
4
4
4
4
4
4
4
4
4
4
4
4
4
4
4
4
4
4
4
4
4
4
4
4
4
4
4
4
4
4
4
4
4
4
4
4
4
4
4
4
4
4
4
4
4
4
4
4
4
4
4
4
4
4
2
2
2
2
4
4
4
4
4
4
4
4
4
4
4
4
4
4
4
4
4
4
4
4
4
4
4
4
4
4
4
4
4
4
4
4
4
4
4
4
4
4
4
4
4
4
4
4
4
4
4
4
4
4
4
4
4
4
4
4
4
4
4
4
4
4
4
4
4
4
4
4
4
4
4
4
4
4
4
4
4
4
4
4
4
4
4
4
4
4
4
4
4
4
4
4
4
4
4
4
4
4
4
4
4
4
4
4
4
4
4
4
4
4
4
4
4
4
4
4
4
4
4
4
4
4
4
4
4
4
4
4
4
4
4
4
4
4
4
4
4
4
4
4
4
4
4
4
4
4
4
4
4
4
4
4
4
4
4
4
4
4
4
4
4
4
4
4
4
4
4
4
4
4
4
4
4
4
4
4
4
4
4
4
4
4
4
4
4
4
4
4
4
4
4
4
4
4
4
4
4
4
4
4
4
4
4
4
4
4
4
4
4
4
4
4
4
4
4
4
4
4
4
4
4
4
4
4
4
4
4
4
4
4
4
4
4
4
4
4
4
4
4
4
4
4
4
4
4
4
4
4
4
4
4
4
4
4
4
4
4
4
4
4
4
4
4
4
4
4
4
4
2
2
2
2
4
4
4
4
4
4
4
4
4
4
4
4
4
4
4
4
4
4
4
4
4
4
4
4
4
4
4
4
4
4
4
4
4
4
4
4
4
4
4
4
4
4
4
4
4
4
4
4
4
4
4
4
4
4
4
4
4
4
4
4
4
4
4
4
4
4
4
4
4
4
4
4
4
4
4
4
4
4
4
4
4
4
4
4
4
4
4
4
4
4
4
4
4
4
4
4
4
4
4
4
4
4
4
4
4
4
4
4
4
4
4
4
4
4
4
4
4
4
4
4
4
4
4
4
4
4
4
4
4
4
4
4
4
4
4
4
4
4
4
4
4
4
4
4
4
4
4
4
4
4
4
4
4
4
4
4
4
4
4
4
4
4
4
4
4
4
4
4
4
4
4
4
4
4
4
4
4
4
4
4
4
4
4
4
4
4
4
4
4
4
4
4
4
4
4
4
4
4
4
4
4
4
4
4
4
4
4
4
4
4
4
4
4
4
4
4
4
4
4
4
4
4
4
4
4
4
4
4
4
4
4
4
4
4
4
4
4
4
4
4
4
4
4
4
4
4
4
4
4
4
4
4
4
4
4
4
4
4
4
4
4
4
4
4
4
4
4
4
2
2
2
2
4
4
4
4
4
4
4
4
4
4
4
4
4
4
4
4
4
4
4
4
4
4
4
4
4
4
4
4
4
4
4
4
4
4
4
4
4
4
4
4
4
4
4
4
4
4
4
4
4
4
4
4
4
4
4
4
4
4
4
4
4
4
4
4
4
4
4
4
4
4
4
4
4
4
4
4
4
4
4
4
4
4
4
4
4
4
4
4
4
4
4
4
4
4
4
4
4
4
4
4
4
4
4
4
4
4
4
4
4
4
4
4
4
4
4
4
4
4
4
4
4
4
4
4
4
4
4
4
4
4
4
4
4
4
4
4
4
4
4
4
4
4
4
4
4
4
4
4
4
4
4
4
4
4
4
4
4
4
4
4
4
4
4
4
4
4
4
4
4
4
4
4
4
4
4
4
4
4
4
4
4
4
4
4
4
4
4
4
4
4
4
4
4
4
4
4
4
4
4
4
4
4
4
4
4
4
4
4
4
4
4
4
4
4
4
4
4
4
4
4
4
4
4
4
4
4
4
4
4
4
4
4
4
4
4
4
4
4
4
4
4
4
4
4
4
4
4
4
4
4
4
4
4
4
4
4
4
4
4
4
4
4
4
4
4
4
4
4
2
2
2
2
4
4
4
4
4
4
4
4
4
4
4
4
4
4
4
4
4
4
4
4
4
4
4
4
4
4
4
4
4
4
4
4
4
4
4
4
4
4
4
4
4
4
4
4
4
4
4
4
4
4
4
4
4
4
4
4
4
4
4
4
4
4
4
4
4
4
4
4
4
4
4
4
4
4
4
4
4
4
4
4
4
4
4
4
4
4
4
4
4
4
4
4
4
4
4
4
4
4
4
4
4
4
4
4
4
4
4
4
4
4
4
4
4
4
4
4
4
4
4
4
4
4
4
4
4
4
4
4
4
4
4
4
4
4
4
4
4
4
4
4
4
4
4
4
4
4
4
4
4
4
4
4
4
4
4
4
4
4
4
4
4
4
4
4
4
4
4
4
4
4
4
4
4
4
4
4
4
4
4
4
4
4
4
4
4
4
4
4
4
4
4
4
4
4
4
4
4
4
4
4
4
4
4
4
4
4
4
4
4
4
4
4
4
4
4
4
4
4
4
4
4
4
4
4
4
4
4
4
4
4
4
4
4
4
4
4
4
4
4
4
4
4
4
4
4
4
4
4
4
4
4
4
4
4
4
4
4
4
4
4
4
4
4
4
4
4
4
4
2
2
2
2
4
4
4
4
4
4
4
4
4
4
4
4
4
4
4
4
4
4
4
4
4
4
4
4
4
4
4
4
4
4
4
4
4
4
4
4
4
4
4
4
4
4
4
4
4
4
4
4
4
4
4
4
4
4
4
4
4
4
4
4
4
4
4
4
4
4
4
4
4
4
4
4
4
4
4
4
4
4
4
4
4
4
4
4
4
4
4
4
4
4
4
4
4
4
4
4
4
4
4
4
4
4
4
4
4
4
4
4
4
4
4
4
4
4
4
4
4
4
4
4
4
4
4
4
4
4
4
4
4
4
4
4
4
4
4
4
4
4
4
4
4
4
4
4
4
4
4
4
4
4
4
4
4
4
4
4
4
4
4
4
4
4
4
4
4
4
4
4
4
4
4
4
4
4
4
4
4
4
4
4
4
4
4
4
4
4
4
4
4
4
4
4
4
4
4
4
4
4
4
4
4
4
4
4
4
4
4
4
4
4
4
4
4
4
4
4
4
4
4
4
4
4
4
4
4
4
4
4
4
4
4
4
4
4
4
4
4
4
4
4
4
4
4
4
4
4
4
4
4
4
4
4
4
4
4
4
4
4
4
4
4
4
4
4
4
4
4
4
2
2
2
2
4
4
4
4
4
4
4
4
4
4
4
4
4
4
4
4
4
4
4
4
4
4
4
4
4
4
4
4
4
4
4
4
4
4
4
4
4
4
4
4
4
4
4
4
4
4
4
4
4
4
4
4
4
4
4
4
4
4
4
4
4
4
4
4
4
4
4
4
4
4
4
4
4
4
4
4
4
4
4
4
4
4
4
4
4
4
4
4
4
4
4
4
4
4
4
4
4
4
4
4
4
4
4
4
4
4
4
4
4
4
4
4
4
4
4
4
4
4
4
4
4
4
4
4
4
4
4
4
4
4
4
4
4
4
4
4
4
4
4
4
4
4
4
4
4
4
4
4
4
4
4
4
4
4
4
4
4
4
4
4
4
4
4
4
4
4
4
4
4
4
4
4
4
4
4
4
4
4
4
4
4
4
4
4
4
4
4
4
4
4
4
4
4
4
4
4
4
4
4
4
4
4
4
4
4
4
4
4
4
4
4
4
4
4
4
4
4
4
4
4
4
4
4
4
4
4
4
4
4
4
4
4
4
4
4
4
4
4
4
4
4
4
4
4
4
4
4
4
4
4
4
4
4
4
4
4
4
4
4
4
4
4
4
4
4
4
4
4
2
2
2
2
4
4
4
4
4
4
4
4
4
4
4
4
4
4
4
4
4
4
4
4
4
4
4
4
4
4
4
4
4
4
4
4
4
4
4
4
4
4
4
4
4
4
4
4
4
4
4
4
4
4
4
4
4
4
4
4
4
4
4
4
4
4
4
4
4
4
4
4
4
4
4
4
4
4
4
4
4
4
4
4
4
4
4
4
4
4
4
4
4
4
4
4
4
4
4
4
4
4
4
4
4
4
4
4
4
4
4
4
4
4
4
4
4
4
4
4
4
4
4
4
4
4
4
4
4
4
4
4
4
4
4
4
4
4
4
4
4
4
4
4
4
4
4
4
4
4
4
4
4
4
4
4
4
4
4
4
4
4
4
4
4
4
4
4
4
4
4
4
4
4
4
4
4
4
4
4
4
4
4
4
4
4
4
4
4
4
4
4
4
4
4
4
4
4
4
4
4
4
4
4
4
4
4
4
4
4
4
4
4
4
4
4
4
4
4
4
4
4
4
4
4
4
4
4
4
4
4
4
4
4
4
4
4
4
4
4
4
4
4
4
4
4
4
4
4
4
4
4
4
4
4
4
4
4
4
4
4
4
4
4
4
4
4
4
4
4
4
4
2
2
2
2
4
4
4
4
4
4
4
4
4
4
4
4
4
4
4
4
4
4
4
4
4
4
4
4
4
4
4
4
4
4
4
4
4
4
4
4
4
4
4
4
4
4
4
4
4
4
4
4
4
4
4
4
4
4
4
4
4
4
4
4
4
4
4
4
4
4
4
4
4
4
4
4
4
4
4
4
4
4
4
4
4
4
4
4
4
4
4
4
4
4
4
4
4
4
4
4
4
4
4
4
4
4
4
4
4
4
4
4
4
4
4
4
4
4
4
4
4
4
4
4
4
4
4
4
4
4
4
4
4
4
4
4
4
4
4
4
4
4
4
4
4
4
4
4
4
4
4
4
4
4
4
4
4
4
4
4
4
4
4
4
4
4
4
4
4
4
4
4
4
4
4
4
4
4
4
4
4
4
4
4
4
4
4
4
4
4
4
4
4
4
4
4
4
4
4
4
4
4
4
4
4
4
4
4
4
4
4
4
4
4
4
4
4
4
4
4
4
4
4
4
4
4
4
4
4
4
4
4
4
4
4
4
4
4
4
4
4
4
4
4
4
4
4
4
4
4
4
4
4
4
4
4
4
4
4
4
4
4
4
4
4
4
4
4
4
4
4
4
2
2
2
2
4
4
4
4
4
4
4
4
4
4
4
4
4
4
4
4
4
4
4
4
4
4
4
4
4
4
4
4
4
4
4
4
4
4
4
4
4
4
4
4
4
4
4
4
4
4
4
4
4
4
4
4
4
4
4
4
4
4
4
4
4
4
4
4
4
4
4
4
4
4
4
4
4
4
4
4
4
4
4
4
4
4
4
4
4
4
4
4
4
4
4
4
4
4
4
4
4
4
4
4
4
4
4
4
4
4
4
4
4
4
4
4
4
4
4
4
4
4
4
4
4
4
4
4
4
4
4
4
4
4
4
4
4
4
4
4
4
4
4
4
4
4
4
4
4
4
4
4
4
4
4
4
4
4
4
4
4
4
4
4
4
4
4
4
4
4
4
4
4
4
4
4
4
4
4
4
4
4
4
4
4
4
4
4
4
4
4
4
4
4
4
4
4
4
4
4
4
4
4
4
4
4
4
4
4
4
4
4
4
4
4
4
4
4
4
4
4
4
4
4
4
4
4
4
4
4
4
4
4
4
4
4
4
4
4
4
4
4
4
4
4
4
4
4
4
4
4
4
4
4
4
4
4
4
4
4
4
4
4
4
4
4
4
4
4
4
4
4
2
2
2
2
4
4
4
4
4
4
4
4
4
4
4
4
4
4
4
4
4
4
4
4
4
4
4
4
4
4
4
4
4
4
4
4
4
4
4
4
4
4
4
4
4
4
4
4
4
4
4
4
4
4
4
4
4
4
4
4
4
4
4
4
4
4
4
4
4
4
4
4
4
4
4
4
4
4
4
4
4
4
4
4
4
4
4
4
4
4
4
4
4
4
4
4
4
4
4
4
4
4
4
4
4
4
4
4
4
4
4
4
4
4
4
4
4
4
4
4
4
4
4
4
4
4
4
4
4
4
4
4
4
4
4
4
4
4
4
4
4
4
4
4
4
4
4
4
4
4
4
4
4
4
4
4
4
4
4
4
4
4
4
4
4
4
4
4
4
4
4
4
4
4
4
4
4
4
4
4
4
4
4
4
4
4
4
4
4
4
4
4
4
4
4
4
4
4
4
4
4
4
4
4
4
4
4
4
4
4
4
4
4
4
4
4
4
4
4
4
4
4
4
4
4
4
4
4
4
4
4
4
4
4
4
4
4
4
4
4
4
4
4
4
4
4
4
4
4
4
4
4
4
4
4
4
4
4
4
4
4
4
4
4
4
4
4
4
4
4
4
4
2
2
2
2
4
4
4
4
4
4
4
4
4
4
4
4
4
4
4
4
4
4
4
4
4
4
4
4
4
4
4
4
4
4
4
4
4
4
4
4
4
4
4
4
4
4
4
4
4
4
4
4
4
4
4
4
4
4
4
4
4
4
4
4
4
4
4
4
4
4
4
4
4
4
4
4
4
4
4
4
4
4
4
4
4
4
4
4
4
4
4
4
4
4
4
4
4
4
4
4
4
4
4
4
4
4
4
4
4
4
4
4
4
4
4
4
4
4
4
4
4
4
4
4
4
4
4
4
4
4
4
4
4
4
4
4
4
4
4
4
4
4
4
4
4
4
4
4
4
4
4
4
4
4
4
4
4
4
4
4
4
4
4
4
4
4
4
4
4
4
4
4
4
4
4
4
4
4
4
4
4
4
4
4
4
4
4
4
4
4
4
4
4
4
4
4
4
4
4
4
4
4
4
4
4
4
4
4
4
4
4
4
4
4
4
4
4
4
4
4
4
4
4
4
4
4
4
4
4
4
4
4
4
4
4
4
4
4
4
4
4
4
4
4
4
4
4
4
4
4
4
4
4
4
4
4
4
4
4
4
4
4
4
4
4
4
4
4
4
4
4
4
2
2
2
2
4
4
4
4
4
4
4
4
4
4
4
4
4
4
4
4
4
4
4
4
4
4
4
4
4
4
4
4
4
4
4
4
4
4
4
4
4
4
4
4
4
4
4
4
4
4
4
4
4
4
4
4
4
4
4
4
4
4
4
4
4
4
4
4
4
4
4
4
4
4
4
4
4
4
4
4
4
4
4
4
4
4
4
4
4
4
4
4
4
4
4
4
4
4
4
4
4
4
4
4
4
4
4
4
4
4
4
4
4
4
4
4
4
4
4
4
4
4
4
4
4
4
4
4
4
4
4
4
4
4
4
4
4
4
4
4
4
4
4
4
4
4
4
4
4
4
4
4
4
4
4
4
4
4
4
4
4
4
4
4
4
4
4
4
4
4
4
4
4
4
4
4
4
4
4
4
4
4
4
4
4
4
4
4
4
4
4
4
4
4
4
4
4
4
4
4
4
4
4
4
4
4
4
4
4
4
4
4
4
4
4
4
4
4
4
4
4
4
4
4
4
4
4
4
4
4
4
4
4
4
4
4
4
4
4
4
4
4
4
4
4
4
4
4
4
4
4
4
4
4
4
4
4
4
4
4
4
4
4
4
4
4
4
4
4
4
4
4
2
2
2
2
4
4
4
4
4
4
4
4
4
4
4
4
4
4
4
4
4
4
4
4
4
4
4
4
4
4
4
4
4
4
4
4
4
4
4
4
4
4
4
4
4
4
4
4
4
4
4
4
4
4
4
4
4
4
4
4
4
4
4
4
4
4
4
4
4
4
4
4
4
4
4
4
4
4
4
4
4
4
4
4
4
4
4
4
4
4
4
4
4
4
4
4
4
4
4
4
4
4
4
4
4
4
4
4
4
4
4
4
4
4
4
4
4
4
4
4
4
4
4
4
4
4
4
4
4
4
4
4
4
4
4
4
4
4
4
4
4
4
4
4
4
4
4
4
4
4
4
4
4
4
4
4
4
4
4
4
4
4
4
4
4
4
4
4
4
4
4
4
4
4
4
4
4
4
4
4
4
4
4
4
4
4
4
4
4
4
4
4
4
4
4
4
4
4
4
4
4
4
4
4
4
4
4
4
4
4
4
4
4
4
4
4
4
4
4
4
4
4
4
4
4
4
4
4
4
4
4
4
4
4
4
4
4
4
4
4
4
4
4
4
4
4
4
4
4
4
4
4
4
4
4
4
4
4
4
4
4
4
4
4
4
4
4
4
4
4
4
4
2
2
2
2
4
4
4
4
4
4
4
4
4
4
4
4
4
4
4
4
4
4
4
4
4
4
4
4
4
4
4
4
4
4
4
4
4
4
4
4
4
4
4
4
4
4
4
4
4
4
4
4
4
4
4
4
4
4
4
4
4
4
4
4
4
4
4
4
4
4
4
4
4
4
4
4
4
4
4
4
4
4
4
4
4
4
4
4
4
4
4
4
4
4
4
4
4
4
4
4
4
4
4
4
4
4
4
4
4
4
4
4
4
4
4
4
4
4
4
4
4
4
4
4
4
4
4
4
4
4
4
4
4
4
4
4
4
4
4
4
4
4
4
4
4
4
4
4
4
4
4
4
4
4
4
4
4
4
4
4
4
4
4
4
4
4
4
4
4
4
4
4
4
4
4
4
4
4
4
4
4
4
4
4
4
4
4
4
4
4
4
4
4
4
4
4
4
4
4
4
4
4
4
4
4
4
4
4
4
4
4
4
4
4
4
4
4
4
4
4
4
4
4
4
4
4
4
4
4
4
4
4
4
4
4
4
4
4
4
4
4
4
4
4
4
4
4
4
4
4
4
4
4
4
4
4
4
4
4
4
4
4
4
4
4
4
4
4
4
4
4
4
2
2
2
2
4
4
4
4
4
4
4
4
4
4
4
4
4
4
4
4
4
4
4
4
4
4
4
4
4
4
4
4
4
4
4
4
4
4
4
4
4
4
4
4
4
4
4
4
4
4
4
4
4
4
4
4
4
4
4
4
4
4
4
4
4
4
4
4
4
4
4
4
4
4
4
4
4
4
4
4
4
4
4
4
4
4
4
4
4
4
4
4
4
4
4
4
4
4
4
4
4
4
4
4
4
4
4
4
4
4
4
4
4
4
4
4
4
4
4
4
4
4
4
4
4
4
4
4
4
4
4
4
4
4
4
4
4
4
4
4
4
4
4
4
4
4
4
4
4
4
4
4
4
4
4
4
4
4
4
4
4
4
4
4
4
4
4
4
4
4
4
4
4
4
4
4
4
4
4
4
4
4
4
4
4
4
4
4
4
4
4
4
4
4
4
4
4
4
4
4
4
4
4
4
4
4
4
4
4
4
4
4
4
4
4
4
4
4
4
4
4
4
4
4
4
4
4
4
4
4
4
4
4
4
4
4
4
4
4
4
4
4
4
4
4
4
4
4
4
4
4
4
4
4
4
4
4
4
4
4
4
4
4
4
4
4
4
4
4
4
4
4
2
2
2
2
4
4
4
4
4
4
4
4
4
4
4
4
4
4
4
4
4
4
4
4
4
4
4
4
4
4
4
4
4
4
4
4
4
4
4
4
4
4
4
4
4
4
4
4
4
4
4
4
4
4
4
4
4
4
4
4
4
4
4
4
4
4
4
4
4
4
4
4
4
4
4
4
4
4
4
4
4
4
4
4
4
4
4
4
4
4
4
4
4
4
4
4
4
4
4
4
4
4
4
4
4
4
4
4
4
4
4
4
4
4
4
4
4
4
4
4
4
4
4
4
4
4
4
4
4
4
4
4
4
4
4
4
4
4
4
4
4
4
4
4
4
4
4
4
4
4
4
4
4
4
4
4
4
4
4
4
4
4
4
4
4
4
4
4
4
4
4
4
4
4
4
4
4
4
4
4
4
4
4
4
4
4
4
4
4
4
4
4
4
4
4
4
4
4
4
4
4
4
4
4
4
4
4
4
4
4
4
4
4
4
4
4
4
4
4
4
4
4
4
4
4
4
4
4
4
4
4
4
4
4
4
4
4
4
4
4
4
4
4
4
4
4
4
4
4
4
4
4
4
4
4
4
4
4
4
4
4
4
4
4
4
4
4
4
4
4
4
4
2
2
2
2
4
4
4
4
4
4
4
4
4
4
4
4
4
4
4
4
4
4
4
4
4
4
4
4
4
4
4
4
4
4
4
4
4
4
4
4
4
4
4
4
4
4
4
4
4
4
4
4
4
4
4
4
4
4
4
4
4
4
4
4
4
4
4
4
4
4
4
4
4
4
4
4
4
4
4
4
4
4
4
4
4
4
4
4
4
4
4
4
4
4
4
4
4
4
4
4
4
4
4
4
4
4
4
4
4
4
4
4
4
4
4
4
4
4
4
4
4
4
4
4
4
4
4
4
4
4
4
4
4
4
4
4
4
4
4
4
4
4
4
4
4
4
4
4
4
4
4
4
4
4
4
4
4
4
4
4
4
4
4
4
4
4
4
4
4
4
4
4
4
4
4
4
4
4
4
4
4
4
4
4
4
4
4
4
4
4
4
4
4
4
4
4
4
4
4
4
4
4
4
4
4
4
4
4
4
4
4
4
4
4
4
4
4
4
4
4
4
4
4
4
4
4
4
4
4
4
4
4
4
4
4
4
4
4
4
4
4
4
4
4
4
4
4
4
4
4
4
4
4
4
4
4
4
4
4
4
4
4
4
4
4
4
4
4
4
4
4
4
2
2
2
2
4
4
4
4
4
4
4
4
4
4
4
4
4
4
4
4
4
4
4
4
4
4
4
4
4
4
4
4
4
4
4
4
4
4
4
4
4
4
4
4
4
4
4
4
4
4
4
4
4
4
4
4
4
4
4
4
4
4
4
4
4
4
4
4
4
4
4
4
4
4
4
4
4
4
4
4
4
4
4
4
4
4
4
4
4
4
4
4
4
4
4
4
4
4
4
4
4
4
4
4
4
4
4
4
4
4
4
4
4
4
4
4
4
4
4
4
4
4
4
4
4
4
4
4
4
4
4
4
4
4
4
4
4
4
4
4
4
4
4
4
4
4
4
4
4
4
4
4
4
4
4
4
4
4
4
4
4
4
4
4
4
4
4
4
4
4
4
4
4
4
4
4
4
4
4
4
4
4
4
4
4
4
4
4
4
4
4
4
4
4
4
4
4
4
4
4
4
4
4
4
4
4
4
4
4
4
4
4
4
4
4
4
4
4
4
4
4
4
4
4
4
4
4
4
4
4
4
4
4
4
4
4
4
4
4
4
4
4
4
4
4
4
4
4
4
4
4
4
4
4
4
4
4
4
4
4
4
4
4
4
4
4
4
4
4
4
4
4
2
2
2
2
4
4
4
4
4
4
4
4
4
4
4
4
4
4
4
4
4
4
4
4
4
4
4
4
4
4
4
4
4
4
4
4
4
4
4
4
4
4
4
4
4
4
4
4
4
4
4
4
4
4
4
4
4
4
4
4
4
4
4
4
4
4
4
4
4
4
4
4
4
4
4
4
4
4
4
4
4
4
4
4
4
4
4
4
4
4
4
4
4
4
4
4
4
4
4
4
4
4
4
4
4
4
4
4
4
4
4
4
4
4
4
4
4
4
4
4
4
4
4
4
4
4
4
4
4
4
4
4
4
4
4
4
4
4
4
4
4
4
4
4
4
4
4
4
4
4
4
4
4
4
4
4
4
4
4
4
4
4
4
4
4
4
4
4
4
4
4
4
4
4
4
4
4
4
4
4
4
4
4
4
4
4
4
4
4
4
4
4
4
4
4
4
4
4
4
4
4
4
4
4
4
4
4
4
4
4
4
4
4
4
4
4
4
4
4
4
4
4
4
4
4
4
4
4
4
4
4
4
4
4
4
4
4
4
4
4
4
4
4
4
4
4
4
4
4
4
4
4
4
4
4
4
4
4
4
4
4
4
4
4
4
4
4
4
4
4
4
4
2
2
2
2
4
4
4
4
4
4
4
4
4
4
4
4
4
4
4
4
4
4
4
4
4
4
4
4
4
4
4
4
4
4
4
4
4
4
4
4
4
4
4
4
4
4
4
4
4
4
4
4
4
4
4
4
4
4
4
4
4
4
4
4
4
4
4
4
4
4
4
4
4
4
4
4
4
4
4
4
4
4
4
4
4
4
4
4
4
4
4
4
4
4
4
4
4
4
4
4
4
4
4
4
4
4
4
4
4
4
4
4
4
4
4
4
4
4
4
4
4
4
4
4
4
4
4
4
4
4
4
4
4
4
4
4
4
4
4
4
4
4
4
4
4
4
4
4
4
4
4
4
4
4
4
4
4
4
4
4
4
4
4
4
4
4
4
4
4
4
4
4
4
4
4
4
4
4
4
4
4
4
4
4
4
4
4
4
4
4
4
4
4
4
4
4
4
4
4
4
4
4
4
4
4
4
4
4
4
4
4
4
4
4
4
4
4
4
4
4
4
4
4
4
4
4
4
4
4
4
4
4
4
4
4
4
4
4
4
4
4
4
4
4
4
4
4
4
4
4
4
4
4
4
4
4
4
4
4
4
4
4
4
4
4
4
4
4
4
4
4
4
2
2
2
2
4
4
4
4
4
4
4
4
4
4
4
4
4
4
4
4
4
4
4
4
4
4
4
4
4
4
4
4
4
4
4
4
4
4
4
4
4
4
4
4
4
4
4
4
4
4
4
4
4
4
4
4
4
4
4
4
4
4
4
4
4
4
4
4
4
4
4
4
4
4
4
4
4
4
4
4
4
4
4
4
4
4
4
4
4
4
4
4
4
4
4
4
4
4
4
4
4
4
4
4
4
4
4
4
4
4
4
4
4
4
4
4
4
4
4
4
4
4
4
4
4
4
4
4
4
4
4
4
4
4
4
4
4
4
4
4
4
4
4
4
4
4
4
4
4
4
4
4
4
4
4
4
4
4
4
4
4
4
4
4
4
4
4
4
4
4
4
4
4
4
4
4
4
4
4
4
4
4
4
4
4
4
4
4
4
4
4
4
4
4
4
4
4
4
4
4
4
4
4
4
4
4
4
4
4
4
4
4
4
4
4
4
4
4
4
4
4
4
4
4
4
4
4
4
4
4
4
4
4
4
4
4
4
4
4
4
4
4
4
4
4
4
4
4
4
4
4
4
4
4
4
4
4
4
4
4
4
4
4
4
4
4
4
4
4
4
4
4
2
2
2
2
4
4
4
4
4
4
4
4
4
4
4
4
4
4
4
4
4
4
4
4
4
4
4
4
4
4
4
4
4
4
4
4
4
4
4
4
4
4
4
4
4
4
4
4
4
4
4
4
4
4
4
4
4
4
4
4
4
4
4
4
4
4
4
4
4
4
4
4
4
4
4
4
4
4
4
4
4
4
4
4
4
4
4
4
4
4
4
4
4
4
4
4
4
4
4
4
4
4
4
4
4
4
4
4
4
4
4
4
4
4
4
4
4
4
4
4
4
4
4
4
4
4
4
4
4
4
4
4
4
4
4
4
4
4
4
4
4
4
4
4
4
4
4
4
4
4
4
4
4
4
4
4
4
4
4
4
4
4
4
4
4
4
4
4
4
4
4
4
4
4
4
4
4
4
4
4
4
4
4
4
4
4
4
4
4
4
4
4
4
4
4
4
4
4
4
4
4
4
4
4
4
4
4
4
4
4
4
4
4
4
4
4
4
4
4
4
4
4
4
4
4
4
4
4
4
4
4
4
4
4
4
4
4
4
4
4
4
4
4
4
4
4
4
4
4
4
4
4
4
4
4
4
4
4
4
4
4
4
4
4
4
4
4
4
4
4
4
4
2
2
2
2
4
4
4
4
4
4
4
4
4
4
4
4
4
4
4
4
4
4
4
4
4
4
4
4
4
4
4
4
4
4
4
4
4
4
4
4
4
4
4
4
4
4
4
4
4
4
4
4
4
4
4
4
4
4
4
4
4
4
4
4
4
4
4
4
4
4
4
4
4
4
4
4
4
4
4
4
4
4
4
4
4
4
4
4
4
4
4
4
4
4
4
4
4
4
4
4
4
4
4
4
4
4
4
4
4
4
4
4
4
4
4
4
4
4
4
4
4
4
4
4
4
4
4
4
4
4
4
4
4
4
4
4
4
4
4
4
4
4
4
4
4
4
4
4
4
4
4
4
4
4
4
4
4
4
4
4
4
4
4
4
4
4
4
4
4
4
4
4
4
4
4
4
4
4
4
4
4
4
4
4
4
4
4
4
4
4
4
4
4
4
4
4
4
4
4
4
4
4
4
4
4
4
4
4
4
4
4
4
4
4
4
4
4
4
4
4
4
4
4
4
4
4
4
4
4
4
4
4
4
4
4
4
4
4
4
4
4
4
4
4
4
4
4
4
4
4
4
4
4
4
4
4
4
4
4
4
4
4
4
4
4
4
4
4
4
4
4
4
2
2
2
2
4
4
4
4
4
4
4
4
4
4
4
4
4
4
4
4
4
4
4
4
4
4
4
4
4
4
4
4
4
4
4
4
4
4
4
4
4
4
4
4
4
4
4
4
4
4
4
4
4
4
4
4
4
4
4
4
4
4
4
4
4
4
4
4
4
4
4
4
4
4
4
4
4
4
4
4
4
4
4
4
4
4
4
4
4
4
4
4
4
4
4
4
4
4
4
4
4
4
4
4
4
4
4
4
4
4
4
4
4
4
4
4
4
4
4
4
4
4
4
4
4
4
4
4
4
4
4
4
4
4
4
4
4
4
4
4
4
4
4
4
4
4
4
4
4
4
4
4
4
4
4
4
4
4
4
4
4
4
4
4
4
4
4
4
4
4
4
4
4
4
4
4
4
4
4
4
4
4
4
4
4
4
4
4
4
4
4
4
4
4
4
4
4
4
4
4
4
4
4
4
4
4
4
4
4
4
4
4
4
4
4
4
4
4
4
4
4
4
4
4
4
4
4
4
4
4
4
4
4
4
4
4
4
4
4
4
4
4
4
4
4
4
4
4
4
4
4
4
4
4
4
4
4
4
4
4
4
4
4
4
4
4
4
4
4
4
4
4
2
2
2
2
4
4
4
4
4
4
4
4
4
4
4
4
4
4
4
4
4
4
4
4
4
4
4
4
4
4
4
4
4
4
4
4
4
4
4
4
4
4
4
4
4
4
4
4
4
4
4
4
4
4
4
4
4
4
4
4
4
4
4
4
4
4
4
4
4
4
4
4
4
4
4
4
4
4
4
4
4
4
4
4
4
4
4
4
4
4
4
4
4
4
4
4
4
4
4
4
4
4
4
4
4
4
4
4
4
4
4
4
4
4
4
4
4
4
4
4
4
4
4
4
4
4
4
4
4
4
4
4
4
4
4
4
4
4
4
4
4
4
4
4
4
4
4
4
4
4
4
4
4
4
4
4
4
4
4
4
4
4
4
4
4
4
4
4
4
4
4
4
4
4
4
4
4
4
4
4
4
4
4
4
4
4
4
4
4
4
4
4
4
4
4
4
4
4
4
4
4
4
4
4
4
4
4
4
4
4
4
4
4
4
4
4
4
4
4
4
4
4
4
4
4
4
4
4
4
4
4
4
4
4
4
4
4
4
4
4
4
4
4
4
4
4
4
4
4
4
4
4
4
4
4
4
4
4
4
4
4
4
4
4
4
4
4
4
4
4
4
4
2
2
2
2
4
4
4
4
4
4
4
4
4
4
4
4
4
4
4
4
4
4
4
4
4
4
4
4
4
4
4
4
4
4
4
4
4
4
4
4
4
4
4
4
4
4
4
4
4
4
4
4
4
4
4
4
4
4
4
4
4
4
4
4
4
4
4
4
4
4
4
4
4
4
4
4
4
4
4
4
4
4
4
4
4
4
4
4
4
4
4
4
4
4
4
4
4
4
4
4
4
4
4
4
4
4
4
4
4
4
4
4
4
4
4
4
4
4
4
4
4
4
4
4
4
4
4
4
4
4
4
4
4
4
4
4
4
4
4
4
4
4
4
4
4
4
4
4
4
4
4
4
4
4
4
4
4
4
4
4
4
4
4
4
4
4
4
4
4
4
4
4
4
4
4
4
4
4
4
4
4
4
4
4
4
4
4
4
4
4
4
4
4
4
4
4
4
4
4
4
4
4
4
4
4
4
4
4
4
4
4
4
4
4
4
4
4
4
4
4
4
4
4
4
4
4
4
4
4
4
4
4
4
4
4
4
4
4
4
4
4
4
4
4
4
4
4
4
4
4
4
4
4
4
4
4
4
4
4
4
4
4
4
4
4
4
4
4
4
4
4
4
2
2
2
2
4
4
4
4
4
4
4
4
4
4
4
4
4
4
4
4
4
4
4
4
4
4
4
4
4
4
4
4
4
4
4
4
4
4
4
4
4
4
4
4
4
4
4
4
4
4
4
4
4
4
4
4
4
4
4
4
4
4
4
4
4
4
4
4
4
4
4
4
4
4
4
4
4
4
4
4
4
4
4
4
4
4
4
4
4
4
4
4
4
4
4
4
4
4
4
4
4
4
4
4
4
4
4
4
4
4
4
4
4
4
4
4
4
4
4
4
4
4
4
4
4
4
4
4
4
4
4
4
4
4
4
4
4
4
4
4
4
4
4
4
4
4
4
4
4
4
4
4
4
4
4
4
4
4
4
4
4
4
4
4
4
4
4
4
4
4
4
4
4
4
4
4
4
4
4
4
4
4
4
4
4
4
4
4
4
4
4
4
4
4
4
4
4
4
4
4
4
4
4
4
4
4
4
4
4
4
4
4
4
4
4
4
4
4
4
4
4
4
4
4
4
4
4
4
4
4
4
4
4
4
4
4
4
4
4
4
4
4
4
4
4
4
4
4
4
4
4
4
4
4
4
4
4
4
4
4
4
4
4
4
4
4
4
4
4
4
4
4
2
2
2
2
4
4
4
4
4
4
4
4
4
4
4
4
4
4
4
4
4
4
4
4
4
4
4
4
4
4
4
4
4
4
4
4
4
4
4
4
4
4
4
4
4
4
4
4
4
4
4
4
4
4
4
4
4
4
4
4
4
4
4
4
4
4
4
4
4
4
4
4
4
4
4
4
4
4
4
4
4
4
4
4
4
4
4
4
4
4
4
4
4
4
4
4
4
4
4
4
4
4
4
4
4
4
4
4
4
4
4
4
4
4
4
4
4
4
4
4
4
4
4
4
4
4
4
4
4
4
4
4
4
4
4
4
4
4
4
4
4
4
4
4
4
4
4
4
4
4
4
4
4
4
4
4
4
4
4
4
4
4
4
4
4
4
4
4
4
4
4
4
4
4
4
4
4
4
4
4
4
4
4
4
4
4
4
4
4
4
4
4
4
4
4
4
4
4
4
4
4
4
4
4
4
4
4
4
4
4
4
4
4
4
4
4
4
4
4
4
4
4
4
4
4
4
4
4
4
4
4
4
4
4
4
4
4
4
4
4
4
4
4
4
4
4
4
4
4
4
4
4
4
4
4
4
4
4
4
4
4
4
4
4
4
4
4
4
4
4
4
4
2
2
2
2
4
4
4
4
4
4
4
4
4
4
4
4
4
4
4
4
4
4
4
4
4
4
4
4
4
4
4
4
4
4
4
4
4
4
4
4
4
4
4
4
4
4
4
4
4
4
4
4
4
4
4
4
4
4
4
4
4
4
4
4
4
4
4
4
4
4
4
4
4
4
4
4
4
4
4
4
4
4
4
4
4
4
4
4
4
4
4
4
4
4
4
4
4
4
4
4
4
4
4
4
4
4
4
4
4
4
4
4
4
4
4
4
4
4
4
4
4
4
4
4
4
4
4
4
4
4
4
4
4
4
4
4
4
4
4
4
4
4
4
4
4
4
4
4
4
4
4
4
4
4
4
4
4
4
4
4
4
4
4
4
4
4
4
4
4
4
4
4
4
4
4
4
4
4
4
4
4
4
4
4
4
4
4
4
4
4
4
4
4
4
4
4
4
4
4
4
4
4
4
4
4
4
4
4
4
4
4
4
4
4
4
4
4
4
4
4
4
4
4
4
4
4
4
4
4
4
4
4
4
4
4
4
4
4
4
4
4
4
4
4
4
4
4
4
4
4
4
4
4
4
4
4
4
4
4
4
4
4
4
4
4
4
4
4
4
4
4
4
2
2
2
2
4
4
4
4
4
4
4
4
4
4
4
4
4
4
4
4
4
4
4
4
4
4
4
4
4
4
4
4
4
4
4
4
4
4
4
4
4
4
4
4
4
4
4
4
4
4
4
4
4
4
4
4
4
4
4
4
4
4
4
4
4
4
4
4
4
4
4
4
4
4
4
4
4
4
4
4
4
4
4
4
4
4
4
4
4
4
4
4
4
4
4
4
4
4
4
4
4
4
4
4
4
4
4
4
4
4
4
4
4
4
4
4
4
4
4
4
4
4
4
4
4
4
4
4
4
4
4
4
4
4
4
4
4
4
4
4
4
4
4
4
4
4
4
4
4
4
4
4
4
4
4
4
4
4
4
4
4
4
4
4
4
4
4
4
4
4
4
4
4
4
4
4
4
4
4
4
4
4
4
4
4
4
4
4
4
4
4
4
4
4
4
4
4
4
4
4
4
4
4
4
4
4
4
4
4
4
4
4
4
4
4
4
4
4
4
4
4
4
4
4
4
4
4
4
4
4
4
4
4
4
4
4
4
4
4
4
4
4
4
4
4
4
4
4
4
4
4
4
4
4
4
4
4
4
4
4
4
4
4
4
4
4
4
4
4
4
4
4
2
2
2
2
4
4
4
4
4
4
4
4
4
4
4
4
4
4
4
4
4
4
4
4
4
4
4
4
4
4
4
4
4
4
4
4
4
4
4
4
4
4
4
4
4
4
4
4
4
4
4
4
4
4
4
4
4
4
4
4
4
4
4
4
4
4
4
4
4
4
4
4
4
4
4
4
4
4
4
4
4
4
4
4
4
4
4
4
4
4
4
4
4
4
4
4
4
4
4
4
4
4
4
4
4
4
4
4
4
4
4
4
4
4
4
4
4
4
4
4
4
4
4
4
4
4
4
4
4
4
4
4
4
4
4
4
4
4
4
4
4
4
4
4
4
4
4
4
4
4
4
4
4
4
4
4
4
4
4
4
4
4
4
4
4
4
4
4
4
4
4
4
4
4
4
4
4
4
4
4
4
4
4
4
4
4
4
4
4
4
4
4
4
4
4
4
4
4
4
4
4
4
4
4
4
4
4
4
4
4
4
4
4
4
4
4
4
4
4
4
4
4
4
4
4
4
4
4
4
4
4
4
4
4
4
4
4
4
4
4
4
4
4
4
4
4
4
4
4
4
4
4
4
4
4
4
4
4
4
4
4
4
4
4
4
4
4
4
4
4
4
4
2
2
2
2
4
4
4
4
4
4
4
4
4
4
4
4
4
4
4
4
4
4
4
4
4
4
4
4
4
4
4
4
4
4
4
4
4
4
4
4
4
4
4
4
4
4
4
4
4
4
4
4
4
4
4
4
4
4
4
4
4
4
4
4
4
4
4
4
4
4
4
4
4
4
4
4
4
4
4
4
4
4
4
4
4
4
4
4
4
4
4
4
4
4
4
4
4
4
4
4
4
4
4
4
4
4
4
4
4
4
4
4
4
4
4
4
4
4
4
4
4
4
4
4
4
4
4
4
4
4
4
4
4
4
4
4
4
4
4
4
4
4
4
4
4
4
4
4
4
4
4
4
4
4
4
4
4
4
4
4
4
4
4
4
4
4
4
4
4
4
4
4
4
4
4
4
4
4
4
4
4
4
4
4
4
4
4
4
4
4
4
4
4
4
4
4
4
4
4
4
4
4
4
4
4
4
4
4
4
4
4
4
4
4
4
4
4
4
4
4
4
4
4
4
4
4
4
4
4
4
4
4
4
4
4
4
4
4
4
4
4
4
4
4
4
4
4
4
4
4
4
4
4
4
4
4
4
4
4
4
4
4
4
4
4
4
4
4
4
4
4
4
2
2
2
2
4
4
4
4
4
4
4
4
4
4
4
4
4
4
4
4
4
4
4
4
4
4
4
4
4
4
4
4
4
4
4
4
4
4
4
4
4
4
4
4
4
4
4
4
4
4
4
4
4
4
4
4
4
4
4
4
4
4
4
4
4
4
4
4
4
4
4
4
4
4
4
4
4
4
4
4
4
4
4
4
4
4
4
4
4
4
4
4
4
4
4
4
4
4
4
4
4
4
4
4
4
4
4
4
4
4
4
4
4
4
4
4
4
4
4
4
4
4
4
4
4
4
4
4
4
4
4
4
4
4
4
4
4
4
4
4
4
4
4
4
4
4
4
4
4
4
4
4
4
4
4
4
4
4
4
4
4
4
4
4
4
4
4
4
4
4
4
4
4
4
4
4
4
4
4
4
4
4
4
4
4
4
4
4
4
4
4
4
4
4
4
4
4
4
4
4
4
4
4
4
4
4
4
4
4
4
4
4
4
4
4
4
4
4
4
4
4
4
4
4
4
4
4
4
4
4
4
4
4
4
4
4
4
4
4
4
4
4
4
4
4
4
4
4
4
4
4
4
4
4
4
4
4
4
4
4
4
4
4
4
4
4
4
4
4
4
4
4
2
2
2
2
4
4
4
4
4
4
4
4
4
4
4
4
4
4
4
4
4
4
4
4
4
4
4
4
4
4
4
4
4
4
4
4
4
4
4
4
4
4
4
4
4
4
4
4
4
4
4
4
4
4
4
4
4
4
4
4
4
4
4
4
4
4
4
4
4
4
4
4
4
4
4
4
4
4
4
4
4
4
4
4
4
4
4
4
4
4
4
4
4
4
4
4
4
4
4
4
4
4
4
4
4
4
4
4
4
4
4
4
4
4
4
4
4
4
4
4
4
4
4
4
4
4
4
4
4
4
4
4
4
4
4
4
4
4
4
4
4
4
4
4
4
4
4
4
4
4
4
4
4
4
4
4
4
4
4
4
4
4
4
4
4
4
4
4
4
4
4
4
4
4
4
4
4
4
4
4
4
4
4
4
4
4
4
4
4
4
4
4
4
4
4
4
4
4
4
4
4
4
4
4
4
4
4
4
4
4
4
4
4
4
4
4
4
4
4
4
4
4
4
4
4
4
4
4
4
4
4
4
4
4
4
4
4
4
4
4
4
4
4
4
4
4
4
4
4
4
4
4
4
4
4
4
4
4
4
4
4
4
4
4
4
4
4
4
4
4
4
4
2
2
2
2
4
4
4
4
4
4
4
4
4
4
4
4
4
4
4
4
4
4
4
4
4
4
4
4
4
4
4
4
4
4
4
4
4
4
4
4
4
4
4
4
4
4
4
4
4
4
4
4
4
4
4
4
4
4
4
4
4
4
4
4
4
4
4
4
4
4
4
4
4
4
4
4
4
4
4
4
4
4
4
4
4
4
4
4
4
4
4
4
4
4
4
4
4
4
4
4
4
4
4
4
4
4
4
4
4
4
4
4
4
4
4
4
4
4
4
4
4
4
4
4
4
4
4
4
4
4
4
4
4
4
4
4
4
4
4
4
4
4
4
4
4
4
4
4
4
4
4
4
4
4
4
4
4
4
4
4
4
4
4
4
4
4
4
4
4
4
4
4
4
4
4
4
4
4
4
4
4
4
4
4
4
4
4
4
4
4
4
4
4
4
4
4
4
4
4
4
4
4
4
4
4
4
4
4
4
4
4
4
4
4
4
4
4
4
4
4
4
4
4
4
4
4
4
4
4
4
4
4
4
4
4
4
4
4
4
4
4
4
4
4
4
4
4
4
4
4
4
4
4
4
4
4
4
4
4
4
4
4
4
4
4
4
4
4
4
4
4
4
2
2
2
2
4
4
4
4
4
4
4
4
4
4
4
4
4
4
4
4
4
4
4
4
4
4
4
4
4
4
4
4
4
4
4
4
4
4
4
4
4
4
4
4
4
4
4
4
4
4
4
4
4
4
4
4
4
4
4
4
4
4
4
4
4
4
4
4
4
4
4
4
4
4
4
4
4
4
4
4
4
4
4
4
4
4
4
4
4
4
4
4
4
4
4
4
4
4
4
4
4
4
4
4
4
4
4
4
4
4
4
4
4
4
4
4
4
4
4
4
4
4
4
4
4
4
4
4
4
4
4
4
4
4
4
4
4
4
4
4
4
4
4
4
4
4
4
4
4
4
4
4
4
4
4
4
4
4
4
4
4
4
4
4
4
4
4
4
4
4
4
4
4
4
4
4
4
4
4
4
4
4
4
4
4
4
4
4
4
4
4
4
4
4
4
4
4
4
4
4
4
4
4
4
4
4
4
4
4
4
4
4
4
4
4
4
4
4
4
4
4
4
4
4
4
4
4
4
4
4
4
4
4
4
4
4
4
4
4
4
4
4
4
4
4
4
4
4
4
4
4
4
4
4
4
4
4
4
4
4
4
4
4
4
4
4
4
4
4
4
4
4
2
2
2
2
4
4
4
4
5
5
5
5
5
5
5
5
5
5
5
5
5
5
5
5
5
5
5
5
5
5
5
5
5
5
5
5
5
5
5
5
5
5
5
5
5
5
5
5
5
5
5
5
5
5
5
5
5
5
5
5
5
5
5
5
5
5
5
5
5
5
5
5
5
5
5
5
5
5
5
5
5
5
5
5
5
5
5
5
5
5
5
5
5
5
5
5
5
5
5
5
5
5
5
5
5
5
5
5
5
5
5
5
5
5
5
5
5
5
5
5
5
5
5
5
5
5
5
5
5
5
5
5
5
5
5
5
5
5
5
5
5
5
5
5
5
5
5
5
5
5
5
5
5
5
5
5
5
5
5
5
5
5
5
5
5
5
5
5
5
5
5
5
5
5
5
5
5
5
5
5
5
5
5
5
5
5
5
5
5
5
5
5
5
5
5
5
5
5
5
5
5
5
5
5
5
5
5
5
5
5
5
5
5
5
5
5
5
5
5
5
5
5
5
5
5
5
5
5
5
5
5
5
5
5
5
5
5
5
5
5
5
5
5
5
5
5
5
5
5
5
5
5
5
5
5
5
5
5
5
5
5
5
5
5
5
5
5
5
5
5
5
5
4
4
4
4
        </DataArray>
      </PointData>
    </Piece>
  </StructuredGrid>
</VTKFile>
